assets/luts/1.CUBE
# Copyright: (C) Copyright 2010-2020 by IWLTBAP SAS
# Cannot be resold, shared or otherwise redistributed
# Website: https://luts.iwltbap.com
TITLE "IWLTBAP 7000 (LOG)"
LUT_3D_SIZE 9
0.000000 0.000000 0.000000
0.016876 0.015789 0.015945
0.089256 0.087166 0.085830
0.229942 0.227482 0.222393
0.427353 0.425202 0.414993
0.626240 0.625157 0.614586
0.667199 0.666267 0.655731
0.688496 0.687649 0.677116
0.709900 0.709167 0.698639
0.005173 0.004563 0.004768
0.009593 0.008750 0.008987
0.072264 0.070299 0.069361
0.204776 0.202345 0.197918
0.397247 0.395008 0.385552
0.606436 0.605285 0.594761
0.668175 0.667267 0.656685
0.688640 0.687816 0.677292
0.708394 0.707657 0.697247
0.026413 0.025062 0.025116
0.027760 0.026389 0.026416
0.052405 0.050646 0.050171
0.168565 0.166186 0.162761
0.353577 0.351250 0.342888
0.569756 0.568443 0.558034
0.670031 0.669153 0.658545
0.690414 0.689614 0.679068
0.709496 0.708763 0.698326
0.067970 0.066052 0.065231
0.070127 0.068178 0.067306
0.090213 0.088119 0.086770
0.135156 0.132838 0.130331
0.303238 0.300833 0.293789
0.521979 0.520383 0.509094
0.671013 0.670110 0.659548
0.691943 0.691133 0.680635
0.711781 0.711048 0.700642
0.131943 0.129623 0.127213
0.135864 0.133558 0.131016
0.144028 0.141674 0.138950
0.193609 0.191168 0.187088
0.258529 0.256081 0.250229
0.466154 0.464207 0.453163
0.660374 0.659439 0.648834
0.694847 0.694058 0.683516
0.714905 0.714203 0.703736
0.219490 0.217048 0.212227
0.223790 0.221332 0.216420
0.225601 0.223151 0.218169
0.270624 0.268182 0.262001
0.335174 0.332823 0.324915
0.412795 0.410612 0.400743
0.624172 0.623095 0.612543
0.696409 0.695615 0.685121
0.715996 0.715294 0.704887
0.327102 0.324746 0.317032
0.330537 0.328159 0.320409
0.332964 0.330606 0.322768
0.355705 0.353382 0.344970
0.428429 0.426269 0.416031
0.499483 0.497640 0.486056
0.574715 0.573414 0.563047
0.699264 0.698480 0.687959
0.718895 0.718193 0.707787
0.369816 0.367527 0.358696
0.378758 0.376476 0.367428
0.387484 0.385226 0.375974
0.399803 0.397592 0.388017
0.477491 0.475492 0.464147
0.558603 0.557235 0.546836
0.633900 0.632858 0.622299
0.700381 0.699621 0.689072
0.721112 0.720440 0.710033
0.385956 0.383698 0.374481
0.395740 0.393512 0.384029
0.404183 0.401985 0.392288
0.412998 0.410801 0.400936
0.487229 0.485229 0.473664
0.566570 0.565232 0.554981
0.642754 0.641731 0.631127
0.709118 0.708362 0.697895
0.722534 0.721863 0.711395
0.000378 0.000290 0.000321
0.001672 0.001395 0.001523
0.048693 0.047003 0.046603
0.175977 0.173581 0.169956
0.379713 0.377438 0.368416
0.602307 0.601116 0.590677
0.650925 0.649929 0.639363
0.672336 0.671452 0.660869
0.692814 0.692020 0.681492
0.006573 0.005901 0.006115
0.016593 0.015543 0.015692
0.084289 0.082234 0.081013
0.216099 0.213651 0.208950
0.405187 0.402975 0.393345
0.614238 0.613107 0.602595
0.677832 0.676951 0.666403
0.698145 0.697375 0.686884
0.718052 0.717343 0.706960
0.027152 0.025790 0.025841
0.031989 0.030547 0.030491
0.057007 0.055192 0.054630
0.176516 0.174116 0.170482
0.363763 0.361447 0.352824
0.579053 0.577770 0.567392
0.680761 0.679913 0.669320
0.700273 0.699501 0.689009
0.719301 0.718593 0.708243
0.068739 0.066802 0.065971
0.076109 0.074113 0.073098
0.096363 0.094230 0.092737
0.142786 0.140448 0.137742
0.314086 0.311698 0.304347
0.532497 0.530949 0.519955
0.681806 0.680955 0.670378
0.702239 0.701475 0.690998
0.722358 0.721683 0.711287
0.133203 0.130899 0.128429
0.142583 0.140233 0.137532
0.152354 0.149984 0.147013
0.203065 0.200617 0.196267
0.268340 0.265913 0.259780
0.476353 0.474411 0.463319
0.669872 0.668974 0.658414
0.704792 0.704029 0.693550
0.724211 0.723539 0.713160
0.220962 0.218520 0.213658
0.232574 0.230104 0.224982
0.234230 0.231779 0.226592
0.280723 0.278286 0.271849
0.345036 0.342702 0.334562
0.423402 0.421243 0.411155
0.633164 0.632116 0.621586
0.706539 0.705789 0.695332
0.726416 0.725736 0.715376
0.326619 0.324247 0.316628
0.342544 0.340202 0.332110
0.344666 0.342325 0.334188
0.367019 0.364739 0.356005
0.438666 0.436549 0.426079
0.509629 0.507862 0.496415
0.583914 0.582672 0.572296
0.709023 0.708289 0.697826
0.728863 0.728211 0.717858
0.372166 0.369880 0.361015
0.390602 0.388367 0.379039
0.399533 0.397305 0.387779
0.411106 0.408899 0.399076
0.490586 0.488654 0.477119
0.570419 0.569110 0.558687
0.644000 0.642988 0.632433
0.709323 0.708594 0.698101
0.730919 0.730247 0.719932
0.389118 0.386860 0.377530
0.406832 0.404631 0.394918
0.417603 0.415436 0.405425
0.426998 0.424841 0.414610
0.499483 0.497617 0.485910
0.578256 0.576964 0.566609
0.652929 0.651972 0.641331
0.718966 0.718268 0.707819
0.730484 0.729813 0.719525
0.001274 0.001007 0.001129
0.002379 0.002001 0.002153
0.006537 0.005892 0.006098
0.074236 0.072281 0.071321
0.230518 0.228085 0.222992
0.447450 0.445374 0.434758
0.523712 0.522164 0.510910
0.555406 0.554051 0.543652
0.584313 0.583069 0.572617
0.008373 0.007612 0.007823
0.018480 0.017365 0.017491
0.021852 0.020624 0.020746
0.099840 0.097698 0.096090
0.254974 0.252530 0.246775
0.481228 0.479341 0.468270
0.575111 0.573819 0.563349
0.607150 0.606000 0.595473
0.632105 0.631047 0.620502
0.033629 0.032143 0.032049
0.038664 0.037094 0.036915
0.095487 0.093346 0.091870
0.230743 0.228301 0.223186
0.419942 0.417781 0.407766
0.619028 0.617927 0.607396
0.708231 0.707493 0.697071
0.721720 0.721021 0.710709
0.738794 0.738182 0.727963
0.075746 0.073750 0.072776
0.082871 0.080817 0.079661
0.130477 0.128174 0.125775
0.178624 0.176213 0.172522
0.349956 0.347636 0.339344
0.556465 0.555061 0.544265
0.697427 0.696643 0.686124
0.713784 0.713060 0.702653
0.732742 0.732090 0.721779
0.137024 0.134705 0.132133
0.147369 0.145021 0.142183
0.166951 0.164557 0.161174
0.215428 0.212974 0.208287
0.276567 0.274149 0.267801
0.485034 0.483118 0.472011
0.678851 0.677990 0.667450
0.714728 0.714009 0.703588
0.734031 0.733387 0.723083
0.221411 0.218969 0.214109
0.234130 0.231676 0.226469
0.242887 0.240435 0.235008
0.289029 0.286611 0.279926
0.354374 0.352049 0.343662
0.433327 0.431195 0.420842
0.641234 0.640212 0.629690
0.716368 0.715666 0.705273
0.735732 0.735095 0.724832
0.326971 0.324592 0.316973
0.342684 0.340329 0.332267
0.354887 0.352558 0.344160
0.376001 0.373717 0.364777
0.448362 0.446269 0.435588
0.519530 0.517908 0.506670
0.592388 0.591162 0.580770
0.718848 0.718126 0.707733
0.738079 0.737436 0.727192
0.374256 0.371967 0.363072
0.393156 0.390907 0.381546
0.411753 0.409573 0.399737
0.423013 0.420828 0.410755
0.502314 0.500519 0.488913
0.581011 0.579735 0.569335
0.653876 0.652894 0.642365
0.717831 0.717126 0.706692
0.740341 0.739720 0.729472
0.392334 0.390076 0.380684
0.409447 0.407239 0.397495
0.427902 0.425741 0.415554
0.439343 0.437225 0.426711
0.510227 0.508476 0.496780
0.588742 0.587495 0.577090
0.663103 0.662189 0.651537
0.727664 0.726997 0.716654
0.739815 0.739166 0.728997
0.002499 0.002114 0.002266
0.003999 0.003479 0.003669
0.007294 0.006562 0.006775
0.014536 0.013508 0.013704
0.103985 0.101812 0.100103
0.280576 0.278158 0.271706
0.354875 0.352546 0.344160
0.387787 0.385506 0.376323
0.417816 0.415615 0.405689
0.010261 0.009414 0.009638
0.019962 0.018793 0.018931
0.020890 0.019697 0.019818
0.023702 0.022435 0.022517
0.121460 0.119211 0.117050
0.310715 0.308336 0.301070
0.410029 0.407838 0.398046
0.444867 0.442760 0.432142
0.475266 0.473320 0.462027
0.038204 0.036628 0.036454
0.042847 0.041211 0.040962
0.100886 0.098722 0.097101
0.113178 0.110947 0.109007
0.258147 0.255714 0.249864
0.457512 0.455477 0.444781
0.565622 0.564263 0.553641
0.580663 0.579343 0.568725
0.600484 0.599313 0.588720
0.087573 0.085490 0.084215
0.095406 0.093268 0.091789
0.145079 0.142736 0.139958
0.251863 0.249422 0.243737
0.438260 0.436149 0.425701
0.636303 0.635267 0.624751
0.766906 0.766388 0.756476
0.780977 0.780498 0.770765
0.796563 0.796146 0.786646
0.153881 0.151522 0.148495
0.164276 0.161873 0.158578
0.184032 0.181610 0.177777
0.305564 0.303179 0.296049
0.375273 0.372997 0.364056
0.573780 0.572483 0.561922
0.744111 0.743498 0.733307
0.771882 0.771370 0.761474
0.787640 0.787184 0.777519
0.238805 0.236337 0.231017
0.251158 0.248706 0.243050
0.260078 0.257639 0.251731
0.356870 0.354550 0.346112
0.420182 0.418001 0.407996
0.489097 0.487212 0.475914
0.677475 0.676612 0.666069
0.744595 0.743991 0.733793
0.761094 0.760548 0.750532
0.338870 0.336519 0.328522
0.352715 0.350403 0.342064
0.362969 0.360654 0.352067
0.404351 0.402142 0.392516
0.474285 0.472291 0.461079
0.536828 0.535350 0.524380
0.603703 0.602526 0.592038
0.728446 0.727776 0.717467
0.747010 0.746414 0.736297
0.378448 0.376159 0.367218
0.398573 0.396346 0.386849
0.416714 0.414540 0.404605
0.435992 0.433862 0.423452
0.512423 0.510710 0.499183
0.591097 0.589881 0.579413
0.662682 0.661762 0.651212
0.726042 0.725351 0.714987
0.749849 0.749282 0.739113
0.395683 0.393444 0.383995
0.414646 0.412449 0.402539
0.430899 0.428732 0.418512
0.450383 0.448270 0.437557
0.519962 0.518328 0.506739
0.598224 0.597030 0.586584
0.672099 0.671230 0.660594
0.736102 0.735466 0.725200
0.749443 0.748833 0.738739
0.004349 0.003815 0.004013
0.006000 0.005340 0.005565
0.009934 0.009095 0.009311
0.015070 0.014035 0.014223
0.026421 0.025078 0.025131
0.134632 0.132324 0.129825
0.196689 0.194263 0.190060
0.224811 0.222357 0.217417
0.250351 0.247910 0.242264
0.012556 0.011591 0.011807
0.021313 0.020087 0.020215
0.022557 0.021319 0.021411
0.022428 0.021178 0.021302
0.035699 0.034201 0.034077
0.156756 0.154402 0.151299
0.242586 0.240145 0.234696
0.272559 0.270120 0.263880
0.300056 0.297632 0.290670
0.042748 0.041119 0.040851
0.047895 0.046181 0.045824
0.104934 0.102750 0.101025
0.109945 0.107744 0.105888
0.118612 0.116362 0.114285
0.269695 0.267275 0.261143
0.380961 0.378695 0.369656
0.396935 0.394725 0.385278
0.417534 0.415359 0.405438
0.095329 0.093182 0.091709
0.103374 0.101190 0.099508
0.150935 0.148571 0.145626
0.258211 0.255768 0.249920
0.280563 0.278144 0.271685
0.473137 0.471226 0.460403
0.630853 0.629797 0.619242
0.648229 0.647232 0.636731
0.667351 0.666441 0.655937
0.170624 0.168220 0.164734
0.181985 0.179559 0.175791
0.198893 0.196447 0.192211
0.327384 0.325014 0.317333
0.469387 0.467400 0.456352
0.653002 0.652036 0.641499
0.809587 0.809216 0.799965
0.836384 0.836102 0.827418
0.849953 0.849693 0.841408
0.259833 0.257391 0.251480
0.272903 0.270481 0.264233
0.281982 0.279563 0.273080
0.381817 0.379551 0.370472
0.527953 0.526375 0.515218
0.596148 0.594940 0.584517
0.766433 0.765884 0.755975
0.828629 0.828314 0.819478
0.842714 0.842434 0.833939
0.363872 0.361557 0.352924
0.378421 0.376149 0.367136
0.389523 0.387281 0.377988
0.432053 0.429914 0.419604
0.581310 0.580030 0.569666
0.639668 0.638658 0.628104
0.695479 0.694686 0.684235
0.805488 0.805095 0.795790
0.820652 0.820309 0.811272
0.410085 0.407888 0.398089
0.428423 0.426285 0.416027
0.445624 0.443529 0.432908
0.463661 0.461619 0.450535
0.600252 0.599059 0.588609
0.667152 0.666251 0.655718
0.723642 0.722953 0.712644
0.772756 0.772248 0.762400
0.794003 0.793558 0.784035
0.422241 0.420059 0.410034
0.441691 0.439581 0.429053
0.460281 0.458233 0.447250
0.477364 0.475353 0.463983
0.598358 0.597168 0.586693
0.666395 0.665478 0.654869
0.722603 0.721916 0.711563
0.774274 0.773773 0.763931
0.784943 0.784485 0.774765
0.006455 0.005802 0.005997
0.008202 0.007414 0.007656
0.012686 0.011703 0.011935
0.019026 0.017847 0.018012
0.026611 0.025263 0.025312
0.039956 0.038373 0.038173
0.074803 0.072834 0.071847
0.093601 0.091478 0.090043
0.111603 0.109390 0.107487
0.014914 0.013891 0.014065
0.022705 0.021468 0.021558
0.023941 0.022659 0.022741
0.027197 0.025836 0.025870
0.036326 0.034793 0.034669
0.052787 0.051026 0.050564
0.104756 0.102593 0.100866
0.126322 0.124052 0.121762
0.145974 0.143632 0.140844
0.047364 0.045662 0.045329
0.052809 0.051036 0.050579
0.108821 0.106618 0.104805
0.114541 0.112306 0.110325
0.114244 0.112007 0.110055
0.121627 0.119370 0.117216
0.202308 0.199875 0.195538
0.214748 0.212320 0.207634
0.232452 0.230008 0.224873
0.102581 0.100402 0.098758
0.111908 0.109685 0.107782
0.156206 0.153827 0.150750
0.264922 0.262475 0.256477
0.275089 0.272653 0.266355
0.287820 0.285393 0.278766
0.446189 0.444116 0.433527
0.467584 0.465622 0.454789
0.490948 0.489106 0.478167
0.181750 0.179329 0.175556
0.192992 0.190560 0.186479
0.206077 0.203627 0.199209
0.336291 0.333948 0.326020
0.474980 0.473008 0.461948
0.499767 0.498011 0.486729
0.676227 0.675345 0.664850
0.712390 0.711663 0.701306
0.729931 0.729263 0.719028
0.282471 0.280048 0.273524
0.294547 0.292132 0.285321
0.303493 0.301078 0.294054
0.400479 0.398270 0.388717
0.551576 0.550175 0.539432
0.683084 0.682233 0.671694
0.830219 0.829913 0.821142
0.888131 0.887986 0.880961
0.900176 0.900060 0.893501
0.388964 0.386715 0.377431
0.402969 0.400757 0.391144
0.414190 0.412008 0.402134
0.451515 0.449421 0.438682
0.605219 0.604065 0.593573
0.729180 0.728509 0.718208
0.783388 0.782918 0.773226
0.880718 0.880541 0.873237
0.893009 0.892863 0.886007
0.440671 0.438555 0.428009
0.458182 0.456102 0.445172
0.475872 0.473852 0.462538
0.492492 0.490617 0.479146
0.627172 0.626102 0.615556
0.758670 0.758117 0.748059
0.811679 0.811307 0.802066
0.853982 0.853737 0.845562
0.873479 0.873307 0.865744
0.454097 0.452022 0.441181
0.472402 0.470360 0.459135
0.490520 0.488544 0.476893
0.508204 0.506411 0.494657
0.624666 0.623579 0.613066
0.757767 0.757206 0.747137
0.811964 0.811595 0.802360
0.856448 0.856204 0.848092
0.866402 0.866200 0.858383
0.006790 0.006096 0.006332
0.008376 0.007586 0.007831
0.013332 0.012341 0.012554
0.019591 0.018394 0.018539
0.027542 0.026142 0.026199
0.037297 0.035729 0.035601
0.041917 0.040293 0.040060
0.052300 0.050534 0.050073
0.063576 0.061668 0.060997
0.014068 0.013058 0.013265
0.020740 0.019542 0.019655
0.021028 0.019807 0.019912
0.028425 0.027032 0.027057
0.038171 0.036605 0.036454
0.049427 0.047683 0.047317
0.056494 0.054695 0.054140
0.067937 0.066002 0.065195
0.080826 0.078792 0.077690
0.047432 0.045702 0.045366
0.053648 0.051864 0.051386
0.106725 0.104531 0.102768
0.112261 0.110030 0.108121
0.112775 0.110551 0.108623
0.112169 0.109954 0.108035
0.104089 0.101907 0.100200
0.106939 0.104751 0.102966
0.118889 0.116638 0.114558
0.105361 0.103167 0.101428
0.114556 0.112328 0.110336
0.154998 0.152606 0.149570
0.267118 0.264682 0.258587
0.277533 0.275105 0.268733
0.279505 0.277081 0.270662
0.278598 0.276176 0.269777
0.290833 0.288435 0.281690
0.308008 0.305616 0.298442
0.187942 0.185486 0.181576
0.200929 0.198482 0.194178
0.211017 0.208572 0.204017
0.340894 0.338546 0.330505
0.480284 0.478321 0.467140
0.493975 0.492156 0.481048
0.502336 0.500593 0.489345
0.540589 0.539048 0.528053
0.561981 0.560596 0.549843
0.292797 0.290384 0.283629
0.307052 0.304633 0.297502
0.317188 0.314802 0.307398
0.408378 0.406187 0.396440
0.560377 0.559036 0.548526
0.685917 0.685094 0.674544
0.703348 0.702587 0.692149
0.773724 0.773229 0.763448
0.789165 0.788733 0.779189
0.412685 0.410492 0.400652
0.428077 0.425936 0.415725
0.440328 0.438213 0.427684
0.471499 0.469497 0.458320
0.622135 0.621050 0.610507
0.748730 0.748138 0.737983
0.853684 0.853433 0.845224
0.935451 0.935401 0.930624
0.945600 0.945561 0.941382
0.470997 0.468960 0.457728
0.489735 0.487783 0.476141
0.506513 0.504741 0.493123
0.522565 0.520889 0.509394
0.647380 0.646392 0.635846
0.780039 0.779555 0.769802
0.882056 0.881890 0.874628
0.920508 0.920427 0.914823
0.937631 0.937578 0.932918
0.485398 0.483414 0.471847
0.503335 0.501483 0.489658
0.521504 0.519831 0.508467
0.536979 0.535542 0.524609
0.645428 0.644424 0.633854
0.778595 0.778101 0.768356
0.882786 0.882643 0.875408
0.923004 0.922924 0.917469
0.931763 0.931679 0.926704
0.007054 0.006352 0.006596
0.008690 0.007900 0.008117
0.013532 0.012539 0.012753
0.019922 0.018727 0.018879
0.028237 0.026846 0.026865
0.038392 0.036841 0.036665
0.042155 0.040508 0.040287
0.043266 0.041584 0.041334
0.054531 0.052735 0.052254
0.013963 0.012955 0.013146
0.020091 0.018918 0.019028
0.021132 0.019923 0.020025
0.029128 0.027727 0.027728
0.038491 0.036910 0.036750
0.050211 0.048450 0.048056
0.056765 0.054962 0.054422
0.058447 0.056614 0.056031
0.070712 0.068764 0.067898
0.047076 0.045354 0.045048
0.053290 0.051512 0.051038
0.104679 0.102493 0.100774
0.109632 0.107416 0.105573
0.110101 0.107895 0.106046
0.109778 0.107578 0.105710
0.099739 0.097597 0.096004
0.092124 0.090031 0.088617
0.102447 0.100282 0.098617
0.105241 0.103075 0.101309
0.113756 0.111544 0.109576
0.152032 0.149664 0.146693
0.263342 0.260905 0.254897
0.273672 0.271255 0.264970
0.274694 0.272257 0.265982
0.272479 0.270058 0.263796
0.256507 0.254049 0.248255
0.272645 0.270222 0.264016
0.186922 0.184496 0.180603
0.199294 0.196854 0.192609
0.209239 0.206797 0.202266
0.336717 0.334370 0.326412
0.476629 0.474689 0.463461
0.489265 0.487399 0.476312
0.491603 0.489797 0.478423
0.477403 0.475465 0.464469
0.495233 0.493458 0.482067
0.293925 0.291514 0.284682
0.306351 0.303931 0.296834
0.317445 0.315051 0.307628
0.405410 0.403214 0.393531
0.558232 0.556845 0.546343
0.684764 0.683927 0.673386
0.695459 0.694672 0.684163
0.688813 0.687995 0.677477
0.702624 0.701863 0.691406
0.417620 0.415444 0.405455
0.431796 0.429655 0.419355
0.443739 0.441618 0.431079
0.474568 0.472551 0.461320
0.624308 0.623229 0.612675
0.750675 0.750078 0.740000
0.852586 0.852335 0.844070
0.855786 0.855540 0.847463
0.866347 0.866126 0.858365
0.490562 0.488579 0.476937
0.509783 0.508014 0.496367
0.528260 0.526655 0.515435
0.546331 0.544947 0.534328
0.664559 0.663669 0.653047
0.794678 0.794261 0.784714
0.896585 0.896467 0.889763
0.972542 0.972518 0.970221
0.987567 0.987567 0.986462
0.507259 0.505337 0.493343
0.526832 0.525265 0.514133
0.544269 0.542865 0.532319
0.560515 0.559188 0.548920
0.663025 0.662098 0.651520
0.794813 0.794390 0.784834
0.898188 0.898050 0.891447
0.976307 0.976307 0.974268
0.985489 0.985489 0.984211
0.007202 0.006470 0.006714
0.008919 0.008129 0.008347
0.013794 0.012771 0.012977
0.020630 0.019421 0.019554
0.028717 0.027314 0.027328
0.038666 0.037068 0.036923
0.042778 0.041130 0.040886
0.043770 0.042122 0.041874
0.044952 0.043274 0.042999
0.014072 0.013088 0.013279
0.019833 0.018657 0.018770
0.021615 0.020383 0.020510
0.029836 0.028431 0.028403
0.039169 0.037588 0.037412
0.050912 0.049155 0.048743
0.057663 0.055838 0.055268
0.058914 0.057084 0.056488
0.060264 0.058380 0.057751
0.047005 0.045304 0.044982
0.053213 0.051417 0.050970
0.103945 0.101763 0.100079
0.108828 0.106601 0.104799
0.110069 0.107868 0.105995
0.108736 0.106537 0.104738
0.099758 0.097622 0.096023
0.091172 0.089075 0.087711
0.089256 0.087151 0.085846
0.105125 0.102921 0.101181
0.113934 0.111708 0.109764
0.151576 0.149217 0.146258
0.262594 0.260158 0.254165
0.272097 0.269663 0.263447
0.274180 0.271740 0.265468
0.270730 0.268296 0.262137
0.256510 0.254086 0.248268
0.252998 0.250576 0.244877
0.187744 0.185303 0.181366
0.199311 0.196871 0.192637
0.208405 0.205963 0.201489
0.336065 0.333723 0.325800
0.475571 0.473572 0.462341
0.489069 0.487202 0.476177
0.491173 0.489368 0.478020
0.476442 0.474516 0.463484
0.472672 0.470688 0.459625
0.294071 0.291672 0.284832
0.306918 0.304504 0.297401
0.317976 0.315572 0.308157
0.404470 0.402269 0.392621
0.556925 0.555536 0.545017
0.684617 0.683783 0.673217
0.694557 0.693763 0.683263
0.687889 0.687052 0.676547
0.685184 0.684357 0.673805
0.417977 0.415794 0.405830
0.433186 0.431041 0.420718
0.444509 0.442410 0.431854
0.474740 0.472735 0.461487
0.623905 0.622837 0.612278
0.750615 0.750019 0.739914
0.851963 0.851713 0.843456
0.855230 0.854985 0.846878
0.853241 0.852990 0.844796
0.492390 0.490410 0.478740
0.511208 0.509411 0.497739
0.529427 0.527797 0.516548
0.547431 0.546031 0.535411
0.664970 0.664053 0.653420
0.794451 0.794025 0.784492
0.896439 0.896321 0.889618
0.971893 0.971866 0.969507
0.972630 0.972626 0.970295
0.509064 0.507141 0.495148
0.529194 0.527656 0.516609
0.547119 0.545715 0.535217
0.563584 0.562260 0.551975
0.664932 0.664047 0.653442
0.796532 0.796108 0.786629
0.900360 0.900231 0.893745
0.979851 0.979851 0.978100
1.000000 1.000000 1.000000
