assets/luts/1.CUBE
# Copyright: (C) Copyright 2010-2020 by IWLTBAP SAS
# Cannot be resold, shared or otherwise redistributed
# Website: https://luts.iwltbap.com
TITLE "IWLTBAP 7000 (LOG)"
LUT_3D_SIZE 5
0.000000 0.000000 0.000000
0.089256 0.087166 0.085830
0.427353 0.425202 0.414993
0.667199 0.666267 0.655731
0.709900 0.709167 0.698639
0.026413 0.025062 0.025116
0.052405 0.050646 0.050171
0.353577 0.351250 0.342888
0.670031 0.669153 0.658545
0.709496 0.708763 0.698326
0.131943 0.129623 0.127213
0.144028 0.141674 0.138950
0.258529 0.256081 0.250229
0.660374 0.659439 0.648834
0.714905 0.714203 0.703736
0.327102 0.324746 0.317032
0.332964 0.330606 0.322768
0.428429 0.426269 0.416031
0.574715 0.573414 0.563047
0.718895 0.718193 0.707787
0.385956 0.383698 0.374481
0.404183 0.401985 0.392288
0.487229 0.485229 0.473664
0.642754 0.641731 0.631127
0.722534 0.721863 0.711395
0.001274 0.001007 0.001129
0.006537 0.005892 0.006098
0.230518 0.228085 0.222992
0.523712 0.522164 0.510910
0.584313 0.583069 0.572617
0.033629 0.032143 0.032049
0.095487 0.093346 0.091870
0.419942 0.417781 0.407766
0.708231 0.707493 0.697071
0.738794 0.738182 0.727963
0.137024 0.134705 0.132133
0.166951 0.164557 0.161174
0.276567 0.274149 0.267801
0.678851 0.677990 0.667450
0.734031 0.733387 0.723083
0.326971 0.324592 0.316973
0.354887 0.352558 0.344160
0.448362 0.446269 0.435588
0.592388 0.591162 0.580770
0.738079 0.737436 0.727192
0.392334 0.390076 0.380684
0.427902 0.425741 0.415554
0.510227 0.508476 0.496780
0.663103 0.662189 0.651537
0.739815 0.739166 0.728997
0.004349 0.003815 0.004013
0.009934 0.009095 0.009311
0.026421 0.025078 0.025131
0.196689 0.194263 0.190060
0.250351 0.247910 0.242264
0.042748 0.041119 0.040851
0.104934 0.102750 0.101025
0.118612 0.116362 0.114285
0.380961 0.378695 0.369656
0.417534 0.415359 0.405438
0.170624 0.168220 0.164734
0.198893 0.196447 0.192211
0.469387 0.467400 0.456352
0.809587 0.809216 0.799965
0.849953 0.849693 0.841408
0.363872 0.361557 0.352924
0.389523 0.387281 0.377988
0.581310 0.580030 0.569666
0.695479 0.694686 0.684235
0.820652 0.820309 0.811272
0.422241 0.420059 0.410034
0.460281 0.458233 0.447250
0.598358 0.597168 0.586693
0.722603 0.721916 0.711563
0.784943 0.784485 0.774765
0.006790 0.006096 0.006332
0.013332 0.012341 0.012554
0.027542 0.026142 0.026199
0.041917 0.040293 0.040060
0.063576 0.061668 0.060997
0.047432 0.045702 0.045366
0.106725 0.104531 0.102768
0.112775 0.110551 0.108623
0.104089 0.101907 0.100200
0.118889 0.116638 0.114558
0.187942 0.185486 0.181576
0.211017 0.208572 0.204017
0.480284 0.478321 0.467140
0.502336 0.500593 0.489345
0.561981 0.560596 0.549843
0.412685 0.410492 0.400652
0.440328 0.438213 0.427684
0.622135 0.621050 0.610507
0.853684 0.853433 0.845224
0.945600 0.945561 0.941382
0.485398 0.483414 0.471847
0.521504 0.519831 0.508467
0.645428 0.644424 0.633854
0.882786 0.882643 0.875408
0.931763 0.931679 0.926704
0.007202 0.006470 0.006714
0.013794 0.012771 0.012977
0.028717 0.027314 0.027328
0.042778 0.041130 0.040886
0.044952 0.043274 0.042999
0.047005 0.045304 0.044982
0.103945 0.101763 0.100079
0.110069 0.107868 0.105995
0.099758 0.097622 0.096023
0.089256 0.087151 0.085846
0.187744 0.185303 0.181366
0.208405 0.205963 0.201489
0.475571 0.473572 0.462341
0.491173 0.489368 0.478020
0.472672 0.470688 0.459625
0.417977 0.415794 0.405830
0.444509 0.442410 0.431854
0.623905 0.622837 0.612278
0.851963 0.851713 0.843456
0.853241 0.852990 0.844796
0.509064 0.507141 0.495148
0.547119 0.545715 0.535217
0.664932 0.664047 0.653442
0.900360 0.900231 0.893745
1.000000 1.000000 1.000000
