assets/luts/1.CUBE
# Copyright: (C) Copyright 2010-2020 by IWLTBAP SAS
# Cannot be resold, shared or otherwise redistributed
# Website: https://luts.iwltbap.com
TITLE "IWLTBAP 7000 (LOG)"
LUT_3D_SIZE 33
0.000000 0.000000 0.000000
0.000503 0.000444 0.000473
0.003036 0.002632 0.002777
0.008625 0.007866 0.008046
0.016876 0.015789 0.015945
0.028713 0.027325 0.027349
0.044958 0.043276 0.042979
0.065319 0.063413 0.062665
0.089256 0.087166 0.085830
0.118147 0.115901 0.113813
0.150556 0.148205 0.145298
0.188642 0.186222 0.182267
0.229942 0.227482 0.222393
0.275116 0.272662 0.266359
0.323242 0.320853 0.313278
0.374395 0.372111 0.363216
0.427353 0.425202 0.414993
0.482184 0.480381 0.469002
0.536503 0.535074 0.523806
0.586427 0.585171 0.574721
0.626240 0.625157 0.614586
0.647176 0.646179 0.635610
0.656553 0.655587 0.645058
0.661863 0.660916 0.650388
0.667199 0.666267 0.655731
0.672497 0.671618 0.661059
0.677818 0.676964 0.666405
0.683144 0.682290 0.671736
0.688496 0.687649 0.677116
0.693847 0.693053 0.682497
0.699198 0.698406 0.687878
0.704549 0.703787 0.693259
0.709900 0.709167 0.698639
0.000177 0.000148 0.000177
0.000365 0.000305 0.000336
0.002141 0.001819 0.001936
0.007250 0.006553 0.006757
0.015276 0.014248 0.014434
0.026413 0.025060 0.025138
0.041885 0.040256 0.040042
0.061981 0.060110 0.059429
0.085642 0.083581 0.082349
0.114005 0.111789 0.109819
0.146119 0.143775 0.140987
0.183567 0.181146 0.177329
0.225079 0.222619 0.217659
0.270282 0.267846 0.261662
0.317967 0.315573 0.308134
0.368722 0.366423 0.357677
0.421277 0.419096 0.409080
0.476372 0.474510 0.463201
0.531460 0.529986 0.518664
0.581787 0.580502 0.570081
0.622840 0.621727 0.611175
0.646210 0.645194 0.634615
0.656821 0.655854 0.645306
0.662069 0.661123 0.650595
0.667405 0.666474 0.655939
0.672704 0.671825 0.661266
0.678025 0.677170 0.666611
0.683259 0.682409 0.671855
0.688111 0.687290 0.676762
0.693462 0.692669 0.682142
0.698815 0.698023 0.687523
0.704193 0.703431 0.692904
0.709515 0.708783 0.698284
0.000927 0.000725 0.000841
0.001021 0.000817 0.000934
0.001589 0.001315 0.001437
0.005905 0.005293 0.005498
0.013526 0.012561 0.012747
0.024473 0.023178 0.023258
0.039178 0.037584 0.037419
0.058763 0.056923 0.056322
0.082021 0.079989 0.078847
0.109691 0.107484 0.105645
0.141510 0.139168 0.136506
0.178197 0.175777 0.172135
0.219755 0.217312 0.212521
0.264492 0.262051 0.256030
0.311867 0.309461 0.302182
0.362623 0.360323 0.351725
0.415016 0.412834 0.402968
0.470332 0.468414 0.457237
0.525994 0.524466 0.513206
0.576839 0.575569 0.565138
0.619193 0.618090 0.607510
0.645095 0.644097 0.633499
0.657116 0.656149 0.645599
0.662338 0.661400 0.650863
0.667612 0.666702 0.656145
0.672910 0.672032 0.661473
0.678233 0.677378 0.666819
0.683463 0.682613 0.672059
0.688231 0.687407 0.676883
0.693104 0.692285 0.681788
0.698431 0.697640 0.687170
0.703810 0.703047 0.692577
0.709160 0.708399 0.697929
0.002553 0.002173 0.002323
0.002696 0.002316 0.002466
0.003134 0.002698 0.002873
0.004688 0.004141 0.004326
0.011276 0.010397 0.010605
0.022085 0.020854 0.020939
0.036039 0.034526 0.034387
0.054415 0.052638 0.052135
0.077403 0.075409 0.074362
0.104069 0.101889 0.100182
0.135678 0.133363 0.130849
0.171096 0.168685 0.165247
0.212195 0.209754 0.205161
0.256035 0.253577 0.247798
0.302860 0.300441 0.293433
0.353752 0.351424 0.343069
0.406329 0.404119 0.394455
0.461437 0.459463 0.448474
0.517176 0.515558 0.504436
0.569108 0.567795 0.557407
0.613648 0.612507 0.601963
0.643266 0.642233 0.631671
0.657412 0.656445 0.645886
0.662632 0.661695 0.651130
0.667881 0.666973 0.656394
0.673118 0.672239 0.661680
0.678439 0.677585 0.667026
0.683670 0.682820 0.672266
0.688434 0.687610 0.677085
0.693226 0.692404 0.681909
0.698073 0.697281 0.686815
0.703427 0.702664 0.692224
0.708777 0.708014 0.697574
0.005173 0.004563 0.004768
0.005347 0.004736 0.004942
0.005556 0.004938 0.005148
0.006887 0.006185 0.006395
0.009593 0.008750 0.008987
0.018676 0.017528 0.017684
0.032536 0.031090 0.031011
0.049855 0.048117 0.047698
0.072264 0.070299 0.069361
0.098256 0.096107 0.094557
0.129272 0.126987 0.124629
0.164599 0.162216 0.158896
0.204776 0.202345 0.197918
0.248522 0.246079 0.240463
0.294373 0.291949 0.285135
0.344364 0.342006 0.333889
0.397247 0.395008 0.385552
0.451881 0.449825 0.439065
0.507613 0.505888 0.494883
0.560777 0.559417 0.548981
0.606436 0.605285 0.594761
0.639461 0.638442 0.627874
0.657707 0.656740 0.646163
0.662928 0.661990 0.651423
0.668175 0.667267 0.656685
0.673387 0.672509 0.661950
0.678646 0.677796 0.667232
0.683877 0.683050 0.672473
0.688640 0.687816 0.677292
0.693427 0.692606 0.682111
0.698193 0.697400 0.686937
0.703068 0.702280 0.691869
0.708394 0.707657 0.697247
0.008588 0.007792 0.008031
0.008915 0.008095 0.008334
0.009121 0.008324 0.008540
0.010135 0.009280 0.009494
0.012718 0.011751 0.011969
0.016690 0.015597 0.015782
0.028651 0.027289 0.027286
0.045166 0.043489 0.043199
0.066541 0.064631 0.063856
0.092193 0.090080 0.088669
0.121913 0.119640 0.117475
0.156132 0.153753 0.150704
0.195603 0.193157 0.189018
0.239220 0.236783 0.231414
0.285999 0.283586 0.276958
0.334580 0.332218 0.324356
0.386417 0.384161 0.374988
0.441419 0.439290 0.428777
0.496974 0.495165 0.484046
0.550822 0.549441 0.538646
0.598583 0.597412 0.586900
0.636184 0.635134 0.624581
0.657985 0.657018 0.646430
0.663223 0.662286 0.651700
0.668470 0.667563 0.656974
0.673680 0.672802 0.662217
0.678916 0.678067 0.667481
0.684084 0.683260 0.672680
0.688848 0.688027 0.677499
0.693634 0.692836 0.682318
0.698396 0.697603 0.687139
0.703187 0.702395 0.691989
0.708034 0.707276 0.696895
0.013222 0.012249 0.012469
0.013528 0.012526 0.012745
0.013832 0.012833 0.013048
0.014162 0.013155 0.013368
0.017084 0.015989 0.016138
0.020430 0.019225 0.019360
0.026380 0.025031 0.025071
0.040701 0.039079 0.038879
0.060758 0.058889 0.058271
0.085695 0.083613 0.082391
0.115444 0.113197 0.111204
0.148544 0.146189 0.143329
0.186283 0.183858 0.179979
0.229155 0.226714 0.221636
0.275749 0.273327 0.266977
0.324516 0.322140 0.314529
0.375491 0.373208 0.364319
0.430298 0.428156 0.417900
0.486363 0.484447 0.473157
0.540107 0.538556 0.527431
0.590180 0.588965 0.578492
0.631965 0.630901 0.620335
0.657351 0.656409 0.645826
0.663207 0.662287 0.651722
0.668580 0.667672 0.657101
0.673907 0.673029 0.662439
0.679154 0.678306 0.667716
0.684299 0.683478 0.672895
0.689114 0.688315 0.677765
0.693960 0.693169 0.682644
0.698677 0.697908 0.687420
0.703465 0.702697 0.692266
0.708225 0.707463 0.697061
0.019405 0.018255 0.018397
0.019793 0.018614 0.018756
0.020121 0.018940 0.019060
0.020113 0.018933 0.019072
0.021968 0.020729 0.020832
0.025945 0.024614 0.024672
0.030763 0.029316 0.029293
0.038076 0.036499 0.036337
0.055235 0.053426 0.052922
0.079150 0.077105 0.076050
0.107902 0.105685 0.103884
0.140311 0.137986 0.135340
0.177333 0.174923 0.171284
0.219290 0.216834 0.212046
0.265157 0.262722 0.256665
0.313390 0.311011 0.303688
0.364883 0.362582 0.353938
0.418775 0.416587 0.406612
0.473645 0.471646 0.460471
0.528129 0.526481 0.515225
0.579830 0.578561 0.568097
0.626248 0.625174 0.614596
0.655880 0.654927 0.644308
0.664773 0.663865 0.653234
0.669810 0.668926 0.658300
0.674646 0.673792 0.663183
0.679585 0.678756 0.668171
0.684742 0.683919 0.673358
0.689543 0.688728 0.678194
0.694368 0.693578 0.683052
0.699144 0.698382 0.687887
0.704002 0.703263 0.692804
0.708855 0.708115 0.697685
0.026413 0.025062 0.025116
0.026849 0.025491 0.025545
0.027221 0.025863 0.025909
0.027307 0.025949 0.026002
0.027760 0.026389 0.026416
0.032375 0.030925 0.030858
0.037285 0.035721 0.035599
0.043111 0.041470 0.041209
0.052405 0.050646 0.050171
0.072418 0.070450 0.069543
0.100307 0.098149 0.096530
0.132184 0.129881 0.127439
0.168565 0.166186 0.162761
0.209675 0.207234 0.202699
0.254084 0.251634 0.245900
0.301929 0.299528 0.292520
0.353577 0.351250 0.342888
0.407242 0.405017 0.395315
0.462659 0.460651 0.449677
0.517911 0.516266 0.505103
0.569756 0.568443 0.558034
0.617633 0.616518 0.606000
0.651715 0.650735 0.640151
0.664701 0.663778 0.653173
0.670031 0.669153 0.658545
0.675222 0.674369 0.663755
0.680466 0.679623 0.669035
0.685690 0.684870 0.674293
0.690414 0.689614 0.679068
0.695142 0.694351 0.683846
0.699848 0.699087 0.688591
0.704640 0.703907 0.693441
0.709496 0.708763 0.698326
0.034905 0.033414 0.033313
0.035434 0.033921 0.033799
0.035926 0.034391 0.034268
0.036088 0.034572 0.034449
0.036143 0.034610 0.034480
0.039358 0.037764 0.037604
0.045063 0.043395 0.043115
0.051335 0.049587 0.049172
0.058096 0.056261 0.055695
0.068726 0.066788 0.065972
0.092033 0.089922 0.088534
0.123252 0.120977 0.118790
0.159233 0.156858 0.153697
0.199197 0.196766 0.192513
0.242266 0.239808 0.234417
0.289705 0.287286 0.280612
0.341290 0.338944 0.330889
0.394937 0.392683 0.383282
0.449910 0.447815 0.437124
0.505223 0.503462 0.492338
0.558695 0.557336 0.546733
0.608866 0.607718 0.597233
0.647968 0.646965 0.636404
0.664682 0.663747 0.653179
0.669799 0.668894 0.658335
0.674995 0.674101 0.663566
0.680455 0.679584 0.669038
0.685858 0.685016 0.674472
0.691035 0.690222 0.679687
0.695825 0.695034 0.684516
0.700464 0.699702 0.689207
0.705267 0.704513 0.694068
0.710073 0.709340 0.698903
0.044450 0.042799 0.042500
0.045053 0.043392 0.043083
0.045568 0.043878 0.043569
0.045758 0.044075 0.043766
0.045911 0.044220 0.043911
0.047894 0.046168 0.045824
0.053719 0.051938 0.051455
0.060646 0.058798 0.058174
0.068189 0.066257 0.065455
0.075615 0.073616 0.072642
0.087906 0.085815 0.084548
0.114185 0.111946 0.110014
0.149123 0.146781 0.143904
0.188520 0.186108 0.182138
0.231426 0.228968 0.223854
0.277811 0.275366 0.269024
0.328646 0.326275 0.318562
0.382430 0.380167 0.371057
0.436976 0.434836 0.424424
0.492561 0.490730 0.479549
0.547209 0.545807 0.534883
0.598125 0.596933 0.586495
0.642033 0.641016 0.630450
0.665778 0.664856 0.654275
0.670836 0.669930 0.659355
0.675909 0.675037 0.664479
0.681121 0.680263 0.669714
0.686224 0.685392 0.674849
0.691198 0.690375 0.679870
0.696065 0.695255 0.684770
0.701117 0.700356 0.689878
0.706362 0.705621 0.695142
0.711557 0.710846 0.700367
0.055538 0.053729 0.053202
0.056217 0.054408 0.053862
0.056876 0.055057 0.054492
0.057229 0.055392 0.054825
0.057519 0.055679 0.055095
0.058164 0.056316 0.055712
0.063268 0.061384 0.060670
0.070927 0.068973 0.068098
0.078885 0.076875 0.075802
0.086851 0.084755 0.083518
0.096028 0.093876 0.092408
0.110830 0.108610 0.106753
0.139438 0.137126 0.134499
0.177845 0.175441 0.171765
0.219723 0.217264 0.212474
0.265870 0.263424 0.257386
0.316073 0.313683 0.306304
0.369305 0.367012 0.358246
0.423864 0.421709 0.411592
0.479250 0.477370 0.466129
0.534859 0.533373 0.522083
0.586589 0.585354 0.574936
0.633412 0.632358 0.621817
0.663734 0.662804 0.652220
0.671326 0.670421 0.659846
0.676830 0.675960 0.665369
0.682278 0.681429 0.670830
0.687470 0.686649 0.676060
0.692132 0.691327 0.680793
0.696855 0.696053 0.685550
0.701693 0.700913 0.690445
0.706708 0.705976 0.695499
0.711798 0.711075 0.700638
0.067970 0.066052 0.065231
0.068661 0.066724 0.065893
0.069363 0.067425 0.066565
0.069779 0.067830 0.066968
0.070127 0.068178 0.067306
0.070303 0.068338 0.067465
0.074004 0.072010 0.071054
0.081522 0.079466 0.078347
0.090213 0.088119 0.086770
0.099114 0.096952 0.095390
0.109095 0.106876 0.105057
0.119418 0.117162 0.115062
0.135156 0.132838 0.130331
0.166643 0.164239 0.160890
0.208089 0.205630 0.201153
0.253999 0.251559 0.245817
0.303238 0.300833 0.293789
0.355651 0.353332 0.344918
0.410739 0.408561 0.398741
0.466405 0.464442 0.453334
0.521979 0.520383 0.509094
0.575366 0.574085 0.563698
0.624728 0.623643 0.613077
0.660058 0.659121 0.648540
0.671013 0.670110 0.659548
0.677042 0.676178 0.665609
0.682193 0.681344 0.670785
0.687239 0.686417 0.675880
0.691943 0.691133 0.680635
0.696842 0.696048 0.685579
0.701738 0.700947 0.690500
0.706732 0.705982 0.695553
0.711781 0.711048 0.700642
0.081743 0.079717 0.078573
0.082634 0.080596 0.079416
0.083473 0.081419 0.080226
0.084084 0.082028 0.080817
0.084589 0.082533 0.081321
0.084650 0.082583 0.081371
0.085731 0.083652 0.082425
0.093212 0.091084 0.089666
0.102406 0.100228 0.098581
0.111818 0.109584 0.107701
0.122591 0.120322 0.118145
0.133131 0.130823 0.128366
0.143842 0.141501 0.138762
0.162148 0.159754 0.156528
0.196549 0.194099 0.189934
0.241386 0.238936 0.233556
0.289795 0.287375 0.280707
0.341957 0.339614 0.331557
0.396812 0.394588 0.385123
0.452820 0.450747 0.439945
0.508710 0.506970 0.495755
0.562547 0.561206 0.550671
0.613795 0.612678 0.602144
0.653585 0.652621 0.642053
0.669675 0.668774 0.658220
0.677235 0.676381 0.665842
0.682302 0.681457 0.670927
0.687461 0.686655 0.676126
0.692581 0.691777 0.681275
0.697817 0.697027 0.686535
0.702770 0.702013 0.691524
0.707761 0.707017 0.696557
0.712735 0.712021 0.701578
0.097313 0.095169 0.093647
0.098415 0.096270 0.094689
0.099236 0.097080 0.095481
0.099732 0.097574 0.095977
0.100116 0.097959 0.096363
0.100007 0.097849 0.096253
0.100092 0.097935 0.096335
0.106146 0.103968 0.102193
0.115547 0.113305 0.111321
0.125926 0.123632 0.121383
0.137084 0.134755 0.132194
0.148426 0.146068 0.143198
0.160305 0.157938 0.154732
0.172363 0.169970 0.166435
0.192101 0.189666 0.185610
0.228950 0.226501 0.221451
0.276910 0.274483 0.268146
0.328230 0.325868 0.318170
0.382157 0.379899 0.370816
0.437954 0.435831 0.425390
0.494543 0.492696 0.481468
0.548864 0.547402 0.536531
0.600589 0.599403 0.588983
0.644886 0.643892 0.633336
0.668760 0.667855 0.657265
0.678534 0.677666 0.667086
0.683740 0.682894 0.672311
0.688880 0.688069 0.677486
0.693702 0.692894 0.682369
0.698524 0.697735 0.687242
0.703155 0.702405 0.691931
0.708053 0.707304 0.696875
0.713163 0.712444 0.702028
0.113912 0.111666 0.109731
0.114909 0.112662 0.110683
0.115719 0.113473 0.111463
0.116255 0.114008 0.112010
0.116761 0.114515 0.112504
0.116906 0.114673 0.112633
0.117186 0.114943 0.112898
0.119522 0.117276 0.115164
0.129446 0.127156 0.124806
0.141122 0.138784 0.136118
0.152483 0.150111 0.147141
0.164553 0.162151 0.158857
0.176966 0.174553 0.170909
0.189656 0.187225 0.183225
0.202339 0.199888 0.195567
0.224120 0.221662 0.216753
0.263596 0.261162 0.255179
0.314188 0.311813 0.304485
0.367782 0.365500 0.356775
0.423529 0.421384 0.411271
0.480358 0.478473 0.467261
0.535636 0.534125 0.522925
0.587709 0.586473 0.576073
0.635034 0.634003 0.623441
0.665461 0.664545 0.653937
0.679622 0.678761 0.668144
0.684681 0.683846 0.673245
0.689653 0.688832 0.678253
0.694228 0.693424 0.682899
0.698997 0.698222 0.687723
0.703808 0.703046 0.692564
0.708818 0.708072 0.697631
0.714000 0.713284 0.702843
0.131943 0.129623 0.127213
0.133022 0.130702 0.128262
0.134101 0.131781 0.129297
0.135028 0.132709 0.130208
0.135864 0.133558 0.131016
0.136100 0.133796 0.131235
0.136087 0.133770 0.131231
0.135923 0.133604 0.131082
0.144028 0.141674 0.138950
0.156318 0.153942 0.150854
0.168394 0.165993 0.162599
0.181042 0.178611 0.174882
0.193609 0.191168 0.187088
0.207125 0.204665 0.200219
0.220853 0.218389 0.213575
0.235039 0.232582 0.227373
0.258529 0.256081 0.250229
0.299923 0.297525 0.290566
0.353265 0.350962 0.342593
0.408977 0.406796 0.397019
0.466154 0.464207 0.453163
0.522282 0.520699 0.509433
0.574954 0.573678 0.563275
0.624337 0.623255 0.612704
0.660374 0.659439 0.648834
0.679777 0.678926 0.668328
0.684664 0.683827 0.673256
0.689896 0.689077 0.678520
0.694847 0.694058 0.683516
0.699981 0.699220 0.688691
0.705017 0.704270 0.693744
0.709982 0.709251 0.698754
0.714905 0.714203 0.703736
0.151861 0.149497 0.146540
0.152926 0.150562 0.147575
0.153990 0.151626 0.148607
0.154900 0.152523 0.149488
0.155626 0.153262 0.150197
0.155702 0.153326 0.150270
0.155685 0.153306 0.150267
0.155566 0.153200 0.150165
0.160150 0.157751 0.154611
0.172350 0.169951 0.166426
0.185404 0.182977 0.179117
0.198743 0.196301 0.192080
0.211800 0.209349 0.204768
0.225728 0.223263 0.218314
0.239961 0.237506 0.232164
0.254765 0.252323 0.246565
0.269892 0.267450 0.261286
0.294375 0.291968 0.285150
0.338046 0.335715 0.327749
0.393582 0.391358 0.381984
0.451051 0.448998 0.438263
0.507783 0.506038 0.494853
0.561951 0.560611 0.550111
0.612970 0.611852 0.601324
0.654668 0.653722 0.643120
0.679302 0.678447 0.667865
0.685071 0.684222 0.673663
0.690429 0.689607 0.679050
0.695391 0.694589 0.684048
0.700319 0.699556 0.689044
0.705129 0.704369 0.693885
0.709910 0.709164 0.698711
0.714808 0.714092 0.703684
0.172536 0.170130 0.166624
0.173787 0.171381 0.167832
0.175042 0.172648 0.169061
0.176171 0.173762 0.170147
0.176733 0.174311 0.170706
0.176745 0.174320 0.170728
0.176817 0.174393 0.170803
0.176956 0.174535 0.170943
0.178787 0.176354 0.172712
0.188996 0.186558 0.182616
0.203336 0.200905 0.196539
0.217487 0.215050 0.210298
0.231427 0.228974 0.223850
0.245727 0.243268 0.237761
0.259979 0.257523 0.251645
0.275053 0.272613 0.266333
0.290547 0.288127 0.281434
0.306533 0.304143 0.297010
0.332308 0.329955 0.322153
0.377711 0.375435 0.366490
0.435388 0.433257 0.422865
0.492677 0.490834 0.479615
0.548022 0.546608 0.535708
0.600086 0.598911 0.588446
0.646726 0.645756 0.635147
0.676923 0.676061 0.665472
0.686010 0.685175 0.674591
0.691086 0.690276 0.679710
0.695722 0.694917 0.684392
0.700440 0.699676 0.689181
0.705395 0.704616 0.694155
0.710338 0.709589 0.699156
0.715445 0.714726 0.704310
0.194786 0.192345 0.188232
0.196379 0.193937 0.189778
0.197943 0.195507 0.191284
0.199350 0.196926 0.192654
0.200102 0.197652 0.193392
0.200371 0.197917 0.193664
0.200567 0.198113 0.193850
0.200740 0.198282 0.194021
0.200955 0.198496 0.194223
0.207068 0.204599 0.200187
0.221072 0.218633 0.213783
0.236071 0.233636 0.228374
0.251100 0.248659 0.242990
0.266161 0.263727 0.257653
0.281028 0.278582 0.272137
0.296492 0.294058 0.287210
0.312364 0.309966 0.302692
0.329075 0.326718 0.318976
0.345427 0.343102 0.334941
0.371557 0.369271 0.360463
0.419564 0.417396 0.407365
0.476920 0.475016 0.463814
0.532538 0.531033 0.519727
0.585908 0.584658 0.574280
0.636543 0.635522 0.624914
0.672714 0.671829 0.661244
0.686275 0.685445 0.674875
0.691302 0.690498 0.679941
0.696070 0.695279 0.684767
0.701017 0.700244 0.689757
0.706239 0.705489 0.694994
0.711236 0.710505 0.700050
0.716169 0.715467 0.705025
0.219490 0.217048 0.212227
0.220621 0.218179 0.213339
0.221713 0.219253 0.214384
0.222737 0.220294 0.215395
0.223790 0.221332 0.216420
0.224625 0.222164 0.217226
0.225328 0.222867 0.217908
0.225597 0.223151 0.218174
0.225601 0.223151 0.218169
0.228107 0.225640 0.220622
0.239249 0.236790 0.231470
0.254843 0.252398 0.246649
0.270624 0.268182 0.262001
0.286402 0.283985 0.277375
0.302115 0.299705 0.292687
0.318238 0.315842 0.308400
0.335174 0.332823 0.324915
0.352115 0.349811 0.341442
0.368288 0.366011 0.357254
0.385241 0.382989 0.373817
0.412795 0.410612 0.400743
0.460309 0.458304 0.447365
0.517675 0.516031 0.504686
0.572231 0.570933 0.560562
0.624172 0.623095 0.612543
0.666859 0.665939 0.655360
0.685985 0.685137 0.674635
0.691194 0.690375 0.679861
0.696409 0.695615 0.685121
0.701469 0.700680 0.690212
0.706461 0.705717 0.695244
0.711269 0.710538 0.700102
0.715996 0.715294 0.704887
0.245073 0.242642 0.237101
0.245979 0.243548 0.238016
0.246856 0.244415 0.238855
0.247794 0.245352 0.239772
0.248814 0.246372 0.240772
0.249525 0.247083 0.241465
0.250295 0.247853 0.242223
0.250445 0.248003 0.242371
0.250357 0.247900 0.242260
0.250917 0.248456 0.242799
0.259308 0.256846 0.250988
0.275523 0.273081 0.266767
0.291440 0.289015 0.282286
0.307613 0.305217 0.298052
0.323874 0.321506 0.313905
0.340952 0.338619 0.330554
0.358512 0.356218 0.347683
0.374893 0.372624 0.363694
0.391371 0.389126 0.379814
0.408813 0.406607 0.396864
0.426620 0.424459 0.414276
0.454285 0.452213 0.441398
0.503221 0.501433 0.490193
0.558374 0.557017 0.546442
0.610756 0.609624 0.599119
0.657810 0.656851 0.646256
0.685141 0.684292 0.673788
0.691644 0.690825 0.680338
0.696942 0.696149 0.685664
0.701966 0.701175 0.690709
0.706949 0.706188 0.695740
0.712107 0.711376 0.700918
0.717237 0.716535 0.706096
0.270809 0.268389 0.262165
0.271785 0.269364 0.263152
0.272834 0.270393 0.264153
0.273864 0.271431 0.265163
0.274883 0.272452 0.266155
0.275626 0.273195 0.266886
0.276414 0.273982 0.267647
0.276793 0.274361 0.268021
0.276836 0.274403 0.268055
0.276692 0.274260 0.267915
0.280938 0.278506 0.272049
0.296125 0.293707 0.286823
0.313136 0.310744 0.303425
0.329552 0.327178 0.319441
0.346436 0.344094 0.335907
0.363584 0.361286 0.352645
0.380915 0.378660 0.369578
0.397439 0.395210 0.385748
0.414733 0.412536 0.402672
0.433221 0.431084 0.420747
0.451035 0.448947 0.438174
0.469242 0.467203 0.456024
0.495752 0.493910 0.482525
0.542998 0.541582 0.530542
0.596728 0.595541 0.585093
0.646510 0.645519 0.634934
0.681697 0.680843 0.670318
0.692408 0.691597 0.681093
0.697798 0.697006 0.686511
0.702920 0.702139 0.691653
0.708064 0.707313 0.696835
0.713367 0.712645 0.702157
0.718687 0.717985 0.707506
0.297163 0.294739 0.287867
0.298306 0.295881 0.288981
0.299548 0.297123 0.290210
0.301005 0.298600 0.291626
0.302593 0.300184 0.293145
0.303980 0.301570 0.294505
0.304859 0.302448 0.295348
0.305128 0.302731 0.295609
0.304891 0.302491 0.295383
0.304467 0.302071 0.294984
0.304259 0.301859 0.294784
0.316485 0.314088 0.306689
0.334492 0.332117 0.324241
0.351655 0.349310 0.340990
0.368658 0.366347 0.357609
0.386364 0.384098 0.374918
0.404398 0.402193 0.392540
0.421796 0.419638 0.409553
0.439040 0.436912 0.426442
0.457282 0.455207 0.444310
0.475173 0.473177 0.461909
0.491933 0.490012 0.478539
0.509967 0.508191 0.496643
0.536440 0.535000 0.523868
0.582461 0.581209 0.570802
0.633758 0.632714 0.622145
0.675796 0.674920 0.664366
0.692402 0.691601 0.681018
0.698989 0.698199 0.687654
0.703808 0.703048 0.692540
0.708697 0.707966 0.697487
0.713686 0.712976 0.702526
0.718750 0.718048 0.707620
0.327102 0.324746 0.317032
0.327982 0.325618 0.317882
0.328869 0.326511 0.318782
0.329569 0.327211 0.319469
0.330537 0.328159 0.320409
0.331432 0.329051 0.321287
0.332435 0.330055 0.322251
0.332986 0.330641 0.322799
0.332964 0.330606 0.322768
0.332809 0.330466 0.322630
0.332680 0.330329 0.322509
0.339892 0.337544 0.329541
0.355705 0.353382 0.344970
0.374666 0.372381 0.363457
0.392842 0.390602 0.381214
0.410948 0.408752 0.398922
0.428429 0.426269 0.416031
0.445934 0.443819 0.433175
0.464569 0.462540 0.451431
0.482367 0.480406 0.468951
0.499483 0.497640 0.486056
0.516638 0.514990 0.503536
0.533243 0.531679 0.520644
0.550639 0.549267 0.538580
0.574715 0.573414 0.563047
0.620737 0.619632 0.609044
0.665975 0.665057 0.654477
0.689516 0.688691 0.678124
0.699264 0.698480 0.687959
0.703901 0.703141 0.692668
0.708853 0.708121 0.697671
0.713913 0.713182 0.702768
0.718895 0.718193 0.707787
0.352067 0.349778 0.341386
0.353549 0.351237 0.342833
0.355260 0.352970 0.344515
0.356779 0.354491 0.345976
0.358353 0.356064 0.347512
0.359904 0.357615 0.349006
0.360892 0.358603 0.349974
0.361092 0.358804 0.350180
0.361100 0.358798 0.350203
0.361081 0.358792 0.350200
0.361343 0.359060 0.350466
0.363681 0.361383 0.352758
0.377114 0.374831 0.365870
0.396326 0.394099 0.384640
0.415089 0.412903 0.402990
0.434338 0.432207 0.421804
0.453201 0.451124 0.440268
0.470577 0.468547 0.457332
0.488128 0.486239 0.474727
0.506198 0.504458 0.492905
0.522933 0.521316 0.509911
0.538907 0.537464 0.526496
0.556409 0.555015 0.544738
0.573275 0.571989 0.561539
0.588899 0.587661 0.577260
0.612183 0.611035 0.600509
0.653446 0.652461 0.641913
0.684817 0.683970 0.673444
0.699956 0.699187 0.688676
0.704900 0.704140 0.693649
0.709721 0.708989 0.698508
0.714558 0.713833 0.703404
0.719216 0.718514 0.708121
0.361467 0.359178 0.350549
0.363601 0.361313 0.352625
0.365759 0.363470 0.354752
0.367895 0.365606 0.356830
0.370050 0.367762 0.358927
0.372392 0.370103 0.361214
0.374738 0.372449 0.363501
0.376764 0.374480 0.365469
0.378734 0.376465 0.367398
0.380260 0.378000 0.368889
0.381452 0.379194 0.370067
0.382664 0.380406 0.371270
0.393497 0.391273 0.381860
0.412048 0.409852 0.400016
0.431381 0.429231 0.418972
0.451709 0.449631 0.438864
0.472477 0.470451 0.459175
0.492058 0.490103 0.478404
0.510220 0.508465 0.496701
0.527364 0.525848 0.514660
0.544434 0.543029 0.532456
0.560703 0.559350 0.548950
0.576959 0.575662 0.565324
0.594081 0.592871 0.582398
