assets/luts/art.cube
TITLE "Generated by Resolve"
LUT_3D_SIZE 33
0.0149844 0.0224765 0.0256352
0.00946059 0.0200961 0.0232547
0.00387579 0.0179294 0.021088
0.00157168 0.0161135 0.0188754
0.00706493 0.0143893 0.0162814
0.0251164 0.0139467 0.0126192
0.0554665 0.0137331 0.00737011
0.0975052 0.0127108 0.000244144
0.154208 0.00935378 0
0.228031 0.00164797 0
0.321035 0 0
0.43978 0 0
0.561288 0 0
0.686168 0 0
0.815106 0 0
0.936004 0 0
1 0 0
1 0 0
1 0 0
1 0 0
1 0 0
1 0 0
1 0 0
1 0 0
1 0.000686656 0
1 0.0261234 0
1 0.0520485 0
1 0.0782483 0
1 0.10367 0
1 0.127962 0.0096437
1 0.152087 0.035935
1 0.177188 0.064332
1 0.210178 0.102983
0.00611887 0.0118563 0.0175631
0.00103761 0.0096437 0.0150301
0 0.00772107 0.0130617
0 0.00628672 0.0108644
0 0.00596628 0.00801099
0.017319 0.00697337 0.00424201
0.0477913 0.00866712 0
0.090074 0.00918593 0
0.146242 0.00762951 0
0.219455 0.00187686 0
0.312688 0 0
0.431403 0 0
0.552773 0 0
0.681575 0 0
0.808606 0 0
0.92845 0 0
1 0 0
1 0 0
1 0 0
1 0 0
1 0 0
1 0 0
1 0 0
1 0 0
1 0.00755322 0
1 0.0320745 0
1 0.0573434 0
1 0.0827955 0
1 0.107607 0
1 0.131716 0.0138399
1 0.155764 0.0410315
1 0.181338 0.0703288
1 0.214679 0.109743
0 0.00344854 0.00994888
0 0.00141909 0.00730907
0 0 0.00488289
0 0 0.00247196
0 0 0
0.0108949 0.000747692 0
0.0408637 0.00416571 0
0.082887 0.00627146 0
0.13875 0.00596628 0
0.213565 0.00202945 0
0.306752 0 0
0.426444 0 0
0.549035 0 0
0.680461 0 0
0.805295 0 0
0.924697 0 0
1 0 0
1 0 0
1 0 0
1 0 0
1 0 0
1 0 0
1 0 0
1 0 0
1 0.0173648 0
1 0.0411078 0
1 0.0653544 0
1 0.0902266 0
1 0.114412 0
1 0.138293 0.0221256
1 0.16231 0.0496986
1 0.1879 0.0794842
1 0.221561 0.120104
0 0.00289921 0.00155642
0 0.00204471 0
0 0.000762951 0
0 0 0
0 0.00273136 0
0.0121462 0.005066 0
0.0380407 0.00567636 0
0.0772869 0.00671397 0
0.134508 0.00842298 0
0.209598 0.00663767 0
0.303883 0.000656138 0
0.42443 0 0
0.552026 0 0
0.681361 0 0
0.804791 0 0
0.921904 0 0
1 0 0
1 0 0
1 0 0
1 0 0
1 0 0
1 0 0
1 0 0
1 0.0145418 0
1 0.0350958 0
1 0.0572213 0
1 0.0803388 0
1 0.104067 0
1 0.127703 0.00848402
1 0.151095 0.0357366
1 0.174655 0.0633249
1 0.20032 0.0940566
1 0.233967 0.135531
0 0.0227512 0
0 0.0217288 0
0 0.0209506 0
0 0.0205692 0
0 0.0201572 0
0.0168154 0.0245212 0
0.0463722 0.0254063 0
0.0852216 0.0236515 0
0.13695 0.0199588 0
0.2112 0.0183566 0
0.306737 0.0157931 0
0.433143 0.0119478 0
0.559197 0.00512703 0
0.685527 0 0
0.804913 0 0
0.919539 0 0
1 0 0
1 0 0
1 0 0
1 0 0
1 0 0
1 0.00576791 0
1 0.0202182 0
1 0.0359655 0
1 0.0541695 0
1 0.0750439 0
1 0.097322 0
1 0.120104 0
1 0.143679 0.0213169
1 0.167056 0.0492866
1 0.190631 0.0779126
1 0.2159 0.108843
1 0.247532 0.148302
0 0.0551156 0
0 0.056672 0
0 0.0559548 0
0 0.0547341 0
0 0.0533303 0
0.00720226 0.0518807 0
0.0493324 0.0549935 0
0.0947585 0.0546578 0
0.15024 0.0506752 0
0.221942 0.0459907 0
0.312764 0.0405737 0
0.436164 0.040238 0
0.55996 0.0369421 0
0.683055 0.0322728 0
0.801297 0.0281529 0
0.914443 0.0250095 0
1 0.0229801 0
1 0.0228122 0
1 0.0243229 0
1 0.0276951 0
1 0.0331731 0
1 0.0424506 0
1 0.0545968 0
1 0.0686503 0
1 0.0858015 0
1 0.105119 0
1 0.126131 0
1 0.148241 0.0137636
1 0.170703 0.041825
1 0.193194 0.0700084
1 0.216388 0.0991226
1 0.24123 0.13051
1 0.272892 0.171115
0 0.0995499 0
0 0.101472 0
0 0.100633 0
0 0.098909 0
0 0.0974441 0
0 0.0966201 0
0.0371252 0.0961013 0
0.10045 0.099443 0
0.170809 0.101991 0
0.245319 0.0966964 0
0.334493 0.0897536 0
0.444434 0.0815137 0
0.559045 0.0750134 0
0.681147 0.0735943 0
0.79736 0.0721141 0
0.909651 0.0712291 0
1 0.0702525 0
1 0.0706493 0
1 0.0716564 0
1 0.07393 0
1 0.0783093 0
1 0.0857557 0
1 0.0967269 0
1 0.109667 0
1 0.125582 0
1 0.143908 0
1 0.16379 0.0106355
1 0.184802 0.0383917
1 0.206241 0.0665293
1 0.227909 0.0949874
1 0.250248 0.123949
1 0.274296 0.155444
1 0.305287 0.196292
0 0.159854 0
0 0.162768 0
0 0.162921 0
0 0.163012 0
0 0.162753 0
0 0.162554 0
0.0131533 0.161471 0
0.0900893 0.159304 0
0.171572 0.159304 0
0.265141 0.163531 0
0.35552 0.155535 0
0.46392 0.146075 0
0.571008 0.135042 0
0.679652 0.125078 0
0.790158 0.121553 0
0.901534 0.122194 0
1 0.122408 0
1 0.122972 0
1 0.123949 0
1 0.125811 0
1 0.129564 0
1 0.136202 0
1 0.146273 0
1 0.158556 0
1 0.173434 0
1 0.190417 0.0099794
1 0.208911 0.0367285
1 0.228687 0.0642863
1 0.248844 0.0920577
1 0.269215 0.120012
1 0.290303 0.148592
1 0.313542 0.180041
1 0.343267 0.220401
0 0.244877 0
0 0.245991 0
0 0.246891 0
0 0.248295 0
0 0.248371 0
0 0.247715 0
0 0.246372 0
0.068925 0.242863 0
0.161898 0.237263 0
0.258305 0.232105 0
0.369985 0.235798 0
0.477928 0.223743 0
0.582177 0.210651 0
0.685847 0.197238 0
0.786618 0.18616 0
0.887205 0.178042 0
0.993469 0.177203 0
1 0.178332 0
1 0.179461 0
1 0.18114 0
1 0.184039 0
1 0.189776 0
1 0.19855 0
1 0.209384 0
1 0.222843 0.00471504
1 0.238529 0.0290379
1 0.256031 0.0552834
1 0.27483 0.0832837
1 0.294392 0.111467
1 0.314275 0.139879
1 0.3346 0.16846
1 0.356176 0.198734
1 0.382147 0.235416
0 0.343694 0
0 0.355047 0
0 0.356497 0
0 0.353872 0
0 0.349981 0
0 0.344991 0
0 0.339422 0
0.0177462 0.333425 0
0.134493 0.325643 0
0.238422 0.315923 0
0.346181 0.306096 0
0.477958 0.307851 0
0.582483 0.293202 0
0.68545 0.278584 0
0.784863 0.266026 0
0.882856 0.255329 0
0.980423 0.245853 0
1 0.240925 0
1 0.24155 0
1 0.243107 0
1 0.245731 0
1 0.250675 0
1 0.258488 0
1 0.268406 0.00303655
1 0.280644 0.0245823
1 0.295293 0.0487068
1 0.311421 0.0746166
1 0.328801 0.101396
1 0.346639 0.128511
1 0.364599 0.155367
1 0.382879 0.182376
1 0.40235 0.210895
1 0.427008 0.247181
0 0.430838 0
0 0.443381 0
0 0.445197 0
0 0.442756 0
0 0.438956 0
0 0.434623 0
0 0.429511 0
0 0.423484 0
0.0862593 0.416068 0
0.204761 0.406317 0
0.31841 0.394461 0
0.444923 0.382712 0
0.573831 0.383398 0
0.680049 0.369665 0
0.77937 0.356146 0
0.876371 0.343496 0
0.972656 0.332113 0
1 0.322026 0
1 0.313664 0
1 0.310567 0
1 0.312734 0
1 0.31696 0
1 0.324025 0.00268559
1 0.333028 0.0206607
1 0.344488 0.0416419
1 0.357778 0.0648051
1 0.372534 0.0896315
1 0.388174 0.115282
1 0.404273 0.141054
1 0.420325 0.166308
1 0.436744 0.191623
1 0.454643 0.219287
1 0.477623 0.254704
0 0.524849 0
0 0.536919 0
0 0.539544 0
0 0.537926 0
0 0.535042 0
0 0.532372 0
0 0.528557 0
0 0.52369 0
0.0198825 0.517433 0
0.159548 0.508888 0
0.283223 0.497993 0
0.413138 0.484077 0
0.533272 0.47071 0
0.663035 0.46981 0
0.768994 0.459571 0
0.864851 0.444724 0
0.959106 0.43032 0
1 0.4168 0
1 0.404929 0
1 0.395636 0
1 0.390143 0
1 0.391043 0.00573739
1 0.397192 0.0206149
1 0.405295 0.0377356
1 0.415335 0.0573129
1 0.427054 0.0792096
1 0.439918 0.102373
1 0.453544 0.125994
1 0.467414 0.149477
1 0.481453 0.173007
1 0.496223 0.197223
1 0.51281 0.223682
1 0.534768 0.258854
0 0.599664 0
0 0.605798 0
0 0.608835 0
0 0.610407 0
0 0.611292 0
0 0.611887 0
0 0.61117 0
0 0.608103 0
0 0.603159 0
0.106538 0.595743 0
0.237903 0.585687 0
0.372427 0.57232 0
0.493355 0.557961 0
0.611109 0.543664 0
0.733577 0.541253 0
0.840406 0.533333 0
0.933471 0.516701 0
1 0.500877 0
1 0.486732 0
1 0.475074 0
1 0.46659 0
1 0.462119 0
1 0.462623 0.0211948
1 0.468574 0.0401923
1 0.477241 0.0580758
1 0.487526 0.0783551
1 0.49897 0.099794
1 0.511849 0.123049
1 0.525521 0.147112
1 0.539834 0.171466
1 0.55494 0.196826
1 0.571008 0.223255
1 0.590585 0.255299
0 0.682338 0
0 0.694408 0
0 0.69836 0
0 0.69839 0
0 0.696864 0
0 0.695705 0
0 0.694484 0
0 0.691051 0
0 0.685908 0
0.0559548 0.678645 0
0.193027 0.668986 0
0.330541 0.656184 0
0.452873 0.642542 0
0.570947 0.628244 0
0.682261 0.614588 0
0.799725 0.610025 0
0.907134 0.602777 0
0.994736 0.58471 0
1 0.568261 0
1 0.554162 0
1 0.543053 0
1 0.535912 0
1 0.532677 0.000320439
1 0.533623 0.030869
1 0.539178 0.0582132
1 0.548699 0.0790417
1 0.559838 0.100206
1 0.572106 0.122774
1 0.584924 0.145754
1 0.598001 0.168597
1 0.611383 0.191546
1 0.625711 0.215763
1 0.643702 0.246143
0 0.750866 0
0 0.761578 0
0 0.766201 0
0 0.767727 0
0 0.767819 0
0 0.768048 0
0 0.768109 0
0 0.766613 0
0 0.76257 0
0.0197147 0.756268 0
0.158312 0.747539 0
0.295766 0.735714 0
0.418021 0.722835 0
0.535592 0.709224 0
0.646601 0.695766 0
0.753353 0.681819 0
0.866346 0.674632 0
0.969345 0.666453 0
1 0.647837 0
1 0.631037 0
1 0.617777 0
1 0.608545 0
1 0.603403 0
1 0.60264 0.0131533
1 0.605631 0.0460212
1 0.611872 0.0794842
1 0.621515 0.10724
1 0.633188 0.12903
1 0.645243 0.150927
1 0.65745 0.172625
1 0.67013 0.194751
1 0.68394 0.218524
1 0.70074 0.247456
0 0.813916 0
0 0.823575 0
0 0.828748 0
0 0.831449 0
0 0.832944 0
0 0.83447 0
0 0.835645 0
0 0.835645 0
0 0.832929 0
7.62951e-05 0.827543 0
0.131838 0.81944 0
0.264912 0.808148 0
0.384512 0.795468 0
0.499519 0.782071 0
0.608194 0.768612 0
0.713024 0.754696 0
0.816602 0.739879 0
0.92221 0.730236 0
1 0.723049 0
1 0.70631 0
1 0.691737 0
1 0.681132 0
1 0.674372 0
1 0.671977 0
1 0.673075 0.0306554
1 0.677409 0.0647746
1 0.684306 0.0991684
1 0.693553 0.131731
1 0.704356 0.156359
1 0.715831 0.177005
1 0.728222 0.198932
1 0.741314 0.221698
1 0.756725 0.2486
0 0.865156 0
0 0.872557 0
0 0.878294 0
0 0.882963 0
0 0.886961 0
0 0.89041 0
0 0.892973 0
0 0.894057 0
0 0.892653 0
0 0.887877 0
0.100267 0.880095 0
0.227893 0.869047 0
0.343587 0.856596 0
0.455848 0.843427 0
0.562219 0.830671 0
0.665782 0.817594 0
0.768246 0.803983 0
0.867948 0.790265 0
0.96611 0.780667 0
1 0.776272 0
1 0.762966 0
1 0.750881 0
1 0.742443 0
1 0.738262 0
1 0.73753 0.00903334
1 0.739818 0.0428016
1 0.744823 0.0771496
1 0.752331 0.111711
1 0.761929 0.14641
1 0.773236 0.177325
1 0.785351 0.201068
1 0.798123 0.223362
1 0.812406 0.24828
0 0.924193 0
0 0.932067 0
0 0.937255 0
0 0.940856 0
0 0.943511 0
0 0.945907 0
0 0.947524 0
0 0.94789 0
0 0.946334 0
0 0.941512 0
0.0725719 0.933928 0
0.19379 0.923491 0
0.305882 0.912062 0
0.415244 0.900008 0
0.519509 0.888334 0
0.62121 0.876432 0
0.722332 0.863874 0
0.820798 0.851301 0
0.914458 0.839124 0
1 0.830411 0
1 0.829267 0
1 0.819043 0
1 0.808957 0
1 0.803143 0
1 0.800671 0
1 0.801236 0.0219425
1 0.804364 0.0560464
1 0.809705 0.0898756
1 0.81677 0.123033
1 0.82504 0.154665
1 0.834516 0.185
1 0.844984 0.210239
1 0.857343 0.232639
0 0.977737 0
0 0.985031 0
0 0.990066 0
0 0.993606 0
0 0.996292 0
0 0.998459 0
0 1 0
0 1 0
0 0.999344 0
0 0.995727 0
0.0681315 0.988983 0
0.179629 0.979446 0
0.28542 0.968734 0
0.390051 0.957336 0
0.490257 0.946258 0
0.588296 0.934936 0
0.686183 0.922835 0
0.781781 0.910597 0
0.872923 0.898802 0
0.957656 0.88806 0
1 0.880293 0
1 0.880888 0
1 0.874037 0
1 0.866712 0
1 0.862623 0
1 0.861448 0.00703441
1 0.862654 0.0403754
1 0.865995 0.0734874
1 0.870893 0.105303
1 0.877226 0.135927
1 0.884581 0.164965
1 0.892775 0.192386
1 0.903059 0.221561
0 1 0
0 1 0
0 1 0
0 1 0
0 1 0
0 1 0
0 1 0
0 1 0
0 1 0
0 1 0
0.078584 1 0
0.179629 1 0
0.27805 1 0
0.37644 1 0
0.471336 0.999969 0
0.56463 0.988861 0
0.658427 0.976959 0
0.750378 0.964889 0
0.838361 0.953277 0
0.920409 0.942733 0
0.994202 0.933837 0
1 0.927825 0
1 0.929976 0
1 0.926253 0
1 0.920455 0
1 0.917388 0
1 0.916609 0.0281529
1 0.917815 0.0598306
1 0.920699 0.0907149
1 0.924865 0.119692
1 0.9299 0.146609
1 0.935851 0.172244
1 0.943587 0.199969
0 1 0
0 1 0.00440986
0 1 0.00976577
0 1 0.0133669
0 1 0.0164187
0 1 0.0197757
0 1 0.022858
0 1 0.0252995
0 1 0.0260166
0.023209 1 0.0246586
0.0940108 1 0.0209506
0.18584 1 0.014374
0.277653 1 0.00656138
0.370153 1 0
0.459831 1 0
0.54873 1 0
0.638422 1 0
0.726757 1 0
0.811505 1 0
0.89041 0.990326 0
0.961395 0.98146 0
1 0.974227 0
1 0.969345 0
1 0.972351 0
1 0.971405 0
1 0.966461 0
1 0.963821 0.0179446
1 0.963287 0.049012
1 0.964523 0.0791638
1 0.967132 0.1075
1 0.970932 0.13434
1 0.975662 0.159762
1 0.981903 0.186725
0 1 0.037171
0 1 0.0439307
0 1 0.0474861
0 1 0.0488441
0 1 0.0501717
0 1 0.0522316
0 1 0.0544137
0 1 0.0560311
0.00355535 1 0.0562753
0.0545663 1 0.0548409
0.116609 1 0.0511788
0.198871 1 0.0451667
0.284977 1 0.0375067
0.372457 1 0.0295262
0.457664 1 0.0220645
0.542306 1 0.0141756
0.628153 1 0.00573739
0.712596 1 0
0.793683 1 0
0.868986 1 0
0.936645 1 0
0.996933 1 0
1 1 0
1 1 0
1 1 0
1 1 0
1 1 0.0105592
1 1 0.0394598
1 1 0.066743
1 1 0.0925612
1 1 0.116457
1 1 0.139239
1 1 0.164309
0 1 0.0838026
0 1 0.0904097
0 1 0.0937667
0 1 0.0954452
0 1 0.0964675
0 1 0.0983444
0 1 0.100191
0.0241093 1 0.101335
0.0592508 1 0.101564
0.10454 1 0.0999313
0.160937 1 0.095964
0.231678 1 0.0899214
0.310811 1 0.0821546
0.391897 1 0.0739147
0.470878 1 0.0658579
0.549584 1 0.0572213
0.629786 1 0.0479286
0.709041 1 0.0383001
0.785183 1 0.0287633
0.856001 1 0.0200198
0.919585 1 0.0128939
0.976028 1 0.00723278
1 1 0.00340276
1 1 0.00129702
1 1 0.000564584
1 1 0.00387579
1 1 0.013962
1 1 0.0389258
1 1 0.0644236
1 1 0.0882429
1 1 0.110063
1 1 0.130877
1 1 0.153948
0.031693 1 0.129595
0.0347906 1 0.134279
0.03505 1 0.137514
0.0345464 1 0.139452
0.0365606 1 0.141039
0.0444495 1 0.143221
0.058732 1 0.145159
0.0812543 1 0.146792
0.112642 1 0.146746
0.153994 1 0.144793
0.206012 1 0.140505
0.269383 1 0.133684
0.341238 1 0.125277
0.416373 1 0.116045
0.489586 1 0.107012
0.56286 1 0.0973983
0.637751 1 0.0868696
0.712062 1 0.0760815
0.783658 1 0.0655985
0.850477 1 0.0562753
0.910353 1 0.0488136
0.963302 1 0.0430304
1 1 0.0389258
1 1 0.0363317
1 1 0.0352026
1 1 0.0348363
1 1 0.0373388
1 1 0.0444343
1 1 0.064332
1 1 0.0859846
1 1 0.105959
1 1 0.125246
1 1 0.14667
0.0847181 1 0.1691
0.0873121 1 0.173617
0.0878614 1 0.17731
0.088838 1 0.180713
0.0920424 1 0.183627
0.0995346 1 0.186404
0.112581 1 0.188739
0.132815 1 0.190066
0.161425 1 0.189685
0.199542 1 0.187243
0.247883 1 0.182055
0.306905 1 0.174334
0.371649 1 0.165011
0.44155 1 0.154742
0.509941 1 0.144686
0.578637 1 0.134371
0.649226 1 0.123201
0.719417 1 0.111803
0.787228 1 0.100908
0.850294 1 0.0908522
0.9066 1 0.082536
0.956069 1 0.0761425
0.999207 1 0.071397
1 1 0.0680247
1 1 0.0660105
1 1 0.0649424
1 1 0.0643626
1 1 0.0661936
1 1 0.072282
1 1 0.0886244
1 1 0.108736
1 1 0.127749
1 1 0.148318
0.140978 1 0.213413
0.14258 1 0.217411
0.14168 1 0.220218
0.140169 1 0.221958
0.14081 1 0.223438
0.145861 1 0.224994
0.15642 1 0.226215
0.17377 1 0.226276
0.199832 1 0.225025
0.235035 1 0.221424
0.280735 1 0.215518
0.336919 1 0.207218
0.397833 1 0.197528
0.46334 1 0.186938
0.528557 1 0.176699
0.594049 1 0.166125
0.661494 1 0.15491
0.728573 1 0.143389
0.793179 1 0.132052
0.853025 1 0.12163
0.906172 1 0.112627
0.952453 1 0.105241
0.992401 1 0.0996109
1 1 0.0953231
1 1 0.0924697
1 1 0.0905013
1 1 0.0890211
1 1 0.0877699
1 1 0.0882277
1 1 0.092256
1 1 0.10338
1 1 0.120302
1 1 0.139452
0.191653 1 0.255421
0.191836 1 0.258381
0.190204 1 0.260655
0.188495 1 0.262425
0.188724 1 0.263798
0.192721 1 0.264988
0.201755 1 0.265599
0.217166 1 0.264927
0.240894 1 0.262745
0.273518 1 0.258183
0.316487 1 0.251255
0.369604 1 0.241856
0.427466 1 0.231067
0.487999 1 0.219593
0.549371 1 0.20824
0.611292 1 0.196567
0.675227 1 0.184146
0.739086 1 0.171725
0.800534 1 0.159609
0.857481 1 0.148425
0.907881 1 0.138888
0.951476 1 0.131212
0.988846 1 0.125277
1 1 0.120775
1 1 0.117708
1 1 0.115572
1 1 0.113939
1 1 0.112581
1 1 0.110964
1 1 0.11014
1 1 0.113054
1 1 0.121401
1 1 0.139055
0.236515 1 0.293782
0.235935 1 0.296086
0.233646 1 0.297856
0.231281 1 0.299168
0.230823 1 0.300175
0.233707 1 0.300786
0.241443 1 0.300862
0.255558 1 0.299702
0.277424 1 0.296666
