assets/luts/art.cube
TITLE "Generated by Resolve"
LUT_3D_SIZE 9
0.0149844 0.0224765 0.0256352
0.00706493 0.0143893 0.0162814
0.154208 0.00935378 0
0.561288 0 0
1 0 0
1 0 0
1 0.000686656 0
1 0.10367 0
1 0.210178 0.102983
0 0.0227512 0
0 0.0201572 0
0.13695 0.0199588 0
0.559197 0.00512703 0
1 0 0
1 0 0
1 0.0541695 0
1 0.143679 0.0213169
1 0.247532 0.148302
0 0.244877 0
0 0.248371 0
0.161898 0.237263 0
0.582177 0.210651 0
0.993469 0.177203 0
1 0.184039 0
1 0.222843 0.00471504
1 0.294392 0.111467
1 0.382147 0.235416
0 0.599664 0
0 0.611292 0
0 0.603159 0
0.493355 0.557961 0
0.933471 0.516701 0
1 0.46659 0
1 0.477241 0.0580758
1 0.525521 0.147112
1 0.590585 0.255299
0 0.865156 0
0 0.886961 0
0 0.892653 0
0.343587 0.856596 0
0.768246 0.803983 0
1 0.762966 0
1 0.73753 0.00903334
1 0.761929 0.14641
1 0.812406 0.24828
0 1 0
0 1 0.0164187
0 1 0.0260166
0.277653 1 0.00656138
0.638422 1 0
0.961395 0.98146 0
1 0.971405 0
1 0.964523 0.0791638
1 0.981903 0.186725
0.0847181 1 0.1691
0.0920424 1 0.183627
0.161425 1 0.189685
0.371649 1 0.165011
0.649226 1 0.123201
0.9066 1 0.082536
1 1 0.0660105
1 1 0.072282
1 1 0.148318
0.275425 1 0.327535
0.267796 1 0.332509
0.309743 1 0.326711
0.479942 1 0.288334
0.704204 1 0.235035
0.916915 1 0.184878
1 1 0.160418
1 1 0.152972
1 1 0.154437
0.393759 1 0.429816
0.375906 1 0.426368
0.402579 1 0.411246
0.553582 1 0.364096
0.752026 1 0.304128
0.93904 1 0.249668
1 1 0.22298
1 1 0.216037
1 1 0.215534
0.00932326 0.0189517 0.0329747
0.0130465 0.00950637 0.0276493
0.180209 0 0.0276493
0.632166 0 0
1 0 0
1 0 0
1 0.0495918 0
1 0.150835 0.0636149
1 0.248631 0.159106
0 0.0289464 0.0402533
0 0.0284123 0.0391089
0.195926 0.0328222 0.0365148
0.63209 0.01178 0.0117037
1 0.00170901 0
1 0.0317845 0
1 0.100557 0.0158694
1 0.190463 0.100084
1 0.289799 0.208392
0 0.266941 0.0818799
0 0.273503 0.0481727
0.204273 0.26009 0.0311589
0.615991 0.229755 0.035462
1 0.21706 0.0300908
1 0.221805 0.0332341
1 0.263386 0.0893568
1 0.335027 0.180392
1 0.42063 0.290547
0 0.622843 0.00691234
0 0.634928 0.0161898
0.0453498 0.629068 0.0104524
0.534691 0.582483 0
0.956512 0.536812 0
1 0.491753 0.0538796
1 0.507393 0.117983
1 0.555993 0.198566
1 0.620905 0.297841
0 0.881666 0.0148928
0 0.903639 0.0384222
0 0.908782 0.0409705
0.392676 0.872282 0.00906386
0.794217 0.819669 0
1 0.777005 0
1 0.756191 0.0690471
1 0.784314 0.1888
1 0.832135 0.270573
0 1 0.0671244
0 1 0.0897078
0.0696117 1 0.0964065
0.335668 1 0.07187
0.669673 1 0.0313115
0.976043 0.991318 0
1 0.979431 0.00340276
1 0.974105 0.106966
1 0.990616 0.196719
0.141482 1 0.199588
0.150393 1 0.216556
0.212146 1 0.220417
0.408927 1 0.191409
0.67187 1 0.145434
0.918761 1 0.101045
1 1 0.0806134
1 1 0.0825666
1 1 0.147845
0.297841 1 0.331884
0.290532 1 0.337209
0.329732 1 0.329854
0.495705 1 0.289158
0.71426 1 0.233707
0.92256 1 0.181643
1 1 0.155352
1 1 0.145968
1 1 0.145647
0.40061 1 0.420371
0.382605 1 0.416693
0.408011 1 0.400626
0.557351 1 0.352316
0.754314 1 0.291554
0.939269 1 0.23621
1 1 0.208682
1 1 0.200748
1 1 0.199481
0 0.00852979 0.262165
0.0473945 0 0.252964
0.229328 0 0.239628
0.641611 0 0.207019
1 0 0.147311
1 0 0.116808
1 0.106981 0.176608
1 0.205844 0.226032
1 0.29398 0.29424
0 0.0830549 0.290074
0.00892653 0.0693675 0.276997
0.253712 0.0748608 0.258488
0.660151 0 0.209201
1 0 0.154177
1 0.0502022 0.16289
1 0.15375 0.199664
1 0.243168 0.260563
1 0.336172 0.34374
0 0.279011 0.287037
0 0.278172 0.285359
0.254887 0.263615 0.269383
0.657694 0.252277 0.24654
1 0.246418 0.222293
1 0.257511 0.217502
1 0.307149 0.257832
1 0.379278 0.328679
1 0.460456 0.416114
0 0.608774 0.263355
0.0427405 0.620096 0.276295
0.168841 0.623255 0.242298
0.564355 0.582589 0.201877
0.954559 0.538979 0.199466
1 0.515328 0.221485
1 0.538354 0.258274
1 0.587823 0.324193
1 0.648737 0.401968
0.0395056 0.870817 0.225467
0.0494698 0.894591 0.233738
0.144411 0.901778 0.223804
0.442679 0.870115 0.190204
0.810483 0.819745 0.140871
1 0.778393 0.134524
1 0.770291 0.210575
1 0.803067 0.28751
1 0.846525 0.347555
0.0797894 1 0.205951
0.0954452 1 0.224964
0.173053 1 0.231312
0.39707 1 0.205722
0.699489 1 0.162417
0.983825 0.990356 0.120607
1 0.977798 0.126009
1 0.976959 0.197436
1 0.993744 0.263294
0.198169 1 0.28629
0.205219 1 0.303212
0.26067 1 0.305745
0.447105 1 0.274235
0.692363 1 0.225834
0.92755 1 0.178637
1 1 0.154955
1 1 0.153231
1 1 0.203555
0.320455 1 0.390417
0.31194 1 0.394995
0.348486 1 0.386313
0.510658 1 0.343984
0.72224 1 0.287083
0.925582 1 0.23331
1 1 0.205142
1 1 0.193744
1 1 0.191226
0.406165 1 0.463172
0.387228 1 0.458701
0.411597 1 0.441947
0.559533 1 0.392844
0.75494 1 0.331258
0.936843 1 0.275257
1 1 0.24686
1 1 0.237995
1 1 0.235706
0 0.0133516 0.759945
0.0769207 0.00917067 0.747936
0.381918 0.036347 0.724529
0.73753 0.0481727 0.6748
1 0 0.570047
1 0 0.478187
1 0.0659495 0.456321
1 0.193652 0.492607
1 0.322698 0.571572
0 0.138781 0.765805
0.104814 0.14519 0.757244
0.394995 0.164797 0.730556
0.7243 0.15108 0.666911
1 0.0556344 0.567987
1 0.0501869 0.492195
1 0.132143 0.485542
1 0.25835 0.545785
1 0.376562 0.630472
0 0.372656 0.744366
0.0699321 0.368826 0.739452
0.361959 0.351186 0.714733
0.697185 0.331167 0.656046
1 0.260395 0.575998
1 0.256092 0.536355
1 0.328939 0.566308
1 0.423377 0.634409
1 0.494255 0.692073
0.00715648 0.60209 0.604837
0.0988479 0.614206 0.617456
0.281971 0.612039 0.615961
0.593896 0.57322 0.576364
0.951522 0.551247 0.549813
1 0.543709 0.536583
1 0.568536 0.557473
1 0.61442 0.601038
1 0.667323 0.652873
0.153445 0.853788 0.528939
0.192691 0.874205 0.552483
0.298466 0.877119 0.560693
0.509697 0.851469 0.518486
0.819715 0.806607 0.470466
1 0.772488 0.459785
1 0.779706 0.492576
1 0.813611 0.530266
1 0.851682 0.572625
0.206882 1 0.491691
0.225437 1 0.514748
0.277104 1 0.514839
0.459968 1 0.478996
0.722133 1 0.435981
0.981842 0.976806 0.393057
1 0.964126 0.393439
1 0.969055 0.435065
1 0.986786 0.476249
0.265324 1 0.5299
0.265629 1 0.543694
0.304738 1 0.538811
0.4795 1 0.504036
0.705867 1 0.453956
0.927901 1 0.404364
1 1 0.377539
1 1 0.373968
1 1 0.407874
0.342077 1 0.599451
0.329778 1 0.601724
0.36202 1 0.59086
0.519936 1 0.546899
0.725338 1 0.488472
0.920089 1 0.433295
1 1 0.402869
1 1 0.389181
1 1 0.384146
0.404608 1 0.651576
0.384741 1 0.646403
0.407858 1 0.628946
0.554147 1 0.579004
0.747753 1 0.51664
0.925231 1 0.459892
1 1 0.430259
1 1 0.420127
1 1 0.416556
0.0135805 0.120821 1
0.222843 0.139254 1
0.463844 0.187594 1
0.789578 0.238117 1
1 0.212894 1
1 0.130877 0.908919
1 0.165133 0.842832
1 0.241184 0.840223
1 0.316899 0.865049
0.183368 0.25156 1
0.276722 0.259098 1
0.466468 0.277455 1
0.772854 0.292012 1
1 0.25835 1
1 0.183307 0.912535
1 0.21323 0.864317
1 0.28867 0.880415
1 0.366491 0.918334
0.257755 0.43064 1
0.307286 0.431052 1
0.46096 0.434485 1
0.754208 0.430259 1
1 0.399542 1
1 0.342214 0.932296
1 0.365072 0.91223
1 0.42211 0.938201
1 0.483986 0.975875
0.204181 0.630945 0.985763
0.252598 0.64892 1
0.384298 0.657603 1
0.664378 0.632578 0.969451
0.956756 0.604578 0.923674
1 0.559457 0.872068
1 0.571237 0.869764
1 0.611933 0.896819
1 0.66981 0.940612
0.199466 0.842084 0.852491
0.229938 0.86244 0.873198
0.323079 0.866255 0.877684
0.553368 0.836652 0.848859
0.82414 0.792111 0.803998
1 0.772 0.780911
1 0.784207 0.788556
1 0.814191 0.81442
1 0.847837 0.844388
0.225925 1 0.777859
0.242145 1 0.800092
0.310201 1 0.809384
0.508629 1 0.78497
0.738262 0.99971 0.735821
0.975387 0.958938 0.692927
1 0.946822 0.690593
1 0.956863 0.712978
1 0.975036 0.731411
0.292256 1 0.807568
0.296574 1 0.823392
0.346273 1 0.824933
0.511482 1 0.785901
0.717128 1 0.727138
0.922621 1 0.676463
1 1 0.646998
1 1 0.643519
1 1 0.664958
0.369711 1 0.868788
0.357366 1 0.870985
0.38323 1 0.856626
0.527443 1 0.804913
0.725917 1 0.74345
0.910689 1 0.687312
1 1 0.654856
1 1 0.639109
1 1 0.634485
0.409735 1 0.900649
0.387823 1 0.894102
0.406622 1 0.873991
0.547387 1 0.820783
0.739025 1 0.757702
0.912642 1 0.70016
0.994232 1 0.669367
1 1 0.657923
1 1 0.653025
0.338201 0.300954 1
0.380896 0.31249 1
0.517769 0.338842 1
0.78764 0.355749 1
1 0.369436 1
1 0.334951 1
1 0.287816 1
1 0.314046 1
1 0.356527 1
0.385916 0.369543 1
0.411765 0.374563 1
0.525765 0.385519 1
0.781415 0.386175 1
1 0.385855 1
1 0.355001 1
1 0.320226 1
1 0.353201 1
1 0.405447 1
0.429465 0.490913 1
0.44654 0.49807 1
0.542199 0.505074 1
0.781643 0.494514 1
1 0.483909 1
1 0.460456 1
1 0.438849 1
1 0.46743 1
1 0.511955 1
0.363104 0.660883 1
0.39086 0.680705 1
0.487511 0.694377 1
0.71223 0.677058 1
0.98381 0.657099 1
1 0.631373 1
1 0.61323 1
1 0.633936 1
1 0.671016 1
0.291615 0.855573 1
0.310307 0.877043 1
0.385046 0.88629 1
0.594736 0.864836 1
0.860044 0.829175 1
1 0.805173 1
1 0.790845 1
1 0.808621 1
1 0.833921 1
0.242786 1 1
0.255909 1 1
0.320745 1 1
0.514839 1 1
0.754803 0.989578 1
0.97174 0.944701 0.955215
1 0.93756 0.945235
1 0.948821 0.952804
1 0.963394 0.963958
0.299351 1 1
0.301762 1 1
0.348821 1 1
0.520043 1 1
0.73666 1 0.978332
0.922393 1 0.921431
1 1 0.890074
1 1 0.887327
1 1 0.898878
0.367269 1 1
0.356039 1 1
0.388235 1 1
0.543664 1 1
0.740429 1 0.982177
0.910063 1 0.919005
0.996445 1 0.885359
1 1 0.867903
1 1 0.864363
0.414054 1 1
0.393347 1 1
0.416007 1 1
0.556634 1 1
0.738933 1 0.979431
0.90721 1 0.91931
0.981918 1 0.887572
0.993942 1 0.87483
0.992889 0.9991 0.868452
0.509346 0.463401 1
0.515145 0.466438 1
0.596307 0.475624 1
0.814832 0.46714 1
1 0.451148 1
1 0.440421 1
1 0.421164 1
1 0.396796 1
1 0.416815 1
0.528649 0.484718 1
0.529305 0.485634 1
0.600122 0.488167 1
0.811246 0.473045 1
1 0.455192 1
1 0.447974 1
1 0.440787 1
1 0.432349 1
1 0.464622 1
0.538094 0.555901 1
0.540902 0.563043 1
0.608499 0.568872 1
0.81709 0.555077 1
1 0.538949 1
1 0.534096 1
1 0.535042 1
1 0.533288 1
1 0.560967 1
0.470619 0.705303 1
0.483787 0.725368 1
0.548913 0.735088 1
0.754818 0.722225 1
1 0.700175 1
1 0.685695 1
1 0.68513 1
1 0.685863 1
1 0.709346 1
0.361364 0.884428 1
0.375555 0.905882 1
0.444831 0.916945 1
0.647288 0.898558 1
0.895155 0.868742 1
1 0.84976 1
1 0.847532 1
1 0.84593 1
1 0.858091 1
0.296284 1 1
0.306935 1 1
0.366308 1 1
0.552483 1 1
0.785306 1 1
1 0.981598 1
1 0.96936 1
1 0.95906 1
1 0.962478 1
0.313863 1 1
0.315145 1 1
0.360372 1 1
0.529351 1 1
0.74374 1 1
0.936126 1 1
1 1 1
1 1 1
1 1 1
0.377218 1 1
0.365164 1 1
0.396063 1 1
0.549416 1 1
0.748562 1 1
0.927123 1 1
0.999451 1 1
1 1 0.982223
1 1 0.979416
0.415854 1 1
0.394781 1 1
0.41677 1 1
0.561181 1 1
0.751888 1 1
0.921202 1 1
0.985397 1 0.991089
0.990143 0.995575 0.977508
0.984344 0.986587 0.969543
0.630594 0.585061 1
0.619562 0.582132 1
0.667781 0.576913 1
0.850385 0.549035 1
1 0.514214 1
1 0.488182 1
1 0.4925 1
1 0.49012 1
1 0.481163 1
0.622782 0.571923 1
0.612406 0.570336 1
0.661112 0.566918 1
0.846021 0.541772 1
1 0.512398 1
1 0.495064 1
1 0.510994 1
1 0.523903 1
1 0.529412 1
0.607538 0.612039 1
0.605417 0.619928 1
0.66099 0.625345 1
0.853223 0.60885 1
1 0.587884 1
1 0.577417 1
1 0.596994 1
1 0.613153 1
1 0.618021 1
0.526009 0.742107 1
0.53637 0.763485 1
0.599115 0.777874 1
0.792035 0.763745 1
1 0.738949 1
1 0.722225 1
1 0.735988 1
1 0.752697 1
1 0.75877 1
0.428199 0.915892 1
0.438621 0.937255 1
0.500069 0.950225 1
0.68629 0.930358 1
0.925368 0.903197 1
1 0.882612 1
1 0.889204 1
1 0.900374 1
1 0.899123 1
0.342626 1 1
0.351736 1 1
0.407263 1 1
0.590036 1 1
0.821286 1 1
1 1 1
1 1 1
1 1 1
1 0.992309 1
0.354116 1 1
0.353582 1 1
0.395697 1 1
0.560204 1 1
0.769924 1 1
0.958572 1 1
1 1 1
1 1 1
1 1 1
0.391257 1 1
0.378073 1 1
0.407492 1 1
0.559258 1 1
0.756924 1 1
0.934508 1 1
1 1 1
1 1 1
1 1 1
0.425666 1 1
0.404334 1 1
0.425849 1 1
0.569055 1 1
0.758312 1 1
0.927962 1 1
0.998672 1 1
0.995804 0.989899 0.996567
0.982879 0.981491 0.987549
0.707362 0.670283 1
0.688365 0.663615 1
0.721096 0.651377 1
0.884382 0.613565 1
1 0.568933 1
1 0.534524 1
1 0.53164 1
1 0.550011 1
1 0.55642 1
0.68806 0.641398 1
0.67277 0.638544 1
0.710353 0.631449 1
0.880537 0.600687 1
1 0.565332 1
1 0.542535 1
1 0.553185 1
1 0.585657 1
1 0.605539 1
0.662181 0.664378 1
0.657847 0.672862 1
0.707225 0.678096 1
0.889464 0.659907 1
1 0.636011 1
1 0.62179 1
1 0.6365 1
1 0.66836 1
1 0.68777 1
0.577142 0.783902 1
0.58584 0.805753 1
0.643381 0.819852 1
0.827512 0.804288 1
1 0.777508 1
1 0.759197 1
1 0.77026 1
1 0.800122 1
1 0.81976 1
0.481804 0.949996 1
0.48893 0.970642 1
0.541558 0.980804 1
0.723171 0.963317 1
0.953597 0.935485 1
1 0.913375 1
1 0.917296 1
1 0.937179 1
1 0.947494 1
0.391546 1 1
0.399939 1 1
0.45359 1 1
0.630655 1 1
0.849653 1 1
1 1 1
1 1 1
1 1 1
1 1 1
0.392386 1 1
0.3897 1 1
0.428656 1 1
0.588647 1 1
0.794018 1 1
0.980972 1 1
1 1 1
1 1 1
1 1 1
0.423865 1 1
0.40911 1 1
0.436301 1 1
0.584756 1 1
0.778744 1 1
0.952499 1 1
1 1 1
1 1 1
1 1 1
0.438071 1 1
0.415946 1 1
0.436286 1 1
0.578149 1 1
0.765957 1 1
0.934035 1 1
1 0.999954 1
1 0.986603 0.988556
0.982223 0.978408 0.980224
