assets/luts/art.cube
TITLE "Generated by Resolve"
LUT_3D_SIZE 5
0.0149844 0.0224765 0.0256352
0.154208 0.00935378 0
1 0 0
1 0.000686656 0
1 0.210178 0.102983
0 0.244877 0
0.161898 0.237263 0
0.993469 0.177203 0
1 0.222843 0.00471504
1 0.382147 0.235416
0 0.865156 0
0 0.892653 0
0.768246 0.803983 0
1 0.73753 0.00903334
1 0.812406 0.24828
0.0847181 1 0.1691
0.161425 1 0.189685
0.649226 1 0.123201
1 1 0.0660105
1 1 0.148318
0.393759 1 0.429816
0.402579 1 0.411246
0.752026 1 0.304128
1 1 0.22298
1 1 0.215534
0 0.00852979 0.262165
0.229328 0 0.239628
1 0 0.147311
1 0.106981 0.176608
1 0.29398 0.29424
0 0.279011 0.287037
0.254887 0.263615 0.269383
1 0.246418 0.222293
1 0.307149 0.257832
1 0.460456 0.416114
0.0395056 0.870817 0.225467
0.144411 0.901778 0.223804
0.810483 0.819745 0.140871
1 0.770291 0.210575
1 0.846525 0.347555
0.198169 1 0.28629
0.26067 1 0.305745
0.692363 1 0.225834
1 1 0.154955
1 1 0.203555
0.406165 1 0.463172
0.411597 1 0.441947
0.75494 1 0.331258
1 1 0.24686
1 1 0.235706
0.0135805 0.120821 1
0.463844 0.187594 1
1 0.212894 1
1 0.165133 0.842832
1 0.316899 0.865049
0.257755 0.43064 1
0.46096 0.434485 1
1 0.399542 1
1 0.365072 0.91223
1 0.483986 0.975875
0.199466 0.842084 0.852491
0.323079 0.866255 0.877684
0.82414 0.792111 0.803998
1 0.784207 0.788556
1 0.847837 0.844388
0.292256 1 0.807568
0.346273 1 0.824933
0.717128 1 0.727138
1 1 0.646998
1 1 0.664958
0.409735 1 0.900649
0.406622 1 0.873991
0.739025 1 0.757702
0.994232 1 0.669367
1 1 0.653025
0.509346 0.463401 1
0.596307 0.475624 1
1 0.451148 1
1 0.421164 1
1 0.416815 1
0.538094 0.555901 1
0.608499 0.568872 1
1 0.538949 1
1 0.535042 1
1 0.560967 1
0.361364 0.884428 1
0.444831 0.916945 1
0.895155 0.868742 1
1 0.847532 1
1 0.858091 1
0.313863 1 1
0.360372 1 1
0.74374 1 1
1 1 1
1 1 1
0.415854 1 1
0.41677 1 1
0.751888 1 1
0.985397 1 0.991089
0.984344 0.986587 0.969543
0.707362 0.670283 1
0.721096 0.651377 1
1 0.568933 1
1 0.53164 1
1 0.55642 1
0.662181 0.664378 1
0.707225 0.678096 1
1 0.636011 1
1 0.6365 1
1 0.68777 1
0.481804 0.949996 1
0.541558 0.980804 1
0.953597 0.935485 1
1 0.917296 1
1 0.947494 1
0.392386 1 1
0.428656 1 1
0.794018 1 1
1 1 1
1 1 1
0.438071 1 1
0.436286 1 1
0.765957 1 1
1 0.999954 1
0.982223 0.978408 0.980224
