assets/luts/Dark_Runner.CUBE
#Generated by: Picture Instruments - Image2LUT
TITLE "Dark_BladeRunnerLUT_Look"
LUT_3D_SIZE 5
DOMAIN_MIN 0.000000 0.000000 0.000000
DOMAIN_MAX 0.903226 0.903226 0.903226
0.0196 0.0196 0.0196
0.0667 0.0353 0.0353
0.3333 0.0314 0.0314
0.5412 0.0196 0.0196
0.7137 0.0196 0.0196
0.0824 0.1686 0.0824
0.1176 0.1647 0.0784
0.3333 0.1882 0.0314
0.5412 0.1961 0.0196
0.7137 0.1961 0.0196
0.0431 0.3569 0.0431
0.1882 0.3529 0.0431
0.3451 0.3569 0.0392
0.5412 0.3686 0.0196
0.7137 0.3686 0.0196
0.0196 0.5412 0.0196
0.1961 0.5412 0.0196
0.3686 0.5412 0.0196
0.5412 0.5412 0.0196
0.7137 0.5412 0.0196
0.0196 0.7137 0.0196
0.1961 0.7137 0.0196
0.3686 0.7137 0.0196
0.5412 0.7137 0.0196
0.7137 0.7137 0.0196
0.1255 0.1255 0.2549
0.1490 0.1137 0.2353
0.3373 0.0392 0.2000
0.5412 0.0196 0.1961
0.7137 0.0196 0.1961
0.1137 0.2000 0.2353
0.1412 0.1961 0.2314
0.2627 0.1765 0.2000
0.5255 0.2000 0.2000
0.7137 0.1961 0.1961
0.0431 0.3529 0.2039
0.1686 0.3020 0.2353
0.3137 0.3725 0.2549
0.5176 0.3647 0.2039
0.7137 0.3686 0.1961
0.0196 0.5412 0.1961
0.1961 0.5255 0.2039
0.3569 0.5255 0.2118
0.5255 0.5294 0.2078
0.7137 0.5412 0.1961
0.0196 0.7137 0.1961
0.1961 0.7137 0.1961
0.3686 0.7137 0.1961
0.5412 0.7137 0.1961
0.7137 0.7137 0.1961
0.0588 0.0588 0.3843
0.2000 0.0549 0.3765
0.3529 0.0431 0.3686
0.5412 0.0196 0.3686
0.7137 0.0196 0.3686
0.0549 0.2118 0.3765
0.2078 0.2549 0.3804
0.3137 0.2627 0.3961
0.5176 0.2000 0.3647
0.7137 0.1961 0.3686
0.0431 0.3608 0.3686
0.1843 0.3137 0.3451
0.2588 0.3255 0.3451
0.4510 0.3451 0.3529
0.6980 0.3725 0.3725
0.0196 0.5412 0.3686
0.1961 0.5176 0.3608
0.2941 0.4353 0.3569
0.4784 0.5137 0.3765
0.6941 0.5373 0.3725
0.0196 0.7137 0.3686
0.1961 0.7137 0.3686
0.3647 0.6902 0.3725
0.5333 0.6941 0.3804
0.6980 0.7020 0.3686
0.0196 0.0196 0.5412
0.1961 0.0196 0.5412
0.3686 0.0196 0.5412
0.5412 0.0196 0.5412
0.7137 0.0196 0.5412
0.0196 0.1961 0.5412
0.2000 0.2039 0.5294
0.3569 0.2118 0.5294
0.5216 0.2118 0.5294
0.7137 0.1961 0.5412
0.0196 0.3686 0.5412
0.1961 0.3608 0.5216
0.3059 0.3647 0.4549
0.4784 0.4078 0.5098
0.6980 0.3765 0.5373
0.0196 0.5412 0.5412
0.1961 0.5216 0.5216
0.3176 0.4471 0.4510
0.4784 0.5176 0.5098
0.6510 0.5490 0.5294
0.0196 0.7137 0.5412
0.1961 0.7137 0.5412
0.3647 0.6902 0.5333
0.5294 0.6510 0.5451
0.6588 0.6667 0.5373
0.0196 0.0196 0.7137
0.1961 0.0196 0.7137
0.3686 0.0196 0.7137
0.5412 0.0196 0.7137
0.7137 0.0196 0.7137
0.0196 0.1961 0.7137
0.1961 0.1961 0.7137
0.3686 0.1961 0.7137
0.5412 0.1961 0.7137
0.7137 0.1961 0.7137
0.0196 0.3686 0.7137
0.1961 0.3686 0.7137
0.3647 0.3725 0.6941
0.5373 0.3843 0.6980
0.7020 0.3804 0.7020
0.0196 0.5412 0.7137
0.1961 0.5412 0.7137
0.3647 0.5333 0.6902
0.5294 0.5686 0.6431
0.6784 0.5922 0.6824
0.0196 0.7137 0.7137
0.1961 0.7137 0.7137
0.3686 0.6980 0.6980
0.5529 0.6627 0.6510
0.7059 0.7294 0.7098
