assets/luts/FILM1.CUBE
TITLE "Generated by Resolve"
LUT_3D_SIZE 9
0.0393072 0.0556649 0.0569924
0.139147 0.0638437 0.0526894
0.258061 0.0700542 0.0455482
0.36643 0.0713207 0.0363622
0.478553 0.0664073 0.0192569
0.578058 0.057847 0.0103304
0.671427 0.0378119 0.00863661
0.764706 0.0133669 0.00187686
0.841627 0.00262455 0
0.00968948 0.124498 0.0590524
0.131518 0.1337 0.0541238
0.26508 0.142947 0.0453956
0.380331 0.149722 0.0298619
0.499168 0.154299 0.00657664
0.605173 0.157671 0.00437934
0.699184 0.156619 0.00337224
0.790738 0.146273 0
0.862028 0.125246 0
0 0.212833 0.0644694
0.105669 0.224537 0.0561532
0.266972 0.238865 0.039292
0.392599 0.251865 0.00852979
0.517113 0.262501 0
0.626612 0.269703 0
0.71989 0.272007 0
0.813931 0.262654 0
0.884733 0.230121 0
0 0.306142 0.0692912
0.0450294 0.318441 0.055314
0.266102 0.334829 0.0134432
0.400153 0.351598 0
0.524483 0.363058 0
0.63888 0.370764 0
0.734234 0.374319 0
0.832807 0.366064 0
0.907927 0.33373 0
0 0.396262 0.0684367
0.0413214 0.409445 0.0452125
0.255741 0.42887 0.000350958
0.402304 0.448783 0
0.530312 0.462959 0
0.651942 0.473304 0
0.750729 0.479576 0
0.853468 0.473777 0
0.933837 0.437919 0
0 0.47425 0.0624399
0.0412757 0.491585 0.0220645
0.224643 0.519219 0
0.39498 0.545541 0
0.530373 0.565866 0
0.663157 0.582666 0
0.766796 0.592737 0
0.873396 0.58996 0
0.958541 0.551797 0
0 0.547097 0.0542153
0.0412757 0.56968 0.00505074
0.1832 0.60412 0
0.394705 0.635996 0
0.534295 0.658595 0
0.669474 0.676585 0
0.775311 0.687831 0
0.884276 0.688945 0
0.979767 0.660273 0
0 0.613382 0.0263066
0.0411688 0.637385 0
0.110796 0.673899 0
0.35053 0.708797 0
0.498299 0.73608 0
0.644984 0.760449 0
0.764996 0.779034 0
0.886168 0.789929 0
0.997345 0.773663 0
0 0.652644 0
0.0413367 0.669108 0
0.0844739 0.698039 0
0.127779 0.733059 0
0.305959 0.767819 0
0.500969 0.807965 0
0.659937 0.843565 0
0.830976 0.881193 0
1 0.902296 0
0.0175326 0.0585031 0.159411
0.132357 0.0657969 0.15642
0.257343 0.0715648 0.150958
0.366903 0.0728008 0.149722
0.479744 0.0667735 0.148333
0.579141 0.0522164 0.147356
0.672282 0.026154 0.146883
0.766461 0 0.139834
0.842771 0 0.115267
0 0.131182 0.1617
0.11957 0.138323 0.155306
0.265354 0.146914 0.148836
0.381567 0.153735 0.148791
0.499931 0.1561 0.148089
0.604059 0.155673 0.146914
0.696742 0.150103 0.144411
0.785611 0.126207 0.130053
0.854139 0.0633402 0.0864729
0 0.221881 0.164004
0.0592355 0.231266 0.152621
0.262074 0.244633 0.144396
0.390997 0.255802 0.142992
0.513268 0.261875 0.139986
0.619715 0.264332 0.133959
0.711498 0.262425 0.12665
0.803922 0.245792 0.103807
0.876493 0.206332 0.0580758
0 0.31606 0.172732
0.0412909 0.326436 0.160891
0.251682 0.33994 0.144488
0.390738 0.351736 0.13344
0.514199 0.358511 0.123095
0.627512 0.361761 0.107347
0.721782 0.362173 0.0937362
0.820111 0.348989 0.0560464
0.902861 0.320836 0.0412451
0 0.406363 0.178119
0.0412299 0.417472 0.163287
0.230137 0.430976 0.140536
0.386892 0.445014 0.118547
0.515221 0.454948 0.0953384
0.637812 0.462028 0.0726482
0.736568 0.466117 0.0506905
0.84271 0.460395 0.0411536
0.930159 0.42916 0.0412451
0 0.485222 0.175723
0.0412604 0.500298 0.159228
0.166262 0.519081 0.127092
0.375128 0.540276 0.087129
0.513313 0.558373 0.0628367
0.648737 0.573846 0.0429694
0.753826 0.583017 0.0412604
0.863798 0.580514 0.0412146
0.955703 0.545129 0.0413672
0 0.558938 0.174777
0.0413062 0.577905 0.157504
0.137011 0.602869 0.117342
0.371099 0.629877 0.0706951
0.514458 0.650965 0.0435492
0.654444 0.669673 0.0413062
0.763272 0.681132 0.0412604
0.876188 0.683177 0.0413977
0.978149 0.657404 0.0414282
0 0.624201 0.160098
0.0413977 0.64268 0.137636
0.0958267 0.671382 0.0732738
0.321218 0.704067 0.0413519
0.480003 0.732586 0.041474
0.632212 0.757626 0.0413672
0.755413 0.776913 0.0413062
0.880552 0.788739 0.0412146
0.997208 0.775921 0.0411536
0 0.658061 0.0927749
0.0412909 0.672053 0.0582895
0.0843519 0.700267 0.0413367
0.127657 0.73611 0.0412757
0.284123 0.771054 0.041413
0.494041 0.812253 0.0413825
0.657649 0.848997 0.0412757
0.833616 0.888029 0.0412909
1 0.909102 0.0415503
0.00531014 0.0539712 0.268132
0.123964 0.0635538 0.272404
0.25539 0.0685893 0.274632
0.36759 0.0692149 0.278004
0.481498 0.061677 0.28072
0.582559 0.0371252 0.284367
0.676829 0.0177157 0.288273
0.772259 0 0.28365
0.84889 0 0.256107
0 0.131365 0.283818
0.0964218 0.14284 0.284688
0.260792 0.150332 0.285664
0.381079 0.156939 0.287755
0.501335 0.159121 0.291127
0.606226 0.158404 0.29424
0.698817 0.152743 0.295445
0.788556 0.127428 0.283131
0.857725 0.0598764 0.24361
0 0.230228 0.296895
0.0413519 0.241886 0.29482
0.248447 0.252705 0.289219
0.388098 0.26247 0.290043
0.511177 0.268086 0.291325
0.618616 0.269688 0.290974
0.711177 0.26772 0.28893
0.80557 0.249256 0.272786
0.876265 0.201266 0.227634
0 0.32874 0.31368
0.0412604 0.339452 0.305135
0.215717 0.349752 0.286931
0.378561 0.36025 0.279606
0.507713 0.366506 0.280629
0.623926 0.3691 0.27866
0.719387 0.368841 0.276143
0.819638 0.354147 0.259083
0.896651 0.311177 0.211078
0 0.42089 0.322499
0.0413214 0.430655 0.310201
0.158312 0.441169 0.288655
0.366659 0.454261 0.276967
0.502739 0.463416 0.272465
0.630533 0.4692 0.269093
0.730526 0.472114 0.267765
0.837034 0.461372 0.253147
0.919814 0.417655 0.205646
0 0.501549 0.320348
0.0411994 0.515221 0.307652
0.104295 0.531685 0.285756
0.347509 0.550622 0.272023
0.493797 0.566247 0.264927
0.633173 0.577768 0.258198
0.739727 0.583429 0.253849
0.849348 0.574838 0.236072
0.939773 0.528069 0.177676
0 0.577157 0.323583
0.0412604 0.594766 0.311833
0.0843824 0.617578 0.290333
0.334554 0.639979 0.272694
0.487572 0.656886 0.261036
0.631342 0.669337 0.246647
0.74316 0.677348 0.237491
0.856153 0.673793 0.213901
0.958618 0.639643 0.141421
0 0.64271 0.305287
0.0413825 0.659678 0.291737
0.0843824 0.685466 0.269108
0.245838 0.708858 0.244953
0.44387 0.731945 0.229816
0.601923 0.751324 0.211749
0.729046 0.76672 0.195727
0.854871 0.774289 0.156954
0.979324 0.7608 0.0951705
0 0.672541 0.221271
0.0412299 0.684321 0.209094
0.0843519 0.70634 0.186328
0.127642 0.736385 0.147005
0.217914 0.767071 0.117403
0.462364 0.806165 0.0844739
0.634714 0.842268 0.0844129
0.815595 0.88043 0.0844282
0.996094 0.905806 0.0844434
0.000671397 0.0441901 0.354559
0.119646 0.0605936 0.361563
0.254688 0.0637675 0.367956
0.369268 0.0630045 0.375067
0.484627 0.0492561 0.380362
0.587243 0.0299535 0.386236
0.682109 0.00929274 0.391699
0.77763 0 0.388022
0.853513 0 0.361532
0 0.127794 0.375418
0.0777752 0.145403 0.378012
0.256397 0.152956 0.384649
0.381369 0.159075 0.391913
0.503883 0.160861 0.397665
0.609415 0.159701 0.401877
0.701991 0.153231 0.403601
0.791699 0.126757 0.391546
0.860517 0.0574044 0.353475
0 0.234424 0.397925
0.0412757 0.246815 0.399008
0.240543 0.259052 0.400366
0.384955 0.267918 0.405219
0.51223 0.27274 0.405921
0.619791 0.274006 0.405341
0.712261 0.271077 0.403235
0.807706 0.252567 0.388388
0.878599 0.203159 0.344564
0 0.335912 0.419913
0.0411994 0.346929 0.416098
0.17644 0.357916 0.405737
0.369085 0.367849 0.404608
0.506523 0.3729 0.402945
0.623377 0.375494 0.40145
0.71928 0.37467 0.398917
0.820874 0.359655 0.383474
0.898238 0.31487 0.337377
0 0.428992 0.431312
0.0413519 0.439643 0.42501
0.120729 0.450324 0.409476
0.347555 0.463142 0.402045
0.494789 0.471901 0.399466
0.627588 0.477317 0.399832
0.729503 0.480125 0.400061
0.837278 0.468559 0.388083
0.921096 0.423377 0.343542
0 0.512383 0.433371
0.0411536 0.526375 0.42594
0.0860761 0.543511 0.412116
0.321172 0.561532 0.402594
0.479026 0.577111 0.400336
0.625772 0.587945 0.398199
0.735683 0.592996 0.397253
0.847456 0.583246 0.383688
0.939681 0.533562 0.337194
0 0.589975 0.439948
0.0412604 0.607721 0.433951
0.0843671 0.630716 0.420294
0.294118 0.651286 0.407187
0.46714 0.668101 0.402411
0.618921 0.680446 0.395453
0.735805 0.688487 0.391897
0.852049 0.684688 0.378683
0.956481 0.646525 0.333135
0 0.65655 0.424781
0.0412757 0.673198 0.416938
0.0844129 0.698695 0.40264
0.181308 0.720974 0.384756
0.415778 0.743969 0.379263
0.585412 0.763485 0.373571
0.720043 0.780087 0.371862
0.850217 0.788724 0.36463
0.973465 0.768353 0.325933
0 0.687221 0.329946
0.0413519 0.698589 0.320623
0.0843061 0.720104 0.308049
0.127642 0.749493 0.296941
0.192645 0.778119 0.287373
0.429328 0.814404 0.280735
0.617441 0.848966 0.285069
0.802152 0.883604 0.287465
0.980606 0.901534 0.246067
0 0.0239719 0.438682
0.116121 0.0544594 0.447791
0.25478 0.0547951 0.45713
0.370657 0.0517281 0.466667
0.487495 0.0327611 0.474113
0.591852 0.0218814 0.481468
0.687495 0.00836194 0.48777
0.782361 0 0.484321
0.858351 0 0.457938
0 0.117449 0.461143
0.0651255 0.14522 0.467903
0.253986 0.153979 0.477348
0.380911 0.159792 0.487587
0.505089 0.161028 0.495247
0.611749 0.159136 0.500145
0.704417 0.15172 0.501884
0.794202 0.123232 0.49015
0.863783 0.0503548 0.451667
0 0.233539 0.489464
0.0412604 0.249348 0.493812
0.234897 0.263584 0.495705
0.379431 0.27219 0.504005
0.509575 0.275898 0.507286
0.619883 0.276555 0.507134
0.713115 0.273335 0.504784
0.809308 0.254047 0.489418
0.880629 0.203738 0.445167
0 0.33872 0.514076
0.0413367 0.351461 0.514061
0.167865 0.363485 0.505882
0.361334 0.373037 0.510842
0.502007 0.37789 0.511269
0.622339 0.379629 0.507012
0.719341 0.379034 0.503563
0.821927 0.363699 0.487953
0.899962 0.318776 0.442527
0 0.433982 0.527642
0.0413214 0.445731 0.524636
0.0991073 0.457038 0.512398
0.334188 0.469749 0.510597
0.48748 0.47863 0.510704
0.627909 0.483085 0.508385
0.729778 0.486137 0.508217
0.8383 0.473823 0.495811
0.922057 0.428595 0.452308
0 0.519921 0.531716
0.0413062 0.5346 0.527794
0.0843824 0.552224 0.517021
0.295064 0.569802 0.509438
0.464546 0.585702 0.508446
0.620661 0.595422 0.505638
0.733608 0.599893 0.506722
0.847196 0.589136 0.494697
0.939742 0.538323 0.449928
0 0.598001 0.538689
0.0411231 0.61619 0.535424
0.0843366 0.639826 0.525673
0.248432 0.659403 0.51339
0.449577 0.676448 0.510826
0.608804 0.68864 0.505058
0.730617 0.69662 0.503395
0.850278 0.692851 0.493706
0.956069 0.654047 0.452766
0 0.665965 0.524987
0.0414282 0.68275 0.519081
0.0843214 0.708644 0.509163
0.144167 0.731014 0.495125
0.389578 0.753445 0.491295
0.572457 0.773983 0.489479
0.713176 0.791226 0.490806
0.846738 0.800244 0.487678
0.972839 0.780789 0.457496
0 0.69926 0.432441
0.0412604 0.710872 0.425589
0.0844129 0.732372 0.416724
0.127687 0.761929 0.410986
0.17232 0.790936 0.408072
0.399771 0.827024 0.409613
0.610391 0.863432 0.424353
0.80029 0.898344 0.439475
0.979065 0.916793 0.428779
0 0.00854505 0.515801
0.113436 0.0408637 0.52549
0.255406 0.0426337 0.536965
0.371878 0.0342412 0.548074
0.49044 0.0249027 0.558297
0.595605 0.0077821 0.566888
0.691783 0.00462348 0.574456
0.786679 0 0.572198
0.862852 0 0.548699
0 0.107332 0.538994
0.0603189 0.144335 0.548714
0.253178 0.15462 0.560006
0.381216 0.16025 0.572519
0.505684 0.160998 0.581949
0.613321 0.157931 0.587945
0.705913 0.149706 0.590616
0.796002 0.117998 0.580255
0.867292 0.049424 0.546059
0 0.231113 0.571359
0.041413 0.251011 0.578439
0.230274 0.267094 0.58085
0.375723 0.275319 0.590707
0.505882 0.278645 0.596567
0.618891 0.278477 0.598703
0.712779 0.274784 0.59762
0.810086 0.254749 0.584634
0.882582 0.202564 0.542626
0 0.338598 0.597848
0.0412909 0.354131 0.601114
0.161425 0.367269 0.594339
0.35584 0.376638 0.600122
0.494041 0.381918 0.604776
0.619135 0.383429 0.60473
0.718196 0.38265 0.602823
0.821927 0.366491 0.588739
0.901427 0.32108 0.543999
0 0.435523 0.614862
0.0413825 0.448264 0.614664
0.0980697 0.461723 0.606622
0.328145 0.47422 0.607782
0.480385 0.483482 0.614145
0.624186 0.488151 0.615274
0.729183 0.491005 0.613703
0.838407 0.478157 0.6009
0.922652 0.431785 0.557031
0 0.524178 0.622278
0.0411841 0.539254 0.621851
0.0844282 0.558846 0.616693
0.274372 0.576562 0.612467
0.452888 0.592386 0.617761
0.613596 0.601526 0.61767
0.732036 0.604578 0.615625
0.84712 0.593027 0.603098
0.939544 0.542107 0.55848
0 0.604288 0.632197
0.0412451 0.622889 0.632227
0.0844282 0.647059 0.626963
0.222583 0.666209 0.617227
0.430991 0.682933 0.617716
0.595361 0.695583 0.614359
0.725185 0.703639 0.612436
0.848692 0.699168 0.604807
0.955505 0.659785 0.565423
0 0.673228 0.621561
0.0413367 0.690288 0.618402
0.0844892 0.716915 0.613046
0.134874 0.739712 0.602548
0.35848 0.761913 0.600595
0.556786 0.782712 0.601083
0.704601 0.800656 0.603952
0.84329 0.810422 0.604196
0.972015 0.791562 0.578149
0 0.710643 0.534707
0.0413519 0.72285 0.530312
0.0843214 0.745296 0.526635
0.127626 0.77557 0.525628
0.170932 0.804746 0.527169
0.361822 0.840406 0.53106
0.600443 0.877058 0.549401
0.797238 0.912459 0.569604
0.977081 0.931517 0.568261
0 0 0.595331
0.108888 0.0279088 0.60499
0.255573 0.0250553 0.618387
0.373373 0.0234684 0.630915
0.492515 0.0105592 0.641779
0.599634 0.00741588 0.651698
0.695506 0 0.658625
0.7906 0 0.657511
0.867231 0 0.634943
0 0.0882734 0.616602
0.056733 0.14078 0.62945
0.251957 0.15317 0.642252
0.380957 0.158663 0.656474
0.505516 0.158907 0.666651
0.613733 0.154818 0.672984
0.70631 0.145281 0.675822
0.79733 0.108675 0.666163
0.871046 0.0493324 0.63418
0 0.225772 0.651118
0.0415198 0.249256 0.659892
0.224292 0.268605 0.663676
0.37232 0.276555 0.674891
0.501991 0.279652 0.682094
0.616571 0.278737 0.68513
0.71162 0.275196 0.6851
0.809979 0.254643 0.673121
0.884215 0.200549 0.633478
0 0.337652 0.679332
0.0412146 0.353887 0.683452
0.150118 0.369085 0.678233
0.349615 0.378454 0.685222
0.487465 0.383963 0.691493
0.614725 0.385504 0.693706
0.715129 0.384924 0.693309
0.821164 0.368963 0.680232
0.902708 0.323125 0.638972
0 0.436271 0.696742
0.0413977 0.449424 0.698314
0.0978256 0.464103 0.692592
0.320516 0.476921 0.694865
0.474861 0.486275 0.702602
0.616724 0.491859 0.706828
0.725292 0.49482 0.707179
0.837324 0.481819 0.695476
0.923018 0.434974 0.654032
0 0.526848 0.705776
0.0412299 0.543236 0.707622
0.0843366 0.562814 0.704509
0.261448 0.581109 0.701869
0.449714 0.596124 0.710307
0.606653 0.605158 0.715557
0.727169 0.60798 0.714549
0.845548 0.595758 0.700191
0.939452 0.545083 0.658366
0 0.608301 0.716121
0.0413672 0.627359 0.718593
0.0843671 0.651637 0.715221
0.202045 0.671214 0.707637
0.419379 0.687541 0.71136
0.586282 0.70045 0.713726
0.71931 0.708797 0.713863
0.849546 0.703151 0.703731
0.955444 0.664012 0.667582
0 0.677989 0.706523
0.0412909 0.695888 0.706477
0.0843671 0.72253 0.70454
0.130709 0.746487 0.697337
0.333165 0.768872 0.697063
0.545022 0.790127 0.701106
0.695659 0.809033 0.704555
0.841733 0.819348 0.705531
0.971725 0.800443 0.685252
0 0.720104 0.629099
0.0412451 0.73228 0.626535
0.0844129 0.756069 0.626352
0.127718 0.787259 0.629053
0.170871 0.817319 0.633173
0.32134 0.85272 0.63975
0.59353 0.888991 0.660227
0.794507 0.924071 0.682826
0.975769 0.943511 0.687068
0 0 0.684138
0.0893873 0.0122072 0.692866
0.251789 0.0131228 0.70985
0.370367 0.00671397 0.723583
0.491356 7.62951e-05 0.735866
0.60029 0.00259403 0.746059
0.697093 0 0.753094
0.79411 0 0.75375
0.873503 0 0.738689
0 0.0575723 0.702892
0.0454414 0.129793 0.717952
0.245212 0.14876 0.734386
0.374884 0.154101 0.749416
0.500175 0.154086 0.760647
0.610269 0.148699 0.768139
0.7037 0.136965 0.770825
0.796979 0.0875563 0.764675
0.876158 0.0425879 0.741802
0 0.210712 0.736797
0.041413 0.239628 0.74931
0.205997 0.265888 0.756939
0.361624 0.273014 0.76997
0.491371 0.276204 0.778958
0.608804 0.274922 0.784054
0.705867 0.271199 0.785885
0.806973 0.249226 0.777829
0.885542 0.185077 0.745663
0 0.32668 0.766278
0.0412451 0.346303 0.774746
0.119539 0.365713 0.774258
0.334752 0.375814 0.783856
0.473548 0.381292 0.792355
0.603723 0.383154 0.79765
0.706706 0.382712 0.799405
0.816876 0.367315 0.790707
0.903075 0.319722 0.755474
0 0.429709 0.785443
0.0411688 0.443626 0.791684
0.0898146 0.461143 0.791745
0.299474 0.4748 0.795789
0.460166 0.484337 0.806043
0.603586 0.490333 0.81326
0.715236 0.493996 0.816541
0.831388 0.481498 0.808377
0.922301 0.434226 0.772122
0 0.52575 0.798657
0.0413519 0.541176 0.804456
0.0845808 0.562493 0.80676
0.228519 0.580911 0.805753
0.433585 0.594903 0.816205
0.592721 0.603815 0.82414
0.713863 0.608103 0.827619
0.836103 0.595895 0.818021
0.937636 0.545632 0.779202
0 0.608347 0.809583
0.0413367 0.627787 0.815412
0.0842603 0.652613 0.817487
0.14049 0.672084 0.813062
0.398718 0.688289 0.819242
0.575051 0.701015 0.826719
0.705684 0.709667 0.834012
0.841047 0.705669 0.827054
0.953552 0.666499 0.790158
0 0.679683 0.803494
0.0414282 0.698909 0.807691
0.0843671 0.726955 0.811002
0.127794 0.751446 0.808164
0.298207 0.773342 0.808957
0.53019 0.795102 0.817182
0.684153 0.814481 0.825833
0.834958 0.826581 0.828458
0.971389 0.807126 0.806165
0 0.729488 0.741848
0.0411841 0.743496 0.74284
0.0843671 0.767712 0.746029
0.127672 0.799573 0.751873
0.170993 0.830732 0.758618
0.306493 0.866697 0.766491
0.583963 0.901793 0.785748
0.785672 0.935775 0.804852
0.973495 0.955703 0.810788
0 0 0.770062
0.0470436 0.0662394 0.783017
0.236667 0.0844739 0.801007
0.360769 0.0903182 0.816907
0.485023 0.0894636 0.829526
0.59762 0.0840772 0.839384
0.694667 0.0659648 0.845319
0.794812 0.016083 0.847425
0.881682 0 0.841779
0 0.083299 0.786694
0.0413825 0.15024 0.805295
0.21677 0.182574 0.821134
0.359014 0.191165 0.837751
0.487297 0.195331 0.850126
0.603296 0.193271 0.858763
0.69987 0.18555 0.863615
0.799496 0.147799 0.861616
0.88191 0.0411383 0.848707
0 0.214771 0.816571
0.0412299 0.246433 0.831418
0.155627 0.277043 0.840772
0.337758 0.285985 0.85481
0.469444 0.290105 0.865827
0.593973 0.289158 0.874205
0.693782 0.284291 0.878309
0.801373 0.258106 0.87631
0.888334 0.178607 0.859831
0 0.32282 0.843793
0.0412451 0.34052 0.853971
0.0892958 0.36437 0.85948
0.302617 0.377493 0.86894
0.445991 0.383429 0.879896
0.58027 0.385565 0.888441
0.689708 0.385412 0.894316
0.805234 0.368002 0.893507
0.90248 0.312871 0.877104
0 0.420615 0.863828
0.0413062 0.433341 0.872663
0.0845197 0.452369 0.879149
0.253941 0.468757 0.88333
0.429999 0.478965 0.895308
0.578119 0.485878 0.905348
0.69604 0.490166 0.912688
0.816129 0.477714 0.912978
0.918853 0.42678 0.896941
0 0.513237 0.880751
0.0413519 0.528725 0.889158
0.0843671 0.551369 0.898299
0.182635 0.570275 0.899535
0.398398 0.584268 0.90956
0.564691 0.592508 0.919738
0.688869 0.597025 0.92639
0.817029 0.587091 0.927733
0.931243 0.536477 0.912367
0 0.601312 0.895186
0.0413367 0.617044 0.903639
0.0845502 0.641566 0.912718
0.129366 0.661906 0.914015
0.354055 0.678004 0.91957
0.543877 0.690379 0.930449
0.680964 0.699565 0.938735
0.818586 0.69865 0.942672
0.945281 0.659281 0.929961
0 0.676753 0.899931
0.0412299 0.691951 0.908324
0.0844282 0.719326 0.919051
0.12755 0.7449 0.922835
0.233951 0.767376 0.925216
0.495872 0.789014 0.936095
0.663035 0.808637 0.947478
0.814771 0.821897 0.957305
0.963317 0.80557 0.953353
0 0.736553 0.87866
0.0411841 0.749599 0.884642
0.0843671 0.774182 0.894743
0.127687 0.807401 0.90634
0.171008 0.839536 0.914855
0.218173 0.876066 0.921767
0.554818 0.911513 0.938262
0.769741 0.945495 0.956634
0.96582 0.966278 0.964904
