assets/luts/FILM2.CUBE
TITLE "KDX - Rec.709_32"
LUT_3D_SIZE 32
0.0000 0.0118 0.0332
0.0002 0.0236 0.0333
0.0412 0.0281 0.0331
0.0782 0.0340 0.0352
0.1154 0.0438 0.0406
0.1503 0.0531 0.0453
0.1790 0.0578 0.0479
0.2086 0.0639 0.0504
0.2375 0.0711 0.0526
0.2694 0.0775 0.0593
0.2953 0.0837 0.0605
0.3219 0.0901 0.0634
0.3498 0.0993 0.0665
0.3722 0.1051 0.0706
0.3966 0.1112 0.0754
0.4200 0.1187 0.0783
0.4441 0.1247 0.0829
0.4693 0.1303 0.0888
0.4965 0.1377 0.0935
0.5215 0.1434 0.0992
0.5460 0.1497 0.1039
0.5724 0.1563 0.1091
0.5983 0.1628 0.1143
0.6186 0.1695 0.1162
0.6446 0.1775 0.1198
0.6680 0.1849 0.1226
0.6881 0.1918 0.1245
0.7070 0.1969 0.1278
0.7253 0.2020 0.1309
0.7480 0.2093 0.1335
0.7725 0.2155 0.1382
0.7954 0.2230 0.1407
0.0000 0.0399 0.0331
0.0000 0.0438 0.0294
0.0429 0.0396 0.0294
0.0832 0.0443 0.0324
0.1186 0.0508 0.0376
0.1489 0.0570 0.0428
0.1802 0.0617 0.0486
0.2129 0.0662 0.0507
0.2365 0.0700 0.0533
0.2664 0.0771 0.0586
0.2973 0.0834 0.0621
0.3240 0.0902 0.0645
0.3482 0.0968 0.0685
0.3716 0.1042 0.0713
0.3985 0.1117 0.0758
0.4221 0.1191 0.0787
0.4448 0.1257 0.0823
0.4724 0.1325 0.0878
0.4984 0.1397 0.0922
0.5253 0.1472 0.0967
0.5507 0.1550 0.1000
0.5803 0.1637 0.1044
0.6038 0.1713 0.1072
0.6275 0.1790 0.1101
0.6527 0.1858 0.1144
0.6734 0.1925 0.1169
0.6924 0.1979 0.1199
0.7144 0.2050 0.1228
0.7332 0.2100 0.1259
0.7559 0.2176 0.1284
0.7757 0.2213 0.1337
0.7984 0.2286 0.1363
0.0000 0.0639 0.0294
0.0000 0.0718 0.0254
0.0230 0.0674 0.0258
0.0856 0.0595 0.0262
0.1284 0.0597 0.0262
0.1630 0.0652 0.0324
0.1878 0.0732 0.0355
0.2163 0.0790 0.0411
0.2419 0.0823 0.0471
0.2728 0.0882 0.0511
0.3007 0.0921 0.0557
0.3290 0.0983 0.0581
0.3548 0.1057 0.0621
0.3805 0.1138 0.0656
0.4049 0.1197 0.0704
0.4280 0.1264 0.0739
0.4544 0.1345 0.0776
0.4803 0.1409 0.0826
0.5065 0.1491 0.0862
0.5326 0.1572 0.0897
0.5607 0.1658 0.0937
0.5880 0.1742 0.0973
0.6127 0.1822 0.1005
0.6378 0.1883 0.1054
0.6582 0.1957 0.1072
0.6789 0.2031 0.1092
0.7005 0.2085 0.1133
0.7191 0.2136 0.1163
0.7406 0.2192 0.1205
0.7617 0.2246 0.1245
0.7835 0.2303 0.1283
0.8016 0.2350 0.1316
0.0000 0.0880 0.0289
0.0000 0.0959 0.0178
0.0305 0.0917 0.0219
0.0683 0.0840 0.0256
0.1295 0.0791 0.0207
0.1701 0.0790 0.0235
0.1998 0.0837 0.0281
0.2309 0.0862 0.0341
0.2556 0.0935 0.0367
0.2840 0.0969 0.0446
0.3088 0.1044 0.0473
0.3352 0.1103 0.0503
0.3611 0.1181 0.0541
0.3853 0.1247 0.0581
0.4120 0.1319 0.0626
0.4368 0.1396 0.0660
0.4634 0.1472 0.0702
0.4874 0.1541 0.0740
0.5131 0.1610 0.0784
0.5425 0.1698 0.0828
0.5689 0.1784 0.0861
0.5963 0.1867 0.0899
0.6198 0.1948 0.0927
0.6436 0.2003 0.0973
0.6636 0.2063 0.1003
0.6857 0.2118 0.1045
0.7082 0.2188 0.1076
0.7293 0.2243 0.1114
0.7483 0.2294 0.1146
0.7663 0.2341 0.1179
0.7875 0.2397 0.1215
0.8098 0.2473 0.1240
0.0000 0.1120 0.0181
0.0000 0.1234 0.0138
0.0363 0.1158 0.0145
0.0794 0.1078 0.0221
0.1140 0.1076 0.0216
0.1662 0.0991 0.0197
0.1975 0.0954 0.0205
0.2343 0.0985 0.0238
0.2662 0.1032 0.0308
0.2895 0.1084 0.0352
0.3149 0.1134 0.0406
0.3448 0.1220 0.0452
0.3702 0.1280 0.0500
0.3949 0.1366 0.0526
0.4197 0.1435 0.0566
0.4429 0.1525 0.0584
0.4675 0.1597 0.0621
0.4955 0.1671 0.0669
0.5233 0.1755 0.0710
0.5507 0.1843 0.0745
0.5768 0.1923 0.0782
0.6023 0.2006 0.0813
0.6259 0.2063 0.0858
0.6491 0.2144 0.0885
0.6717 0.2202 0.0924
0.6944 0.2274 0.0954
0.7185 0.2329 0.1003
0.7392 0.2357 0.1059
0.7590 0.2406 0.1097
0.7803 0.2457 0.1137
0.7957 0.2502 0.1160
0.8167 0.2581 0.1179
0.0000 0.1349 0.0174
0.0000 0.1395 0.0105
0.0367 0.1392 0.0107
0.0851 0.1312 0.0180
0.1197 0.1237 0.0256
0.1566 0.1278 0.0204
0.2016 0.1183 0.0202
0.2390 0.1145 0.0211
0.2681 0.1147 0.0251
0.2962 0.1161 0.0325
0.3296 0.1247 0.0379
0.3542 0.1317 0.0416
0.3811 0.1381 0.0466
0.4032 0.1453 0.0493
0.4284 0.1534 0.0526
0.4532 0.1610 0.0560
0.4797 0.1684 0.0602
0.5057 0.1782 0.0627
0.5319 0.1863 0.0662
0.5564 0.1959 0.0681
0.5840 0.2074 0.0699
0.6090 0.2137 0.0742
0.6327 0.2213 0.0775
0.6565 0.2295 0.0801
0.6817 0.2361 0.0844
0.7033 0.2408 0.0887
0.7272 0.2455 0.0940
0.7515 0.2484 0.1008
0.7736 0.2550 0.1039
0.7934 0.2577 0.1093
0.8087 0.2627 0.1112
0.8246 0.2701 0.1116
0.0000 0.1523 0.0135
0.0005 0.1517 0.0105
0.0376 0.1555 0.0105
0.0868 0.1519 0.0143
0.1291 0.1436 0.0215
0.1580 0.1443 0.0189
0.1979 0.1466 0.0188
0.2394 0.1372 0.0244
0.2732 0.1342 0.0236
0.3006 0.1304 0.0266
0.3315 0.1328 0.0336
0.3611 0.1400 0.0386
0.3869 0.1483 0.0418
0.4137 0.1540 0.0471
0.4385 0.1633 0.0494
0.4639 0.1698 0.0538
0.4920 0.1790 0.0572
0.5168 0.1865 0.0607
0.5431 0.1967 0.0629
0.5680 0.2058 0.0654
0.5951 0.2168 0.0673
0.6194 0.2283 0.0679
0.6427 0.2366 0.0704
0.6667 0.2464 0.0722
0.6911 0.2537 0.0756
0.7175 0.2576 0.0820
0.7421 0.2621 0.0881
0.7636 0.2648 0.0965
0.7826 0.2686 0.1008
0.8033 0.2723 0.1058
0.8248 0.2757 0.1079
0.8380 0.2821 0.1077
0.0000 0.1677 0.0106
0.0005 0.1669 0.0106
0.0442 0.1716 0.0105
0.0926 0.1712 0.0109
0.1301 0.1632 0.0185
0.1680 0.1603 0.0215
0.2041 0.1638 0.0196
0.2396 0.1662 0.0229
0.2767 0.1540 0.0267
0.3065 0.1499 0.0258
0.3365 0.1500 0.0279
0.3667 0.1519 0.0338
0.3945 0.1557 0.0398
0.4245 0.1675 0.0422
0.4528 0.1724 0.0483
0.4765 0.1806 0.0509
0.5037 0.1890 0.0546
0.5299 0.1979 0.0576
0.5563 0.2074 0.0603
0.5806 0.2178 0.0618
0.6069 0.2287 0.0635
0.6297 0.2383 0.0651
0.6547 0.2467 0.0679
0.6759 0.2562 0.0690
0.6987 0.2643 0.0714
0.7272 0.2709 0.0765
0.7494 0.2749 0.0821
0.7704 0.2813 0.0901
0.7895 0.2889 0.0954
0.8098 0.2913 0.1017
0.8312 0.2932 0.1042
0.8533 0.2965 0.1036
0.0000 0.1798 0.0106
0.0026 0.1788 0.0106
0.0497 0.1800 0.0105
0.0969 0.1837 0.0105
0.1360 0.1798 0.0148
0.1724 0.1764 0.0208
0.2176 0.1832 0.0166
0.2502 0.1874 0.0219
0.2769 0.1819 0.0256
0.3112 0.1698 0.0284
0.3415 0.1697 0.0283
0.3682 0.1671 0.0295
0.4007 0.1700 0.0345
0.4300 0.1754 0.0397
0.4560 0.1824 0.0435
0.4848 0.1915 0.0471
0.5133 0.2007 0.0506
0.5400 0.2113 0.0527
0.5687 0.2216 0.0557
0.5899 0.2322 0.0562
0.6173 0.2418 0.0591
0.6420 0.2499 0.0620
0.6654 0.2591 0.0639
0.6873 0.2680 0.0656
0.7095 0.2754 0.0682
0.7372 0.2809 0.0736
0.7598 0.2860 0.0802
0.7801 0.2939 0.0878
0.7980 0.2990 0.0937
0.8185 0.3035 0.0987
0.8369 0.3088 0.1007
0.8602 0.3128 0.0998
0.0000 0.1919 0.0105
0.0103 0.1919 0.0104
0.0555 0.1949 0.0105
0.1020 0.1986 0.0105
0.1412 0.2025 0.0105
0.1811 0.1958 0.0175
0.2128 0.1976 0.0179
0.2606 0.2039 0.0214
0.2920 0.2149 0.0257
0.3148 0.2069 0.0284
0.3460 0.1919 0.0316
0.3741 0.1919 0.0310
0.4030 0.1920 0.0322
0.4328 0.1946 0.0341
0.4599 0.1975 0.0378
0.4900 0.2026 0.0429
0.5193 0.2136 0.0456
0.5489 0.2236 0.0488
0.5787 0.2356 0.0511
0.6027 0.2449 0.0531
0.6285 0.2541 0.0558
0.6525 0.2633 0.0578
0.6732 0.2713 0.0595
0.6972 0.2810 0.0615
0.7199 0.2864 0.0652
0.7497 0.2923 0.0709
0.7696 0.2978 0.0790
0.7878 0.3054 0.0840
0.8049 0.3092 0.0897
0.8260 0.3141 0.0958
0.8466 0.3192 0.0972
0.8685 0.3223 0.0964
0.0000 0.2066 0.0105
0.0226 0.2068 0.0105
0.0635 0.2107 0.0105
0.1042 0.2119 0.0105
0.1465 0.2132 0.0105
0.1877 0.2159 0.0111
0.2216 0.2171 0.0139
0.2602 0.2277 0.0171
0.2981 0.2314 0.0240
0.3326 0.2425 0.0282
0.3536 0.2320 0.0319
0.3813 0.2185 0.0345
0.4128 0.2181 0.0341
0.4409 0.2161 0.0351
0.4680 0.2195 0.0365
0.4959 0.2228 0.0383
0.5267 0.2271 0.0421
0.5557 0.2376 0.0446
0.5860 0.2495 0.0471
0.6125 0.2588 0.0497
0.6387 0.2680 0.0521
0.6622 0.2786 0.0536
0.6854 0.2867 0.0560
0.7083 0.2934 0.0587
0.7330 0.2997 0.0623
0.7570 0.3048 0.0692
0.7771 0.3120 0.0754
0.7978 0.3172 0.0831
0.8183 0.3208 0.0899
0.8367 0.3262 0.0925
0.8557 0.3297 0.0905
0.8808 0.3329 0.0929
0.0000 0.2201 0.0104
0.0314 0.2201 0.0105
0.0731 0.2240 0.0105
0.1099 0.2244 0.0105
0.1528 0.2279 0.0105
0.1879 0.2351 0.0105
0.2264 0.2380 0.0105
0.2568 0.2419 0.0121
0.3024 0.2520 0.0211
0.3346 0.2593 0.0263
0.3697 0.2680 0.0310
0.3901 0.2585 0.0340
0.4157 0.2463 0.0374
0.4453 0.2422 0.0369
0.4761 0.2461 0.0384
0.5034 0.2440 0.0394
0.5327 0.2499 0.0410
0.5601 0.2544 0.0426
0.5892 0.2625 0.0448
0.6170 0.2728 0.0470
0.6446 0.2821 0.0493
0.6719 0.2928 0.0515
0.6952 0.3008 0.0534
0.7168 0.3073 0.0558
0.7444 0.3143 0.0591
0.7668 0.3189 0.0668
0.7873 0.3257 0.0755
0.8058 0.3281 0.0819
0.8251 0.3311 0.0860
0.8454 0.3357 0.0895
0.8653 0.3409 0.0869
0.8898 0.3449 0.0855
0.0028 0.2322 0.0106
0.0360 0.2361 0.0105
0.0775 0.2364 0.0105
0.1209 0.2405 0.0105
0.1582 0.2445 0.0105
0.1968 0.2520 0.0105
0.2311 0.2566 0.0105
0.2626 0.2615 0.0112
0.3026 0.2693 0.0169
0.3405 0.2772 0.0244
0.3692 0.2833 0.0295
0.4088 0.2985 0.0335
0.4248 0.2865 0.0371
0.4514 0.2718 0.0403
0.4853 0.2714 0.0404
0.5133 0.2712 0.0415
0.5398 0.2758 0.0428
0.5691 0.2776 0.0442
0.5955 0.2854 0.0457
0.6224 0.2902 0.0472
0.6503 0.2950 0.0487
0.6758 0.3059 0.0505
0.7002 0.3138 0.0523
0.7257 0.3219 0.0543
0.7489 0.3267 0.0567
0.7779 0.3326 0.0619
0.7964 0.3385 0.0701
0.8159 0.3431 0.0778
0.8351 0.3460 0.0827
0.8557 0.3485 0.0868
0.8757 0.3507 0.0846
0.8991 0.3546 0.0823
0.0116 0.2459 0.0105
0.0486 0.2482 0.0105
0.0874 0.2525 0.0105
0.1316 0.2560 0.0105
0.1699 0.2629 0.0105
0.2029 0.2686 0.0105
0.2416 0.2736 0.0105
0.2745 0.2797 0.0105
0.3045 0.2885 0.0131
0.3471 0.2976 0.0214
0.3805 0.3071 0.0271
0.4055 0.3087 0.0317
0.4417 0.3321 0.0353
0.4604 0.3159 0.0395
0.4892 0.2998 0.0440
0.5179 0.3012 0.0435
0.5466 0.3015 0.0448
0.5764 0.3036 0.0461
0.6041 0.3092 0.0476
0.6304 0.3130 0.0489
0.6566 0.3155 0.0501
0.6813 0.3220 0.0516
0.7067 0.3269 0.0529
0.7316 0.3352 0.0545
0.7515 0.3424 0.0558
0.7823 0.3479 0.0581
0.8063 0.3516 0.0633
0.8250 0.3560 0.0712
0.8461 0.3571 0.0762
0.8673 0.3614 0.0784
0.8858 0.3634 0.0786
0.9084 0.3673 0.0775
0.0248 0.2603 0.0105
0.0599 0.2605 0.0105
0.1009 0.2658 0.0105
0.1419 0.2690 0.0105
0.1786 0.2766 0.0105
0.2129 0.2846 0.0105
0.2465 0.2908 0.0105
0.2794 0.2967 0.0105
0.3115 0.3047 0.0144
0.3453 0.3135 0.0166
0.3855 0.3239 0.0253
0.4206 0.3330 0.0306
0.4423 0.3422 0.0333
0.4837 0.3615 0.0385
0.4981 0.3479 0.0412
0.5265 0.3315 0.0463
0.5584 0.3294 0.0475
0.5870 0.3315 0.0483
0.6143 0.3353 0.0496
0.6392 0.3373 0.0508
0.6651 0.3408 0.0520
0.6905 0.3435 0.0533
0.7122 0.3475 0.0544
0.7339 0.3496 0.0555
0.7565 0.3559 0.0568
0.7847 0.3654 0.0585
0.8087 0.3677 0.0614
0.8339 0.3686 0.0653
0.8559 0.3708 0.0686
0.8765 0.3745 0.0685
0.8945 0.3746 0.0710
0.9128 0.3810 0.0728
0.0475 0.2724 0.0105
0.0807 0.2764 0.0105
0.1176 0.2803 0.0105
0.1575 0.2843 0.0105
0.1906 0.2926 0.0105
0.2233 0.2974 0.0105
0.2521 0.3068 0.0105
0.2887 0.3128 0.0125
0.3162 0.3207 0.0125
0.3518 0.3304 0.0135
0.3861 0.3438 0.0205
0.4228 0.3530 0.0278
0.4586 0.3627 0.0338
0.4798 0.3727 0.0363
0.5185 0.3941 0.0394
0.5351 0.3798 0.0442
0.5668 0.3631 0.0509
0.5928 0.3631 0.0512
0.6224 0.3634 0.0523
0.6478 0.3643 0.0529
0.6737 0.3646 0.0539
0.6966 0.3686 0.0551
0.7204 0.3714 0.0562
0.7421 0.3752 0.0573
0.7632 0.3754 0.0582
0.7859 0.3782 0.0594
0.8110 0.3822 0.0607
0.8395 0.3854 0.0626
0.8587 0.3879 0.0635
0.8792 0.3897 0.0649
0.8968 0.3900 0.0671
0.9200 0.3922 0.0705
0.0692 0.2866 0.0105
0.0956 0.2847 0.0105
0.1338 0.2906 0.0105
0.1683 0.2986 0.0105
0.1963 0.3043 0.0105
0.2324 0.3128 0.0105
0.2625 0.3208 0.0105
0.2943 0.3289 0.0123
0.3286 0.3370 0.0105
0.3564 0.3448 0.0111
0.3884 0.3579 0.0162
0.4276 0.3702 0.0259
0.4605 0.3817 0.0299
0.4929 0.3931 0.0346
0.5204 0.4122 0.0384
0.5572 0.4304 0.0418
0.5737 0.4142 0.0472
0.6012 0.3974 0.0532
0.6307 0.3951 0.0550
0.6583 0.3951 0.0560
0.6843 0.3951 0.0562
0.7072 0.3964 0.0573
0.7292 0.3992 0.0584
0.7507 0.3993 0.0592
0.7720 0.4011 0.0602
0.7935 0.4002 0.0610
0.8107 0.3982 0.0616
0.8394 0.4007 0.0630
0.8584 0.4035 0.0639
0.8772 0.4034 0.0648
0.9044 0.4039 0.0665
0.9243 0.4017 0.0691
0.0866 0.3046 0.0105
0.1176 0.3026 0.0105
0.1473 0.3067 0.0105
0.1802 0.3124 0.0105
0.2107 0.3187 0.0105
0.2440 0.3268 0.0105
0.2747 0.3348 0.0105
0.3034 0.3450 0.0105
0.3341 0.3531 0.0122
0.3640 0.3638 0.0115
0.3925 0.3742 0.0125
0.4314 0.3866 0.0206
0.4652 0.4033 0.0256
0.5003 0.4135 0.0321
0.5265 0.4270 0.0369
0.5594 0.4486 0.0382
0.5901 0.4689 0.0418
0.6118 0.4522 0.0473
0.6407 0.4334 0.0558
0.6677 0.4311 0.0570
0.6931 0.4281 0.0578
0.7143 0.4287 0.0591
0.7368 0.4286 0.0604
0.7590 0.4271 0.0614
0.7793 0.4269 0.0622
0.8010 0.4249 0.0628
0.8209 0.4240 0.0636
0.8391 0.4200 0.0641
0.8605 0.4213 0.0651
0.8847 0.4179 0.0660
0.9100 0.4176 0.0670
0.9248 0.4178 0.0678
0.0980 0.3247 0.0105
0.1279 0.3230 0.0105
0.1575 0.3272 0.0105
0.1887 0.3348 0.0105
0.2226 0.3393 0.0105
0.2513 0.3467 0.0105
0.2841 0.3514 0.0105
0.3117 0.3588 0.0118
0.3399 0.3691 0.0117
0.3698 0.3782 0.0116
0.4021 0.3902 0.0111
0.4307 0.4034 0.0150
0.4680 0.4195 0.0235
0.5028 0.4336 0.0280
0.5388 0.4493 0.0334
0.5625 0.4596 0.0367
0.5958 0.4903 0.0387
0.6276 0.5072 0.0423
0.6492 0.4864 0.0500
0.6759 0.4710 0.0566
0.6967 0.4652 0.0594
0.7230 0.4628 0.0612
0.7482 0.4617 0.0624
0.7675 0.4581 0.0632
0.7890 0.4552 0.0642
0.8087 0.4542 0.0651
0.8302 0.4519 0.0658
0.8477 0.4467 0.0662
0.8703 0.4401 0.0667
0.8936 0.4362 0.0674
0.9170 0.4337 0.0683
0.9248 0.4334 0.0686
0.1038 0.3471 0.0105
0.1332 0.3471 0.0105
0.1650 0.3513 0.0105
0.1985 0.3554 0.0105
0.2323 0.3633 0.0110
0.2615 0.3683 0.0128
0.2904 0.3722 0.0166
0.3180 0.3746 0.0166
0.3477 0.3836 0.0166
0.3755 0.3970 0.0117
0.4046 0.4074 0.0120
0.4361 0.4194 0.0121
0.4673 0.4358 0.0164
0.5047 0.4524 0.0240
0.5408 0.4696 0.0289
0.5756 0.4877 0.0337
0.5933 0.4959 0.0367
0.6318 0.5305 0.0374
0.6614 0.5476 0.0415
0.6805 0.5289 0.0494
0.7107 0.5097 0.0590
0.7298 0.4974 0.0623
0.7529 0.4958 0.0634
0.7730 0.4913 0.0652
0.8007 0.4870 0.0660
0.8190 0.4829 0.0670
0.8406 0.4795 0.0680
0.8580 0.4750 0.0684
0.8793 0.4671 0.0688
0.9014 0.4640 0.0694
0.9243 0.4547 0.0698
0.9248 0.4496 0.0695
0.1077 0.3736 0.0105
0.1416 0.3736 0.0105
0.1729 0.3750 0.0129
0.2054 0.3782 0.0133
0.2419 0.3824 0.0167
0.2710 0.3844 0.0211
0.2988 0.3869 0.0243
0.3280 0.3892 0.0251
0.3565 0.3982 0.0243
0.3830 0.4117 0.0204
0.4146 0.4252 0.0155
0.4419 0.4384 0.0118
0.4711 0.4515 0.0127
0.5073 0.4687 0.0205
0.5432 0.4898 0.0236
0.5776 0.5077 0.0294
0.6117 0.5238 0.0342
0.6300 0.5361 0.0357
0.6687 0.5737 0.0374
0.6925 0.5879 0.0401
0.7140 0.5695 0.0492
0.7393 0.5471 0.0576
0.7630 0.5334 0.0639
0.7840 0.5276 0.0653
0.8053 0.5224 0.0676
0.8270 0.5154 0.0693
0.8466 0.5098 0.0695
0.8688 0.5023 0.0705
0.8903 0.4956 0.0710
0.9119 0.4878 0.0714
0.9248 0.4800 0.0714
0.9248 0.4757 0.0711
0.1148 0.3872 0.0168
0.1474 0.3873 0.0169
0.1830 0.3886 0.0206
0.2167 0.3902 0.0235
0.2482 0.3925 0.0282
0.2820 0.3970 0.0288
0.3071 0.4023 0.0345
0.3344 0.4053 0.0345
0.3610 0.4133 0.0362
0.3917 0.4253 0.0320
0.4219 0.4386 0.0282
0.4502 0.4533 0.0192
0.4768 0.4694 0.0139
0.5097 0.4853 0.0140
0.5442 0.5080 0.0187
0.5805 0.5269 0.0237
0.6136 0.5457 0.0299
0.6424 0.5644 0.0328
0.6650 0.5794 0.0340
0.6975 0.6155 0.0331
0.7211 0.6244 0.0378
0.7440 0.6073 0.0483
0.7716 0.5859 0.0580
0.7915 0.5702 0.0646
0.8124 0.5585 0.0682
0.8350 0.5540 0.0697
0.8574 0.5454 0.0714
0.8793 0.5344 0.0721
0.9008 0.5257 0.0731
0.9230 0.5181 0.0739
0.9248 0.5091 0.0733
0.9248 0.5035 0.0729
0.1294 0.3978 0.0283
0.1613 0.3979 0.0283
0.1903 0.4017 0.0323
0.2246 0.4047 0.0348
0.2567 0.4052 0.0413
0.2888 0.4098 0.0463
0.3185 0.4144 0.0463
0.3433 0.4206 0.0492
0.3700 0.4255 0.0512
0.3993 0.4414 0.0490
0.4290 0.4547 0.0450
0.4585 0.4707 0.0348
0.4852 0.4840 0.0283
0.5145 0.5007 0.0197
0.5476 0.5201 0.0155
0.5828 0.5410 0.0196
0.6160 0.5650 0.0245
0.6492 0.5863 0.0280
0.6761 0.6046 0.0297
0.6927 0.6197 0.0302
0.7307 0.6556 0.0328
0.7503 0.6623 0.0363
0.7723 0.6415 0.0466
0.8002 0.6226 0.0562
0.8237 0.6019 0.0660
0.8424 0.5910 0.0697
0.8648 0.5819 0.0724
0.8904 0.5700 0.0741
0.9124 0.5583 0.0748
0.9251 0.5464 0.0753
0.9253 0.5381 0.0750
0.9253 0.5352 0.0748
0.1432 0.4059 0.0426
0.1729 0.4099 0.0426
0.2022 0.4102 0.0439
0.2354 0.4142 0.0465
0.2661 0.4177 0.0495
0.2954 0.4215 0.0535
0.3245 0.4287 0.0580
0.3522 0.4345 0.0627
0.3787 0.4434 0.0638
0.4061 0.4529 0.0628
0.4329 0.4691 0.0580
0.4648 0.4868 0.0528
0.4910 0.5017 0.0450
0.5209 0.5147 0.0347
0.5509 0.5362 0.0216
0.5878 0.5603 0.0155
0.6188 0.5815 0.0199
0.6516 0.6041 0.0220
0.6813 0.6257 0.0245
0.7027 0.6386 0.0276
0.7241 0.6603 0.0287
0.7553 0.6934 0.0265
0.7708 0.6942 0.0322
0.7944 0.6775 0.0434
0.8264 0.6520 0.0575
0.8477 0.6281 0.0668
0.8728 0.6153 0.0717
0.8951 0.6029 0.0739
0.9209 0.5913 0.0754
0.9253 0.5796 0.0759
0.9253 0.5703 0.0758
0.9253 0.5673 0.0758
0.1576 0.4178 0.0514
0.1867 0.4178 0.0516
0.2129 0.4220 0.0545
0.2468 0.4223 0.0586
0.2749 0.4290 0.0626
0.3044 0.4337 0.0698
0.3344 0.4415 0.0706
0.3620 0.4456 0.0744
0.3874 0.4567 0.0775
0.4135 0.4656 0.0775
0.4432 0.4828 0.0744
0.4700 0.4989 0.0698
0.5019 0.5149 0.0644
0.5292 0.5347 0.0512
0.5590 0.5535 0.0425
0.5890 0.5726 0.0185
0.6219 0.5944 0.0165
0.6555 0.6197 0.0179
0.6846 0.6404 0.0221
0.7119 0.6625 0.0221
0.7264 0.6747 0.0236
0.7505 0.7002 0.0226
0.7754 0.7245 0.0232
0.7974 0.7230 0.0326
0.8198 0.7060 0.0441
0.8535 0.6779 0.0585
0.8775 0.6524 0.0686
0.9034 0.6395 0.0737
0.9193 0.6276 0.0763
0.9229 0.6155 0.0759
0.9224 0.6100 0.0762
0.9258 0.6016 0.0766
0.1719 0.4570 0.0461
0.1934 0.4545 0.0461
0.2268 0.4547 0.0500
0.2565 0.4617 0.0530
0.2878 0.4661 0.0582
0.3164 0.4735 0.0621
0.3433 0.4782 0.0660
0.3734 0.4863 0.0722
0.3996 0.4942 0.0730
0.4265 0.5024 0.0761
0.4537 0.5131 0.0753
0.4813 0.5322 0.0715
0.5102 0.5485 0.0661
0.5387 0.5651 0.0569
0.5649 0.5813 0.0468
0.5913 0.6013 0.0326
0.6230 0.6187 0.0154
0.6536 0.6408 0.0125
0.6856 0.6641 0.0132
0.7143 0.6825 0.0157
0.7372 0.7022 0.0175
0.7491 0.7103 0.0203
0.7742 0.7338 0.0206
0.7984 0.7525 0.0213
0.8170 0.7509 0.0296
0.8448 0.7280 0.0440
0.8813 0.7014 0.0604
0.9066 0.6728 0.0707
0.9193 0.6599 0.0740
0.9161 0.6510 0.0744
0.9196 0.6435 0.0752
0.9228 0.6356 0.0750
0.1921 0.5092 0.0268
0.2169 0.5030 0.0306
0.2454 0.5062 0.0315
0.2738 0.5131 0.0354
0.3011 0.5171 0.0421
0.3307 0.5248 0.0491
0.3602 0.5270 0.0511
0.3866 0.5366 0.0606
0.4143 0.5448 0.0654
0.4413 0.5505 0.0682
0.4649 0.5584 0.0721
0.4910 0.5743 0.0715
0.5198 0.5872 0.0644
0.5470 0.6029 0.0536
0.5719 0.6207 0.0418
0.6032 0.6349 0.0276
0.6276 0.6495 0.0129
0.6557 0.6663 0.0126
0.6826 0.6845 0.0137
0.7119 0.7043 0.0111
0.7372 0.7186 0.0115
0.7575 0.7352 0.0128
0.7715 0.7397 0.0154
0.7971 0.7664 0.0169
0.8229 0.7796 0.0213
0.8388 0.7759 0.0284
0.8650 0.7516 0.0435
0.9112 0.7256 0.0619
0.9194 0.6969 0.0698
0.9191 0.6886 0.0708
0.9193 0.6767 0.0723
0.9159 0.6643 0.0731
0.2299 0.5477 0.0110
0.2445 0.5480 0.0115
0.2680 0.5587 0.0120
0.2884 0.5652 0.0157
0.3193 0.5702 0.0195
0.3470 0.5777 0.0266
0.3736 0.5818 0.0321
0.4004 0.5901 0.0393
0.4263 0.5980 0.0490
0.4540 0.6060 0.0500
0.4778 0.6118 0.0572
0.5005 0.6185 0.0610
0.5267 0.6307 0.0533
0.5510 0.6442 0.0458
0.5810 0.6568 0.0325
0.6057 0.6712 0.0192
0.6344 0.6836 0.0110
0.6592 0.6976 0.0105
0.6860 0.7116 0.0110
0.7095 0.7264 0.0120
0.7358 0.7389 0.0138
0.7595 0.7556 0.0131
0.7802 0.7646 0.0108
0.7935 0.7741 0.0117
0.8168 0.7915 0.0128
0.8453 0.8042 0.0187
0.8616 0.7964 0.0295
0.8936 0.7744 0.0453
0.9268 0.7498 0.0595
0.9235 0.7252 0.0647
0.9199 0.7130 0.0673
0.9194 0.7001 0.0692
0.2591 0.5599 0.0105
0.2734 0.5604 0.0105
0.2929 0.5650 0.0105
0.3149 0.5738 0.0105
