assets/luts/FILM2.CUBE
TITLE "KDX - Rec.709_32"
LUT_3D_SIZE 5
DOMAIN_MIN 0.000000 0.000000 0.000000
DOMAIN_MAX 0.903226 0.903226 0.903226
0.0000 0.0118 0.0332
0.2086 0.0639 0.0504
0.3966 0.1112 0.0754
0.5724 0.1563 0.1091
0.7253 0.2020 0.1309
0.0000 0.1677 0.0106
0.2396 0.1662 0.0229
0.4528 0.1724 0.0483
0.6297 0.2383 0.0651
0.7895 0.2889 0.0954
0.0248 0.2603 0.0105
0.2794 0.2967 0.0105
0.4981 0.3479 0.0412
0.6905 0.3435 0.0533
0.8559 0.3708 0.0686
0.1148 0.3872 0.0168
0.3344 0.4053 0.0345
0.5442 0.5080 0.0187
0.7440 0.6073 0.0483
0.9008 0.5257 0.0731
0.2591 0.5599 0.0105
0.4099 0.6435 0.0120
0.5856 0.6969 0.0157
0.7560 0.7750 0.0105
0.9229 0.7956 0.0491
0.0000 0.1083 0.1421
0.2898 0.1151 0.1432
0.4620 0.1556 0.1584
0.6231 0.1894 0.1719
0.7603 0.2218 0.1877
0.0000 0.1677 0.1635
0.1969 0.2011 0.2072
0.4388 0.2292 0.2060
0.6280 0.2483 0.2081
0.7806 0.2817 0.2163
0.0000 0.2997 0.1712
0.1438 0.3521 0.1098
0.4942 0.3883 0.1181
0.6984 0.3898 0.1512
0.8412 0.4262 0.1851
0.0000 0.3434 0.1711
0.2076 0.4421 0.1282
0.5192 0.5264 0.1629
0.7364 0.6332 0.0864
0.9228 0.5475 0.0965
0.0000 0.5245 0.0758
0.3279 0.6987 0.0521
0.5644 0.7365 0.1368
0.7536 0.7959 0.0989
0.9145 0.8115 0.0416
0.0000 0.2031 0.2425
0.2114 0.1949 0.2748
0.5317 0.2437 0.2183
0.6782 0.2762 0.2321
0.7881 0.2967 0.2403
0.0000 0.2338 0.2621
0.0860 0.2683 0.3133
0.5014 0.3037 0.2925
0.6695 0.3256 0.2928
0.7942 0.3281 0.2837
0.0000 0.3095 0.3072
0.0049 0.3600 0.3476
0.4268 0.4299 0.4039
0.6614 0.4663 0.4152
0.8214 0.4666 0.3888
0.0000 0.5177 0.4265
0.0000 0.4804 0.3576
0.3970 0.5532 0.3317
0.7185 0.6618 0.2907
0.8868 0.6055 0.3276
0.0000 0.6399 0.3527
0.0000 0.6695 0.2597
0.4619 0.7842 0.2198
0.7217 0.8151 0.2988
0.9014 0.8297 0.2008
0.0000 0.2950 0.3478
0.1709 0.3064 0.3448
0.4904 0.3521 0.3306
0.7195 0.3574 0.3015
0.8116 0.3812 0.3370
0.0000 0.3074 0.3625
0.0103 0.3433 0.4175
0.4279 0.3491 0.4303
0.7011 0.4016 0.3900
0.8068 0.4142 0.4030
0.0000 0.3558 0.4109
0.0000 0.3994 0.4603
0.3333 0.4634 0.5530
0.6751 0.5005 0.5206
0.8081 0.5105 0.5153
0.0000 0.4544 0.4920
0.0000 0.5038 0.5254
0.2919 0.5931 0.6012
0.6631 0.6812 0.6248
0.8503 0.6948 0.6342
0.0000 0.6986 0.6446
0.0000 0.7611 0.6735
0.1802 0.7851 0.5741
0.6546 0.8585 0.5091
0.8814 0.8549 0.4927
0.0000 0.3910 0.4789
0.1285 0.4063 0.4545
0.4164 0.4319 0.5026
0.6748 0.4727 0.5102
0.8174 0.4656 0.5182
0.0000 0.3837 0.4832
0.0000 0.4261 0.5510
0.3382 0.4418 0.5777
0.6892 0.4486 0.6070
0.8341 0.4794 0.5947
0.0000 0.4356 0.5480
0.0000 0.4621 0.5853
0.2829 0.5205 0.6915
0.6051 0.4940 0.7165
0.8601 0.5278 0.7036
0.0000 0.4957 0.6193
0.0000 0.5318 0.6580
0.2541 0.5949 0.7179
0.5916 0.6782 0.8038
0.8676 0.6695 0.7947
0.0000 0.6152 0.7093
0.0000 0.6551 0.7347
0.1294 0.7161 0.7755
0.5476 0.8058 0.8171
0.8509 0.8841 0.8224
