assets/luts/FILM1.CUBE
TITLE "Generated by Resolve"
LUT_3D_SIZE 33
0.0393072 0.0556649 0.0569924
0.0661173 0.0575113 0.0554665
0.0872969 0.0597848 0.0551156
0.11104 0.0619364 0.0540475
0.139147 0.0638437 0.0526894
0.170916 0.0653391 0.0510262
0.20119 0.0670024 0.0493019
0.230365 0.068574 0.0475624
0.258061 0.0700542 0.0455482
0.285115 0.0712749 0.0440223
0.311879 0.071809 0.0424811
0.338857 0.0717327 0.0397345
0.36643 0.0713207 0.0363622
0.393957 0.0705272 0.0325475
0.422263 0.0691386 0.0271763
0.450858 0.06804 0.0226596
0.478553 0.0664073 0.0192569
0.506661 0.0649577 0.0163424
0.530983 0.0629129 0.0135042
0.555154 0.0612497 0.0113069
0.578058 0.057847 0.0103304
0.601175 0.0534676 0.0104982
0.624399 0.0488136 0.0102235
0.647623 0.043595 0.00970474
0.671427 0.0378119 0.00863661
0.694789 0.0320592 0.00680552
0.718364 0.0264591 0.00477607
0.741802 0.0212863 0.0028687
0.764706 0.0133669 0.00187686
0.78645 0.00726329 0
0.807614 0.00433356 0
0.826123 0.00489815 0
0.841627 0.00262455 0
0.0279393 0.0721752 0.055375
0.0611429 0.0740368 0.0537423
0.0851911 0.0762493 0.0537881
0.108721 0.078706 0.0533913
0.137194 0.0809949 0.052369
0.170321 0.0829023 0.0508888
0.202075 0.0847181 0.0491798
0.231647 0.0866255 0.0471504
0.26006 0.0882124 0.0449378
0.287144 0.0894789 0.0431067
0.31429 0.0902571 0.0412909
0.341543 0.0907149 0.0385901
0.369528 0.0906996 0.0347143
0.397253 0.0904402 0.0302892
0.425681 0.0897688 0.024445
0.454475 0.0892042 0.0186618
0.482658 0.0883803 0.0155184
0.510979 0.0876631 0.0125429
0.536278 0.0868391 0.0108034
0.560449 0.0860304 0.00932326
0.584405 0.0849317 0.00903334
0.607355 0.0831311 0.00891127
0.630655 0.0814221 0.00872816
0.65388 0.078294 0.00820935
0.677455 0.0745708 0.00662242
0.700557 0.0694285 0.00428778
0.724132 0.0637522 0.00149538
0.747433 0.0575875 0
0.769985 0.0487221 0
0.791959 0.0418555 0
0.812497 0.0364691 0
0.830121 0.0287022 0
0.845258 0.0250858 0
0.0216526 0.088365 0.056199
0.0555276 0.090135 0.0543221
0.0825818 0.0924849 0.0535897
0.105852 0.095201 0.0530556
0.135546 0.0977646 0.0519875
0.169024 0.0999466 0.0506905
0.201831 0.102083 0.0488594
0.232593 0.104219 0.0467536
0.261433 0.106035 0.0442359
0.289372 0.107561 0.042359
0.317128 0.108598 0.0403143
0.344625 0.109682 0.0377966
0.372351 0.109636 0.0329747
0.400275 0.109926 0.0284276
0.429496 0.110033 0.0220951
0.458701 0.109865 0.0154269
0.487358 0.109667 0.0119783
0.516045 0.109483 0.00909438
0.542351 0.109392 0.00791943
0.567224 0.109194 0.00747692
0.591165 0.108843 0.00753796
0.614282 0.10779 0.00766003
0.637659 0.106691 0.0074464
0.660746 0.104448 0.00691234
0.684855 0.1019 0.00601205
0.707591 0.0982986 0.00283818
0.731273 0.0944076 0.000106813
0.75436 0.0901198 0
0.776883 0.0835126 0
0.798199 0.0776684 0
0.818143 0.0754711 0
0.835523 0.0673533 0
0.850584 0.0594339 0
0.0158999 0.105486 0.0574197
0.0495613 0.106813 0.055375
0.0796979 0.109026 0.0548104
0.103838 0.11162 0.0541238
0.133928 0.114549 0.0530251
0.167514 0.116976 0.0517281
0.201648 0.119326 0.0500496
0.233249 0.121538 0.0476387
0.263157 0.123583 0.0450904
0.291524 0.125521 0.0428931
0.319509 0.126848 0.0400854
0.347158 0.128038 0.0371099
0.375738 0.128588 0.0316014
0.404318 0.129152 0.0266728
0.433707 0.129732 0.0199283
0.463325 0.130114 0.0129549
0.492683 0.130449 0.00923171
0.521782 0.130816 0.00567636
0.548806 0.131273 0.00500496
0.573648 0.131426 0.00535592
0.597711 0.131487 0.00564584
0.621118 0.131441 0.00621042
0.644694 0.13106 0.0061799
0.667964 0.13019 0.00590524
0.691783 0.128435 0.00480659
0.714885 0.126314 0.00210575
0.73843 0.123507 0
0.761471 0.120348 0
0.78381 0.115908 0
0.805142 0.110826 0
0.82472 0.105791 0
0.841688 0.10071 0
0.856031 0.0973373 0
0.00968948 0.124498 0.0590524
0.0399176 0.125841 0.0569924
0.0749371 0.128176 0.0560311
0.100542 0.131029 0.0552224
0.131518 0.1337 0.0541238
0.165408 0.136141 0.0525521
0.200916 0.138415 0.0506752
0.234287 0.140719 0.0482948
0.26508 0.142947 0.0453956
0.294026 0.145266 0.0428473
0.32314 0.14696 0.0394141
0.351217 0.148653 0.0364691
0.380331 0.149722 0.0298619
0.409094 0.150927 0.0239261
0.438941 0.152102 0.0171969
0.469184 0.15314 0.0104372
0.499168 0.154299 0.00657664
0.528618 0.155245 0.00364691
0.555749 0.156008 0.00321965
0.581048 0.157046 0.00393683
0.605173 0.157671 0.00437934
0.628458 0.157855 0.00471504
0.652308 0.158236 0.00497444
0.675258 0.157549 0.00425727
0.699184 0.156619 0.00337224
0.721828 0.155016 0.000839246
0.745876 0.152865 0
0.768597 0.149966 0
0.790738 0.146273 0
0.811887 0.141238 0
0.830991 0.134707 0
0.847608 0.129 0
0.862028 0.125246 0
0.00396735 0.145449 0.0601205
0.0290684 0.146777 0.0583963
0.0664683 0.148455 0.0571298
0.096025 0.151141 0.0561685
0.12726 0.153872 0.0549172
0.162554 0.156313 0.0533913
0.199802 0.158801 0.0513161
0.234363 0.161532 0.0484779
0.266758 0.164187 0.045182
0.296818 0.166796 0.0424506
0.326513 0.168856 0.0383001
0.355123 0.170855 0.0349126
0.384939 0.172244 0.0273442
0.414206 0.173632 0.0204471
0.444297 0.175158 0.0138857
0.47541 0.177218 0.00750744
0.50547 0.178973 0.00416571
0.535454 0.180346 0.00222782
0.562676 0.181659 0.00166323
0.587884 0.182971 0.00242618
0.612238 0.184207 0.00276188
0.635782 0.185306 0.00323491
0.659159 0.185748 0.00314336
0.681971 0.185458 0.0024567
0.705745 0.185 0.00140383
0.728908 0.183612 0
0.753017 0.181811 0
0.775372 0.179171 0
0.797192 0.174823 0
0.818021 0.169406 0
0.837079 0.162448 0
0.853925 0.156313 0
0.867887 0.151339 0
0.000503548 0.167437 0.0612345
0.018204 0.168856 0.0595102
0.0548104 0.171298 0.0581216
0.0882887 0.174182 0.0569772
0.121111 0.177111 0.0553445
0.157641 0.180163 0.0535286
0.19704 0.183001 0.0510414
0.233417 0.185931 0.0476387
0.267521 0.188861 0.0439002
0.298512 0.191714 0.040177
0.328756 0.194186 0.0345312
0.358007 0.196628 0.0290379
0.388098 0.198688 0.0211795
0.418067 0.200793 0.0124361
0.448569 0.203143 0.00723278
0.479728 0.20528 0.00335698
0.510399 0.207263 0.000640879
0.540536 0.209186 0
0.568292 0.210819 0
0.593637 0.21236 0
0.618463 0.213977 0.000381476
0.641535 0.214817 0.000701915
0.664927 0.215503 0.000595102
0.688228 0.215717 0.000167849
0.711543 0.215091 0
0.734951 0.214313 0
0.758816 0.212665 0
0.781445 0.210147 0
0.803342 0.205371 0
0.823911 0.198581 0
0.843 0.19057 0
0.859648 0.183474 0
0.873732 0.177432 0
0 0.190066 0.0628519
0.0124971 0.191852 0.0610971
0.0388037 0.194369 0.0589609
0.0742351 0.197391 0.057557
0.113878 0.200931 0.0558785
0.152438 0.204211 0.0535744
0.193851 0.207401 0.0506294
0.232044 0.21091 0.0465858
0.267308 0.21384 0.0419623
0.299351 0.217029 0.0366674
0.330098 0.219791 0.0294957
0.359899 0.222522 0.0218967
0.390326 0.225147 0.0146487
0.420768 0.227756 0.0069276
0.451896 0.230518 0.00271611
0.482979 0.232898 0.000701915
0.513893 0.235142 0
0.544106 0.237156 0
0.573434 0.239445 0
0.598627 0.241001 0
0.62324 0.242634 0
0.646311 0.243519 0
0.669627 0.244434 0
0.692866 0.244724 0
0.716136 0.244587 0
0.739956 0.244038 0
0.763241 0.242222 0
0.786374 0.239475 0
0.808728 0.235004 0
0.829374 0.228183 0
0.848646 0.22002 0
0.865583 0.211353 0
0.879133 0.203067 0
0 0.212833 0.0644694
0.00891127 0.214923 0.0626535
0.0234684 0.217441 0.0601205
0.0558175 0.220569 0.0582132
0.105669 0.224537 0.0561532
0.147601 0.228321 0.0533608
0.190463 0.232044 0.0499733
0.230152 0.235477 0.044831
0.266972 0.238865 0.039292
0.30013 0.242359 0.0304875
0.33164 0.245655 0.0224765
0.362295 0.248875 0.0142061
0.392599 0.251865 0.00852979
0.423453 0.254704 0.00471504
0.454246 0.257465 0.00157168
0.485527 0.260014 0
0.517113 0.262501 0
0.547341 0.264591 0
0.576577 0.26656 0
0.601831 0.268147 0
0.626612 0.269703 0
0.650217 0.27097 0
0.673014 0.27155 0
0.69662 0.272099 0
0.71989 0.272007 0
0.744137 0.271183 0
0.767483 0.269764 0
0.790921 0.266926 0
0.813931 0.262654 0
0.834714 0.256306 0
0.853819 0.248478 0
0.871397 0.239719 0
0.884733 0.230121 0
0 0.235935 0.0660105
0.00895705 0.238148 0.0640421
0.0211032 0.240909 0.0612192
0.0458381 0.244175 0.0585184
0.0901045 0.248142 0.0561227
0.141588 0.252293 0.0528878
0.187442 0.256245 0.0488289
0.228794 0.259861 0.0424048
0.266804 0.263523 0.0350805
0.300938 0.267262 0.0237278
0.333227 0.270893 0.0149996
0.364248 0.274418 0.00862135
0.39498 0.27779 0.00392157
0.42562 0.280705 0.00233463
0.455985 0.283528 0.000381476
0.487511 0.286091 0
0.51931 0.288777 0
0.549615 0.290867 0
0.579019 0.292821 0
0.605035 0.29424 0
0.629328 0.295735 0
0.653162 0.296971 0
0.676371 0.298085 0
0.699702 0.298451 0
0.72282 0.298238 0
0.747082 0.297795 0
0.770886 0.29604 0
0.795621 0.293706 0
0.81886 0.289754 0
0.84036 0.283497 0
0.859495 0.275608 0
0.876493 0.266758 0
0.890532 0.257389 0
0 0.259098 0.0674144
0.00892653 0.261448 0.0653086
0.0194858 0.264286 0.0622873
0.0390326 0.267964 0.0592966
0.0743267 0.271397 0.0561685
0.13579 0.275654 0.0522621
0.184695 0.279805 0.047715
0.227802 0.283589 0.0393378
0.26688 0.287449 0.0280003
0.301976 0.291768 0.0163272
0.334493 0.295537 0.00781262
0.366079 0.299184 0.00456245
0.396933 0.302739 0.00207523
0.427558 0.305592 0.000411994
0.457923 0.308492 0
0.489326 0.311101 0
0.520699 0.313619 0
0.551507 0.315755 0
0.581247 0.317678 0
0.608026 0.319631 0
0.632502 0.321157 0
0.656611 0.322469 0
0.6795 0.323232 0
0.703075 0.32398 0
0.726513 0.323903 0
0.75053 0.323293 0
0.775113 0.322042 0
0.800076 0.319539 0
0.823255 0.315587 0
0.845151 0.309453 0
0.864775 0.301122 0
0.882277 0.292622 0
0.896193 0.283421 0
0 0.282643 0.0684977
0.00898756 0.28513 0.0664225
0.0195315 0.288258 0.0630655
0.0343633 0.291646 0.0593881
0.0591135 0.295491 0.0558633
0.127092 0.299519 0.0508125
0.180667 0.303563 0.0442817
0.226459 0.307317 0.0344091
0.266758 0.31133 0.0206455
0.302678 0.315694 0.0107118
0.336187 0.31986 0.00306706
0.367651 0.323445 0.00149538
0.398413 0.32697 0.000274662
0.429664 0.330083 0
0.460029 0.333074 0
0.491188 0.335698 0
0.522637 0.338125 0
0.553689 0.340383 0
0.583642 0.342199 0
0.611231 0.344213 0
0.63563 0.345556 0
0.659846 0.347097 0
0.683085 0.347997 0
0.706279 0.348562 0
0.730297 0.348882 0
0.754192 0.348257 0
0.779202 0.347082 0
0.804044 0.344686 0
0.827863 0.340963 0
0.850538 0.335058 0
0.870298 0.32668 0
0.8878 0.317494 0
0.902129 0.308782 0
0 0.306142 0.0692912
0.00886549 0.308721 0.0670024
0.0195773 0.311711 0.0634775
0.030518 0.315145 0.059556
0.0450294 0.318441 0.055314
0.118578 0.322545 0.049546
0.176501 0.326513 0.0408179
0.224628 0.330526 0.0285039
0.266102 0.334829 0.0134432
0.303014 0.339513 0.00631724
0.336843 0.343709 0.00140383
0.369039 0.347707 7.62951e-05
0.400153 0.351598 0
0.431098 0.354711 0
0.461723 0.357595 0
0.492882 0.360311 0
0.524483 0.363058 0
0.55613 0.365469 0
0.586038 0.367361 0
0.614466 0.369299 0
0.63888 0.370764 0
0.663005 0.372198 0
0.686732 0.373419 0
0.71014 0.37406 0
0.734234 0.374319 0
0.758236 0.373877 0
0.783398 0.372625 0
0.808408 0.37023 0
0.832807 0.366064 0
0.855512 0.359762 0
0.875761 0.351736 0
0.893675 0.342626 0
0.907927 0.33373 0
0 0.329671 0.0698405
0.00891127 0.332082 0.0669566
0.0195926 0.335103 0.062974
0.0303349 0.338445 0.0585336
0.0439918 0.342077 0.0535286
0.105333 0.345754 0.0454108
0.167666 0.34963 0.0348363
0.221912 0.353628 0.0222629
0.264927 0.358175 0.00802625
0.303059 0.362921 0.00254826
0.337789 0.367376 0.000259403
0.370321 0.37142 0
0.401679 0.375174 0
0.432609 0.378561 0
0.463432 0.381704 0
0.494713 0.384482 0
0.526574 0.387289 0
0.558648 0.389944 0
0.588693 0.391852 0
0.617136 0.394003 0
0.642069 0.395407 0
0.666346 0.396979 0
0.690349 0.398291 0
0.713954 0.39913 0
0.73814 0.399603 0
0.762066 0.399161 0
0.787747 0.398199 0
0.812558 0.395865 0
0.837873 0.392172 0
0.860838 0.385855 0
0.8813 0.376852 0
0.899672 0.367636 0
0.914443 0.35877 0
0 0.352361 0.0700084
0.00894179 0.354803 0.0667277
0.01944 0.357763 0.0622873
0.0304723 0.361242 0.0577401
0.0425727 0.364996 0.0516823
0.0913252 0.368505 0.0413519
0.15642 0.372595 0.0276493
0.218662 0.377005 0.0146181
0.262654 0.381949 0.00523384
0.301991 0.387198 0.000991836
0.337606 0.391897 0
0.370687 0.396155 0
0.40238 0.400153 0
0.4336 0.403494 0
0.464714 0.406729 0
0.495888 0.409796 0
0.527718 0.412406 0
0.560357 0.414984 0
0.59089 0.416999 0
0.619699 0.419135 0
0.645502 0.421073 0
0.670024 0.422736 0
0.694362 0.424063 0
0.717708 0.42475 0
0.742199 0.425437 0
0.766583 0.425025 0
0.792416 0.423957 0
0.817594 0.421653 0
0.84303 0.418204 0
0.866239 0.412039 0
0.887022 0.403418 0
0.905623 0.393225 0
0.920867 0.384085 0
0 0.374517 0.0695048
0.0089723 0.377005 0.0658274
0.0194705 0.380362 0.0609598
0.0304417 0.383673 0.0556344
0.0412757 0.387304 0.0490578
0.0794232 0.391043 0.0359045
0.143999 0.395239 0.0213321
0.21474 0.399817 0.00686656
0.260197 0.405356 0.00196841
0.300984 0.410803 0
0.337041 0.415869 0
0.370687 0.420325 0
0.402701 0.424567 0
0.434104 0.428122 0
0.465675 0.431495 0
0.496986 0.434607 0
0.52903 0.437675 0
0.562158 0.440513 0
0.592691 0.442649 0
0.622293 0.444968 0
0.648798 0.446891 0
0.673198 0.448722 0
0.698009 0.450553 0
0.721706 0.45156 0
0.74612 0.452293 0
0.770886 0.452399 0
0.796811 0.45153 0
0.82237 0.449226 0
0.848127 0.445472 0
0.872023 0.438911 0
0.892744 0.43006 0
0.911864 0.420386 0
0.92726 0.410483 0
0 0.396262 0.0684367
0.00898756 0.398779 0.0648356
0.0195163 0.40206 0.059556
0.030457 0.405783 0.0534066
0.0413214 0.409445 0.0452125
0.0686198 0.413443 0.0286564
0.129152 0.417792 0.0151217
0.208103 0.423117 0.00384527
0.255741 0.42887 0.000350958
0.298238 0.43447 0
0.335378 0.439811 0
0.369741 0.444602 0
0.402304 0.448783 0
0.434119 0.452857 0
0.466026 0.456352 0
0.497673 0.459709 0
0.530312 0.462959 0
0.563485 0.46595 0
0.594919 0.468711 0
0.624887 0.471061 0
0.651942 0.473304 0
0.676768 0.475242 0
0.701762 0.477211 0
0.725719 0.47834 0
0.750729 0.479576 0
0.775616 0.479698 0
0.801587 0.479072 0
0.827344 0.477546 0
0.853468 0.473777 0
0.877668 0.467796 0
0.899275 0.459037 0
0.918318 0.447776 0
0.933837 0.437919 0
0 0.416739 0.0672007
0.00888075 0.419486 0.0631876
0.0194858 0.423011 0.0576944
0.0304723 0.426917 0.0507973
0.0413214 0.430915 0.0409857
0.0590219 0.435615 0.0223545
0.111452 0.440406 0.00836194
0.198871 0.445869 0.00125124
0.250294 0.452201 0
0.294774 0.458244 0
0.332876 0.463752 0
0.368002 0.469047 0
0.400992 0.473411 0
0.433204 0.47776 0
0.465507 0.481483 0
0.497627 0.48542 0
0.530663 0.488716 0
0.564111 0.492103 0
0.596445 0.495003 0
0.626719 0.497734 0
0.654704 0.500313 0
0.679973 0.502617 0
0.705409 0.504875 0
0.7299 0.506706 0
0.754788 0.507851 0
0.780056 0.508278 0
0.806516 0.508049 0
0.83267 0.50634 0
0.859251 0.503075 0
0.883818 0.4972 0
0.905684 0.488365 0
0.924437 0.477317 0
0.940764 0.466194 0
0 0.436881 0.0657816
0.00891127 0.439567 0.0612497
0.0196384 0.44332 0.0551919
0.0305028 0.446998 0.0470283
0.0411841 0.451499 0.0343023
0.0572824 0.456657 0.0179294
0.0957198 0.461952 0.00363165
0.183505 0.468208 0
0.242817 0.474845 0
0.29012 0.48159 0
0.329366 0.487755 0
0.365515 0.493355 0
0.39881 0.498024 0
0.431373 0.502892 0
0.464271 0.506905 0
0.496941 0.510918 0
0.530205 0.514794 0
0.56405 0.518486 0
0.597574 0.521889 0
0.628412 0.524971 0
0.657618 0.528099 0
0.683436 0.5308 0
0.709056 0.533303 0
0.734051 0.535271 0
0.759243 0.53669 0
0.785245 0.537743 0
0.811215 0.537575 0
0.837812 0.536019 0
0.864805 0.533028 0
0.889708 0.527276 0
0.911452 0.518212 0
0.930694 0.506737 0
0.947143 0.495109 0
0 0.456092 0.0642252
0.00875868 0.459174 0.0591135
0.0195926 0.463111 0.0524147
0.0303502 0.467109 0.0432136
0.0414435 0.471977 0.0279545
0.0560616 0.477531 0.012604
0.0844892 0.483421 0.00148013
0.167834 0.489845 0
0.233295 0.497032 0
0.2851 0.504097 0
0.324865 0.51046 0
0.361868 0.516503 0
0.396399 0.521752 0
0.429419 0.527016 0
0.462837 0.53167 0
0.495903 0.535958 0
0.529564 0.540322 0
0.56405 0.544411 0
0.598474 0.548516 0
0.629908 0.551858 0
0.660334 0.555779 0
0.686305 0.55848 0
0.712367 0.561242 0
0.737682 0.563729 0
0.763073 0.565484 0
0.788998 0.566567 0
0.815427 0.566766 0
0.842512 0.565652 0
0.869612 0.562554 0
0.894789 0.556786 0
0.916777 0.547585 0
0.936385 0.535988 0
0.953033 0.52343 0
0 0.47425 0.0624399
0.00885023 0.477775 0.0572976
0.0195163 0.481605 0.049073
0.0304417 0.486122 0.0384222
0.0412757 0.491585 0.0220645
0.0551308 0.497826 0.00790417
0.0776989 0.504646 0
0.156359 0.511711 0
0.224643 0.519219 0
0.280324 0.526589 0
0.321752 0.53341 0
0.359945 0.540078 0
0.39498 0.545541 0
0.428962 0.551293 0
0.462455 0.556161 0
0.496071 0.561013 0
0.530373 0.565866 0
0.565316 0.570306 0
0.600214 0.574777 0
0.632547 0.578729 0
0.663157 0.582666 0
0.689662 0.585748 0
0.715679 0.588571 0
0.741329 0.591073 0
0.766796 0.592737 0
0.792752 0.593668 0
0.818738 0.593713 0
0.845777 0.592508 0
0.873396 0.58996 0
0.89865 0.584543 0
0.922057 0.576226 0
0.941421 0.564324 0
0.958541 0.551797 0
0 0.492699 0.0610056
0.00889601 0.496147 0.0552987
0.0196231 0.500374 0.0458686
0.030457 0.504875 0.0326238
0.0411841 0.510735 0.0168307
0.0539101 0.517494 0.00489815
0.0716259 0.524926 0
0.144503 0.532525 0
0.215488 0.540398 0
0.276539 0.548409 0
0.320134 0.555917 0
0.359136 0.563027 0
0.395224 0.569375 0
0.429801 0.575494 0
0.463706 0.58085 0
0.497978 0.586069 0
0.53228 0.591058 0
0.56788 0.595987 0
0.603464 0.600839 0
0.635767 0.604883 0
0.666499 0.608728 0
0.693202 0.611826 0
0.719127 0.614679 0
0.745098 0.617166 0
0.769909 0.618875 0
0.795987 0.619989 0
0.821698 0.619623 0
0.849363 0.618814 0
0.876417 0.616007 0
0.902678 0.611109 0
0.926177 0.602945 0
0.946578 0.591913 0
0.963836 0.57937 0
0 0.510719 0.0588998
0.00894179 0.514611 0.0523384
0.0194553 0.518975 0.0418555
0.0303044 0.523827 0.0264286
0.041413 0.53048 0.0115816
0.0532082 0.537789 0.0024567
0.0676127 0.545464 0
0.1337 0.553185 0
0.2056 0.561654 0
0.273716 0.570016 0
0.319371 0.577966 0
0.359686 0.585687 0
0.39588 0.592126 0
0.430869 0.598489 0
0.465354 0.603983 0
0.499977 0.6094 0
0.5346 0.614588 0
0.569848 0.619608 0
0.605539 0.624399 0
0.637675 0.628107 0
0.66836 0.631968 0
0.69546 0.63505 0
0.721355 0.63798 0
0.747265 0.640467 0
0.772366 0.642115 0
0.798398 0.643488 0
0.82443 0.643595 0
0.852049 0.643153 0
0.879911 0.641321 0
0.906554 0.637171 0
0.930434 0.629145 0
0.951232 0.618112 0
0.969223 0.606577 0
0 0.52874 0.0567941
0.00883497 0.532845 0.0482643
0.019501 0.537346 0.0356451
0.0304112 0.542901 0.01944
0.0412451 0.549966 0.00840772
0.0525368 0.557824 0.00103761
0.0655222 0.565972 0
0.123613 0.574517 0
0.195789 0.583215 0
0.27129 0.592111 0
0.318807 0.60032 0
0.359503 0.608011 0
0.396567 0.614862 0
0.431632 0.621149 0
0.466529 0.626749 0
0.501122 0.632212 0
0.535363 0.637156 0
0.570764 0.642023 0
0.606516 0.646998 0
0.638895 0.650675 0
0.669612 0.654704 0
0.697124 0.657786 0
0.723003 0.660624 0
0.749004 0.663279 0
0.774182 0.664958 0
0.80032 0.666499 0
0.826444 0.666865 0
0.854582 0.666682 0
0.882261 0.664973 0
0.909194 0.661265 0
0.934157 0.654887 0
0.955993 0.644877 0
0.974243 0.633021 0
0 0.547097 0.0542153
0.00869764 0.551217 0.0433661
0.0195926 0.55642 0.0292821
0.0304265 0.562203 0.0122835
0.0412757 0.56968 0.00505074
0.0522011 0.57792 0.000411994
0.0641489 0.586374 0
0.113741 0.59498 0
0.1832 0.60412 0
0.266072 0.613367 0
0.316213 0.621561 0
0.357671 0.629526 0
0.394705 0.635996 0
0.430457 0.64239 0
0.464897 0.648219 0
0.499702 0.653529 0
0.534295 0.658595 0
0.569177 0.663478 0
0.605631 0.668528 0
0.638605 0.672648 0
0.669474 0.676585 0
0.697414 0.680034 0
0.723705 0.682948 0
0.750088 0.685863 0
0.775311 0.687831 0
0.80177 0.689509 0
0.82826 0.690272 0
0.856535 0.690227 0
0.884276 0.688945 0
0.912123 0.685496 0
0.937743 0.679698 0
0.96022 0.670665 0
0.979767 0.660273 0
0 0.564767 0.0501869
0.00895705 0.569635 0.0381323
0.0194247 0.574762 0.0236667
0.0304265 0.581216 0.00856031
0.0413672 0.58909 0.00259403
0.0519417 0.597681 0
0.0626383 0.606531 0
0.102251 0.615641 0
0.164584 0.62414 0
0.253864 0.633188 0
0.310872 0.641642 0
0.352499 0.649393 0
0.390539 0.656352 0
0.426383 0.66273 0
0.461082 0.668406 0
0.49575 0.673899 0
0.530404 0.679271 0
0.56582 0.684184 0
0.602304 0.689403 0
0.63621 0.694041 0
0.667445 0.697887 0
0.696605 0.701671 0
0.72282 0.704799 0
0.749432 0.707835 0
0.775357 0.710323 0
0.801694 0.712322 0
0.828946 0.713542 0
0.857404 0.713726 0
0.885908 0.712886 0
0.915053 0.710445 0
0.941482 0.705165 0
0.964309 0.696651 0
0.98436 0.686488 0
0 0.582803 0.0447089
0.00880446 0.58732 0.0317998
0.0196841 0.592737 0.0176699
0.0303655 0.599512 0.00642405
0.0412299 0.607263 0.000671397
0.0518959 0.615961 0
0.0628977 0.624872 0
0.0948501 0.633539 0
0.14406 0.642267 0
0.234073 0.65156 0
0.301305 0.660044 0
0.343771 0.668223 0
0.382849 0.675395 0
0.419013 0.681788 0
0.454459 0.688243 0
0.489097 0.693767 0
0.524117 0.699184 0
0.560113 0.704829 0
0.596521 0.709941 0
0.631785 0.714977 0
0.663478 0.719371 0
0.69398 0.723583 0
0.720562 0.726864 0
0.747753 0.730419 0
0.774487 0.733364 0
0.801144 0.735546 0
0.829068 0.737316 0
0.857755 0.737957 0
0.887327 0.737682 0
0.917037 0.735927 0
0.944488 0.731212 0
0.96849 0.723461 0
0.989532 0.713985 0
0 0.598978 0.0365301
0.00889601 0.603616 0.0243687
0.0195315 0.608743 0.00979629
0.0302129 0.615793 0.00233463
0.0412757 0.623987 0
0.0518959 0.632609 0
0.0627756 0.641611 0
0.085069 0.650462 0
0.125628 0.658991 0
