assets/luts/FILM2.CUBE
TITLE "KDX - Rec.709_32"
LUT_3D_SIZE 8
DOMAIN_MIN 0.000000 0.000000 0.000000
DOMAIN_MAX 0.903226 0.903226 0.903226
0.0000 0.0118 0.0332
0.1154 0.0438 0.0406
0.2375 0.0711 0.0526
0.3498 0.0993 0.0665
0.4441 0.1247 0.0829
0.5460 0.1497 0.1039
0.6446 0.1775 0.1198
0.7253 0.2020 0.1309
0.0000 0.1120 0.0181
0.1140 0.1076 0.0216
0.2662 0.1032 0.0308
0.3702 0.1280 0.0500
0.4675 0.1597 0.0621
0.5768 0.1923 0.0782
0.6717 0.2202 0.0924
0.7590 0.2406 0.1097
0.0000 0.1798 0.0106
0.1360 0.1798 0.0148
0.2769 0.1819 0.0256
0.4007 0.1700 0.0345
0.5133 0.2007 0.0506
0.6173 0.2418 0.0591
0.7095 0.2754 0.0682
0.7980 0.2990 0.0937
0.0028 0.2322 0.0106
0.1582 0.2445 0.0105
0.3026 0.2693 0.0169
0.4248 0.2865 0.0371
0.5398 0.2758 0.0428
0.6503 0.2950 0.0487
0.7489 0.3267 0.0567
0.8351 0.3460 0.0827
0.0692 0.2866 0.0105
0.1963 0.3043 0.0105
0.3286 0.3370 0.0105
0.4605 0.3817 0.0299
0.5737 0.4142 0.0472
0.6843 0.3951 0.0562
0.7720 0.4011 0.0602
0.8584 0.4035 0.0639
0.1077 0.3736 0.0105
0.2419 0.3824 0.0167
0.3565 0.3982 0.0243
0.4711 0.4515 0.0127
0.6117 0.5238 0.0342
0.7140 0.5695 0.0492
0.8053 0.5224 0.0676
0.8903 0.4956 0.0710
0.1576 0.4178 0.0514
0.2749 0.4290 0.0626
0.3874 0.4567 0.0775
0.5019 0.5149 0.0644
0.6219 0.5944 0.0165
0.7264 0.6747 0.0236
0.8198 0.7060 0.0441
0.9193 0.6276 0.0763
0.2591 0.5599 0.0105
0.3342 0.5899 0.0105
0.4358 0.6516 0.0171
0.5327 0.6750 0.0347
0.6370 0.7193 0.0128
0.7328 0.7637 0.0115
0.8132 0.8032 0.0106
0.9229 0.7956 0.0491
0.0000 0.0681 0.0990
0.1698 0.0670 0.0998
0.2807 0.0877 0.1061
0.3809 0.1094 0.1134
0.4774 0.1312 0.1244
0.5782 0.1544 0.1341
0.6711 0.1788 0.1464
0.7546 0.1992 0.1560
0.0000 0.1041 0.1073
0.0969 0.1125 0.1233
0.2558 0.1381 0.1236
0.3756 0.1499 0.1248
0.4801 0.1584 0.1317
0.5889 0.1854 0.1438
0.6839 0.2135 0.1572
0.7679 0.2339 0.1693
0.0000 0.1921 0.1000
0.0359 0.2198 0.0725
0.2822 0.2034 0.0721
0.4060 0.1965 0.0896
0.5082 0.2292 0.1071
0.6130 0.2660 0.1232
0.7101 0.2916 0.1403
0.7910 0.3057 0.1578
0.0000 0.2406 0.0768
0.0200 0.2919 0.0309
0.2919 0.2888 0.0658
0.4273 0.3069 0.0432
0.5561 0.2972 0.0513
0.6622 0.3244 0.0702
0.7504 0.3534 0.1056
0.8275 0.3769 0.1324
0.0000 0.2774 0.0681
0.0972 0.3542 0.0314
0.3124 0.3544 0.0658
0.4599 0.4017 0.0265
0.5737 0.4327 0.0443
0.6964 0.4154 0.0583
0.7947 0.4185 0.0793
0.8750 0.4278 0.0893
0.0000 0.3111 0.0845
0.1477 0.4006 0.0596
0.3346 0.4205 0.0862
0.4644 0.4669 0.0881
0.6117 0.5454 0.0291
0.7139 0.5871 0.0447
0.8224 0.5456 0.0685
0.9143 0.5076 0.0728
0.0000 0.3853 0.1010
0.1938 0.4479 0.0927
0.3674 0.4800 0.1130
0.4912 0.5308 0.1256
0.6175 0.6113 0.0938
0.7337 0.6908 0.0202
0.8136 0.7160 0.0390
0.9163 0.6472 0.0746
0.1664 0.5401 0.0105
0.2879 0.6449 0.0112
0.4104 0.6853 0.0476
0.5247 0.7064 0.0842
0.6331 0.7374 0.0756
0.7328 0.7783 0.0132
0.8113 0.8085 0.0109
0.9156 0.8075 0.0423
0.0000 0.1205 0.1559
0.1194 0.1081 0.1705
0.3236 0.1312 0.1559
0.4245 0.1587 0.1694
0.5201 0.1746 0.1711
0.6084 0.1949 0.1803
0.6862 0.2135 0.1915
0.7615 0.2296 0.1943
0.0000 0.1438 0.1631
0.0293 0.1561 0.1871
0.3028 0.1650 0.1889
0.4070 0.1841 0.1925
0.5150 0.1968 0.1873
0.6094 0.2155 0.1960
0.6920 0.2297 0.2026
0.7691 0.2432 0.2042
0.0000 0.1877 0.1822
0.0000 0.2094 0.2032
0.2311 0.2332 0.2341
0.3827 0.2534 0.2347
0.5013 0.2628 0.2325
0.6103 0.2744 0.2301
0.7012 0.2868 0.2351
0.7848 0.3015 0.2355
0.0000 0.2934 0.2263
0.0000 0.2919 0.1950
0.1738 0.3330 0.1695
0.4192 0.3391 0.1585
0.5393 0.3352 0.2009
0.6402 0.3666 0.2172
0.7303 0.3907 0.2329
0.8153 0.4002 0.2333
0.0000 0.3310 0.1949
0.0000 0.3241 0.1687
0.1924 0.3951 0.1375
0.4188 0.4185 0.1710
0.5651 0.4575 0.1395
0.6920 0.4360 0.1672
0.7804 0.4506 0.1815
0.8582 0.4605 0.1875
0.0000 0.3547 0.1959
0.0000 0.3641 0.1702
0.2215 0.4461 0.1467
0.4335 0.4808 0.1774
0.5938 0.5603 0.1509
0.7080 0.6036 0.1237
0.8152 0.5589 0.1546
0.9109 0.5233 0.1338
0.0000 0.3676 0.2097
0.0000 0.3955 0.1767
0.2606 0.5104 0.1566
0.4596 0.5561 0.1875
0.5984 0.6227 0.1900
0.7349 0.7031 0.1187
0.8094 0.7262 0.0706
0.9189 0.6529 0.0746
0.0000 0.5368 0.1182
0.0346 0.5866 0.0121
0.3470 0.7101 0.0707
0.4918 0.7355 0.1269
0.6141 0.7536 0.1648
0.7289 0.7913 0.1372
0.8154 0.8177 0.0400
0.9122 0.8153 0.0400
0.0000 0.1767 0.2146
0.0835 0.1717 0.2219
0.3113 0.1830 0.2290
0.4625 0.2060 0.2030
0.5604 0.2317 0.2126
0.6425 0.2473 0.2188
0.7108 0.2606 0.2272
0.7758 0.2724 0.2282
0.0000 0.1917 0.2209
0.0000 0.2051 0.2469
0.2245 0.1902 0.2739
0.4462 0.2366 0.2402
0.5503 0.2553 0.2427
0.6397 0.2677 0.2435
0.7139 0.2770 0.2455
0.7818 0.2855 0.2452
0.0000 0.2213 0.2391
0.0000 0.2399 0.2597
0.1478 0.2653 0.2995
0.4166 0.2874 0.2884
0.5294 0.3016 0.2874
0.6329 0.3096 0.2824
0.7134 0.3112 0.2778
0.7873 0.3133 0.2706
0.0000 0.2716 0.2629
0.0000 0.2958 0.2842
0.1187 0.3296 0.3186
0.3571 0.3616 0.3499
0.5053 0.3842 0.3536
0.6276 0.4011 0.3532
0.7266 0.4044 0.3442
0.8087 0.4035 0.3298
0.0000 0.3725 0.3158
0.0000 0.4056 0.3325
0.0725 0.4027 0.3004
0.3218 0.4476 0.2878
0.5488 0.4830 0.2696
0.6656 0.4793 0.3249
0.7574 0.5023 0.3294
0.8401 0.5191 0.3300
0.0000 0.4591 0.3495
0.0000 0.4284 0.2995
0.0900 0.4363 0.2822
0.3245 0.5049 0.2676
0.5474 0.5638 0.2867
0.6967 0.6198 0.2345
0.8005 0.5776 0.2812
0.8856 0.5626 0.2637
0.0000 0.4602 0.3160
0.0000 0.4444 0.2867
0.1008 0.4777 0.2732
0.3543 0.5863 0.2492
0.5623 0.6347 0.2867
0.7134 0.7120 0.2539
0.8051 0.7391 0.2011
0.9249 0.6641 0.2072
0.0000 0.6017 0.2731
0.0000 0.6013 0.2256
0.0515 0.6952 0.0794
0.4191 0.7619 0.1628
0.5847 0.7798 0.2271
0.7082 0.8008 0.2443
0.8145 0.8319 0.2023
0.9052 0.8235 0.1234
0.0000 0.2311 0.2744
0.0571 0.2311 0.2769
0.2417 0.2323 0.2999
0.4314 0.2733 0.2723
0.5996 0.2817 0.2308
0.6802 0.2998 0.2369
0.7431 0.3155 0.2450
0.8027 0.3216 0.2452
0.0000 0.2334 0.2726
0.0000 0.2551 0.3049
0.1812 0.2613 0.3187
0.4087 0.2880 0.3073
0.5868 0.3045 0.2661
0.6754 0.3232 0.2729
0.7424 0.3329 0.2737
0.8024 0.3360 0.2726
0.0000 0.2639 0.2951
0.0000 0.2785 0.3133
0.1100 0.3043 0.3553
0.3526 0.2939 0.3676
0.5676 0.3448 0.3185
0.6627 0.3620 0.3250
0.7371 0.3648 0.3213
0.8032 0.3615 0.3093
0.0000 0.2944 0.3192
0.0000 0.3160 0.3435
0.0814 0.3452 0.3717
0.2942 0.3803 0.4237
0.5408 0.4070 0.3884
0.6476 0.4239 0.3920
0.7375 0.4260 0.3857
0.8107 0.4111 0.3623
0.0000 0.3498 0.3533
0.0000 0.3740 0.3696
0.0194 0.4100 0.4028
0.2616 0.4601 0.4455
0.4941 0.5002 0.4623
0.6353 0.5252 0.4761
0.7428 0.5397 0.4753
0.8338 0.5323 0.4539
0.0000 0.4626 0.4231
0.0000 0.4996 0.4380
0.0000 0.5405 0.4632
0.2203 0.5330 0.4286
0.4696 0.5779 0.4137
0.6746 0.6400 0.3820
0.7739 0.6255 0.4408
0.8594 0.6279 0.4358
0.0000 0.5969 0.5106
0.0000 0.5866 0.4749
0.0000 0.5604 0.4158
0.2310 0.5828 0.3857
0.4748 0.6664 0.3741
0.6723 0.7097 0.3978
0.7939 0.7537 0.3352
0.9078 0.6869 0.3603
0.0000 0.6900 0.4811
0.0000 0.6764 0.4086
0.0000 0.6721 0.3417
0.1924 0.7609 0.2260
0.5142 0.8047 0.2860
0.6781 0.8145 0.3571
0.7988 0.8401 0.3562
0.8958 0.8341 0.2717
0.0000 0.2830 0.3321
0.0283 0.2882 0.3281
0.2163 0.3014 0.3423
0.4117 0.3261 0.3324
0.5752 0.3463 0.2985
0.7040 0.3432 0.2687
0.7648 0.3639 0.3047
0.8135 0.3716 0.3169
0.0000 0.2826 0.3347
0.0000 0.3035 0.3660
0.1611 0.3136 0.3691
0.3704 0.3118 0.3776
0.5488 0.3615 0.3455
0.6949 0.3644 0.3197
0.7570 0.3811 0.3458
0.8105 0.3831 0.3466
0.0000 0.3053 0.3529
0.0000 0.3164 0.3691
0.0776 0.3472 0.4157
0.2960 0.3488 0.4266
0.5149 0.3885 0.4053
0.6765 0.3991 0.3844
0.7479 0.4120 0.4000
0.8065 0.4104 0.3916
0.0000 0.3317 0.3786
0.0000 0.3517 0.4009
0.0485 0.3764 0.4331
0.2582 0.4140 0.4977
0.4757 0.4032 0.4882
0.6569 0.4555 0.4599
0.7392 0.4692 0.4678
0.8093 0.4604 0.4470
0.0000 0.3673 0.4117
0.0000 0.3922 0.4387
0.0056 0.4226 0.4718
0.2429 0.4645 0.5149
0.4309 0.5095 0.5651
0.6412 0.5311 0.5372
0.7404 0.5495 0.5399
0.8209 0.5388 0.5192
0.0000 0.4303 0.4585
0.0000 0.4566 0.4788
0.0000 0.4932 0.5085
0.1937 0.5441 0.5489
0.4141 0.6005 0.5931
0.6317 0.6489 0.5856
0.7505 0.6652 0.6092
0.8460 0.6659 0.6014
0.0000 0.5554 0.5467
0.0000 0.5915 0.5595
0.0000 0.6349 0.5807
0.0949 0.6786 0.6114
0.3773 0.6821 0.5686
0.6264 0.7334 0.5447
0.7792 0.7741 0.5168
0.8789 0.7340 0.5523
0.0000 0.7108 0.6397
0.0000 0.7446 0.6521
0.0000 0.7576 0.6115
0.0091 0.7584 0.5359
0.3324 0.8175 0.4381
0.6249 0.8502 0.4608
0.7724 0.8515 0.5113
0.8846 0.8509 0.4439
0.0000 0.3379 0.3979
0.0019 0.3427 0.3831
0.1949 0.3506 0.3812
0.3728 0.3720 0.4004
0.5406 0.4052 0.3974
0.6746 0.4108 0.3929
0.7652 0.4014 0.3833
0.8147 0.4169 0.4110
0.0000 0.3341 0.3988
0.0000 0.3539 0.4351
0.1411 0.3669 0.4236
0.3206 0.3778 0.4461
0.5223 0.4009 0.4395
0.6521 0.4312 0.4413
0.7565 0.4250 0.4296
0.8101 0.4379 0.4544
0.0000 0.3444 0.4168
0.0000 0.3553 0.4356
0.0295 0.3904 0.4913
0.2748 0.4026 0.5006
0.4776 0.3883 0.5119
0.6425 0.4431 0.4943
0.7501 0.4551 0.4898
0.8089 0.4661 0.5055
0.0000 0.3719 0.4510
0.0000 0.3912 0.4746
0.0074 0.4087 0.4972
0.2347 0.4524 0.5742
0.4051 0.4345 0.5768
0.6472 0.4535 0.5734
0.7531 0.4923 0.5531
0.8127 0.5086 0.5632
0.0000 0.4033 0.4883
0.0000 0.4243 0.5109
0.0000 0.4521 0.5408
0.2150 0.4905 0.5831
0.3906 0.5312 0.6555
0.5882 0.5104 0.6496
0.7592 0.5535 0.6260
0.8207 0.5748 0.6262
0.0000 0.4481 0.5309
0.0000 0.4742 0.5554
0.0000 0.5010 0.5837
0.1862 0.5421 0.6200
0.3874 0.5925 0.6681
0.5836 0.6453 0.7063
0.7581 0.6567 0.6919
0.8246 0.6685 0.6844
0.0000 0.5225 0.5846
0.0000 0.5439 0.5995
0.0000 0.5779 0.6245
0.0985 0.6185 0.6571
0.3517 0.6727 0.6944
0.5716 0.7303 0.7268
0.7551 0.7748 0.7304
0.8567 0.7781 0.7288
0.0000 0.6477 0.6771
0.0000 0.6793 0.6889
0.0000 0.7205 0.7064
0.0000 0.7738 0.7287
0.2487 0.8222 0.7411
0.4950 0.8506 0.6759
0.7416 0.8792 0.6593
0.8760 0.8748 0.6397
0.0000 0.3910 0.4789
0.0000 0.3995 0.4591
0.1743 0.4100 0.4525
0.3369 0.4317 0.4823
0.5275 0.4324 0.5085
0.6500 0.4685 0.5065
0.7449 0.4770 0.5213
0.8174 0.4656 0.5182
0.0000 0.3828 0.4832
0.0000 0.4066 0.5128
0.1093 0.4185 0.5046
0.2942 0.4276 0.5204
0.4674 0.4164 0.5568
0.6586 0.4532 0.5519
0.7521 0.4762 0.5586
0.8247 0.4700 0.5553
0.0000 0.3906 0.4893
0.0000 0.4066 0.5158
0.0000 0.4361 0.5657
0.2541 0.4533 0.5857
0.4072 0.4326 0.6141
0.6411 0.4407 0.6347
0.7637 0.4731 0.6181
0.8404 0.4814 0.6094
0.0000 0.4196 0.5279
0.0000 0.4323 0.5496
0.0000 0.4447 0.5682
0.2016 0.4913 0.6510
0.3771 0.4825 0.6671
0.5740 0.4635 0.6859
0.7682 0.4872 0.6923
0.8544 0.5069 0.6705
0.0000 0.4483 0.5667
0.0000 0.4685 0.5891
0.0000 0.4847 0.6135
0.1862 0.5188 0.6505
0.3664 0.5590 0.7284
0.5241 0.5268 0.7342
0.7426 0.5430 0.7631
0.8638 0.5583 0.7332
0.0000 0.4839 0.6062
0.0000 0.5045 0.6315
0.0000 0.5271 0.6540
0.1494 0.5605 0.6854
0.3549 0.6064 0.7308
0.5465 0.6477 0.7884
0.7169 0.6394 0.7961
0.8668 0.6450 0.7848
0.0000 0.5349 0.6571
0.0000 0.5596 0.6805
0.0000 0.5821 0.6976
0.0773 0.6118 0.7245
0.3317 0.6543 0.7556
0.5408 0.7116 0.7923
0.7187 0.7643 0.8259
0.8579 0.7605 0.8166
0.0000 0.6152 0.7093
0.0000 0.6354 0.7224
0.0000 0.6627 0.7420
0.0000 0.6959 0.7631
0.2645 0.7394 0.7894
0.4926 0.7911 0.8099
0.6991 0.8476 0.8300
0.8509 0.8841 0.8224
