assets/luts/FILM1.CUBE
TITLE "Generated by Resolve"
LUT_3D_SIZE 5
0.0393072 0.0556649 0.0569924
0.258061 0.0700542 0.0455482
0.478553 0.0664073 0.0192569
0.671427 0.0378119 0.00863661
0.841627 0.00262455 0
0 0.212833 0.0644694
0.266972 0.238865 0.039292
0.517113 0.262501 0
0.71989 0.272007 0
0.884733 0.230121 0
0 0.396262 0.0684367
0.255741 0.42887 0.000350958
0.530312 0.462959 0
0.750729 0.479576 0
0.933837 0.437919 0
0 0.547097 0.0542153
0.1832 0.60412 0
0.534295 0.658595 0
0.775311 0.687831 0
0.979767 0.660273 0
0 0.652644 0
0.0844739 0.698039 0
0.305959 0.767819 0
0.659937 0.843565 0
1 0.902296 0
0.00531014 0.0539712 0.268132
0.25539 0.0685893 0.274632
0.481498 0.061677 0.28072
0.676829 0.0177157 0.288273
0.84889 0 0.256107
0 0.230228 0.296895
0.248447 0.252705 0.289219
0.511177 0.268086 0.291325
0.711177 0.26772 0.28893
0.876265 0.201266 0.227634
0 0.42089 0.322499
0.158312 0.441169 0.288655
0.502739 0.463416 0.272465
0.730526 0.472114 0.267765
0.919814 0.417655 0.205646
0 0.577157 0.323583
0.0843824 0.617578 0.290333
0.487572 0.656886 0.261036
0.74316 0.677348 0.237491
0.958618 0.639643 0.141421
0 0.672541 0.221271
0.0843519 0.70634 0.186328
0.217914 0.767071 0.117403
0.634714 0.842268 0.0844129
0.996094 0.905806 0.0844434
0 0.0239719 0.438682
0.25478 0.0547951 0.45713
0.487495 0.0327611 0.474113
0.687495 0.00836194 0.48777
0.858351 0 0.457938
0 0.233539 0.489464
0.234897 0.263584 0.495705
0.509575 0.275898 0.507286
0.713115 0.273335 0.504784
0.880629 0.203738 0.445167
0 0.433982 0.527642
0.0991073 0.457038 0.512398
0.48748 0.47863 0.510704
0.729778 0.486137 0.508217
0.922057 0.428595 0.452308
0 0.598001 0.538689
0.0843366 0.639826 0.525673
0.449577 0.676448 0.510826
0.730617 0.69662 0.503395
0.956069 0.654047 0.452766
0 0.69926 0.432441
0.0844129 0.732372 0.416724
0.17232 0.790936 0.408072
0.610391 0.863432 0.424353
0.979065 0.916793 0.428779
0 0 0.595331
0.255573 0.0250553 0.618387
0.492515 0.0105592 0.641779
0.695506 0 0.658625
0.867231 0 0.634943
0 0.225772 0.651118
0.224292 0.268605 0.663676
0.501991 0.279652 0.682094
0.71162 0.275196 0.6851
0.884215 0.200549 0.633478
0 0.436271 0.696742
0.0978256 0.464103 0.692592
0.474861 0.486275 0.702602
0.725292 0.49482 0.707179
0.923018 0.434974 0.654032
0 0.608301 0.716121
0.0843671 0.651637 0.715221
0.419379 0.687541 0.71136
0.71931 0.708797 0.713863
0.955444 0.664012 0.667582
0 0.720104 0.629099
0.0844129 0.756069 0.626352
0.170871 0.817319 0.633173
0.59353 0.888991 0.660227
0.975769 0.943511 0.687068
0 0 0.770062
0.236667 0.0844739 0.801007
0.485023 0.0894636 0.829526
0.694667 0.0659648 0.845319
0.881682 0 0.841779
0 0.214771 0.816571
0.155627 0.277043 0.840772
0.469444 0.290105 0.865827
0.693782 0.284291 0.878309
0.888334 0.178607 0.859831
0 0.420615 0.863828
0.0845197 0.452369 0.879149
0.429999 0.478965 0.895308
0.69604 0.490166 0.912688
0.918853 0.42678 0.896941
0 0.601312 0.895186
0.0845502 0.641566 0.912718
0.354055 0.678004 0.91957
0.680964 0.699565 0.938735
0.945281 0.659281 0.929961
0 0.736553 0.87866
0.0843671 0.774182 0.894743
0.171008 0.839536 0.914855
0.554818 0.911513 0.938262
0.96582 0.966278 0.964904
