assets/luts/LDmono1.cube
TITLE "LD - Earthy Monochrome 1"
# Copyright (c) 2019 Lens Distortions, LLC. All Rights Reserved.
# LensDistortions.com
# ref-EM10
LUT_3D_SIZE 5
0.0187991 0.0252995 0.0287785
0.247288 0.0695506 0.0472725
0.548058 0.127428 0.0390173
0.815122 0.183032 0.0347753
0.962524 0.202304 0.0341955
0.0697337 0.240345 0.130251
0.231174 0.240253 0.0905928
0.513619 0.262608 0.0718853
0.791577 0.302235 0.0626383
0.965866 0.319448 0.0517891
0.128099 0.468528 0.245365
0.271504 0.455329 0.246174
0.47808 0.48127 0.16939
0.762417 0.49752 0.140841
0.964736 0.506355 0.132479
0.186175 0.694072 0.355489
0.313207 0.677638 0.356359
0.491981 0.702358 0.32987
0.727214 0.727016 0.243061
0.960922 0.735073 0.216602
0.23331 0.882094 0.444358
0.335851 0.87396 0.447486
0.537209 0.891295 0.462852
0.717494 0.937179 0.376928
0.957076 0.958587 0.323293
0.0269017 0.0340887 0.137514
0.25095 0.072221 0.255283
0.525444 0.127123 0.259449
0.795483 0.181064 0.244358
0.949172 0.200427 0.228504
0.028275 0.250751 0.268513
0.227695 0.234623 0.247913
0.471641 0.272068 0.231571
0.748226 0.318288 0.226535
0.958312 0.314549 0.208545
0.087129 0.48191 0.329793
0.313069 0.450858 0.394491
0.533532 0.463233 0.299992
0.766537 0.490379 0.266423
0.963012 0.502297 0.246479
0.15613 0.70489 0.424979
0.330358 0.681239 0.458717
0.518196 0.694591 0.447333
0.730694 0.724163 0.350057
0.961669 0.733577 0.317571
0.211673 0.892485 0.504555
0.320897 0.881453 0.507912
0.54139 0.891936 0.53547
0.724392 0.934066 0.482979
0.957626 0.959121 0.417472
0.0359503 0.0461128 0.310994
0.250401 0.0809186 0.472572
0.52137 0.128893 0.507469
0.779965 0.184924 0.495048
0.933318 0.207584 0.482124
0.0428779 0.244999 0.473136
0.18822 0.26363 0.37557
0.491569 0.259174 0.483375
0.757839 0.305318 0.463905
0.941329 0.319646 0.462806
0.0456092 0.493217 0.51545
0.252064 0.462745 0.529503
0.473487 0.474907 0.489052
0.745373 0.494865 0.467933
0.957214 0.501595 0.461067
0.0950637 0.725002 0.557504
0.26656 0.700557 0.563439
0.5149 0.696986 0.57142
0.731853 0.723049 0.518486
0.962692 0.731823 0.493278
0.157687 0.914122 0.611307
0.275731 0.900847 0.607843
0.534401 0.899397 0.637705
0.743709 0.927153 0.646647
0.958587 0.960113 0.566873
0.0437781 0.0590524 0.544137
0.250431 0.0886549 0.686793
0.509224 0.134005 0.742306
0.77615 0.186084 0.748425
0.932509 0.210254 0.735286
0.0510872 0.244511 0.678584
0.213413 0.285267 0.559701
0.471626 0.266484 0.703914
0.754818 0.299733 0.730663
0.935363 0.322377 0.716731
0.0578622 0.485359 0.733272
0.236835 0.470603 0.686412
0.445838 0.488411 0.660166
0.740581 0.491859 0.727245
0.942351 0.50544 0.715145
0.0614939 0.732784 0.761669
0.212375 0.711543 0.750805
0.458976 0.713619 0.745663
0.723629 0.722423 0.739025
0.958816 0.730892 0.727153
0.097734 0.936156 0.781201
0.206714 0.925734 0.769818
0.473182 0.924269 0.773678
0.751476 0.929107 0.800046
0.95993 0.961547 0.760235
0.0472267 0.0646067 0.67866
0.248463 0.0910201 0.799435
0.495232 0.137346 0.85095
0.768887 0.186954 0.887877
0.933425 0.211612 0.891783
0.0548714 0.242542 0.801389
0.228397 0.236683 0.796246
0.467918 0.263874 0.833463
0.745418 0.29749 0.889418
0.93608 0.321263 0.895109
0.0711376 0.477577 0.86363
0.236057 0.463294 0.844205
0.471122 0.473533 0.845487
0.727977 0.49044 0.894484
0.942565 0.503594 0.907347
0.0653849 0.725643 0.926574
0.207004 0.707408 0.912947
0.468009 0.708659 0.905119
0.722652 0.72221 0.901869
0.951858 0.731411 0.930877
0.0763561 0.944244 0.959197
0.18024 0.93521 0.950347
0.436667 0.937209 0.950942
0.702541 0.947738 0.95671
0.96051 0.962188 0.962203
