assets/luts/LDmono2.cube
TITLE "LD - Earthy Monochrome 2"
# Copyright (c) 2019 Lens Distortions, LLC. All Rights Reserved.
# LensDistortions.com
# ref-EM10
LUT_3D_SIZE 33
0.0142367 0.018555 0.0209659
0.0221103 0.0204776 0.0226139
0.0320439 0.0229801 0.0247959
0.0464179 0.0264439 0.027451
0.0662089 0.0307774 0.0303655
0.0928817 0.0361486 0.0333867
0.125032 0.0420844 0.0360876
0.160784 0.0479133 0.0377661
0.1991 0.0533608 0.0384222
0.23888 0.0586252 0.0380255
0.280247 0.0637369 0.0370031
0.320897 0.0684062 0.0353094
0.362219 0.0733043 0.0333867
0.402411 0.0782483 0.0313573
0.441123 0.082887 0.0292058
0.478737 0.0880903 0.0275273
0.513634 0.0940719 0.027039
0.547494 0.100252 0.0267796
0.58114 0.106203 0.0266423
0.615076 0.112535 0.0265354
0.649241 0.11899 0.0264591
0.683497 0.125628 0.0263523
0.718074 0.132647 0.0263828
0.752941 0.139696 0.0264134
0.788159 0.147127 0.026627
0.823362 0.154635 0.0268559
0.858595 0.162905 0.0274357
0.890394 0.169528 0.0276951
0.907591 0.169619 0.0278325
0.924651 0.169757 0.0280156
0.941741 0.170184 0.0283055
0.952926 0.170367 0.0284733
0.952926 0.170367 0.0284733
0.0180667 0.0294347 0.0267491
0.0266423 0.0304112 0.0281376
0.0369268 0.0331884 0.0293889
0.0521859 0.0368658 0.0317845
0.0718853 0.0408026 0.0339513
0.0985885 0.0458534 0.0360876
0.130007 0.0510872 0.0377203
0.166659 0.0565347 0.0383917
0.204623 0.0616007 0.0381781
0.243717 0.0665904 0.0370642
0.283864 0.0716411 0.0354162
0.323857 0.0764935 0.0335699
0.363729 0.0813306 0.0315557
0.402686 0.086183 0.0294194
0.439796 0.0911116 0.0273899
0.476432 0.0969711 0.0260777
0.51075 0.102907 0.0260319
0.54432 0.108766 0.0260166
0.578241 0.114961 0.025864
0.611994 0.121126 0.0257267
0.646204 0.127703 0.0257115
0.68072 0.134447 0.0256809
0.715343 0.141482 0.0257725
0.750408 0.148608 0.0258946
0.785748 0.156069 0.026154
0.821073 0.16408 0.0263676
0.856458 0.17229 0.0270848
0.890379 0.17969 0.027451
0.907515 0.179782 0.0277409
0.924483 0.179614 0.0279545
0.941558 0.179644 0.0282444
0.953658 0.179675 0.0284428
0.953628 0.179324 0.0284428
0.024979 0.0435492 0.0348669
0.032517 0.0440223 0.0361944
0.0414282 0.0467384 0.0374456
0.0557107 0.0496834 0.0363622
0.0771038 0.0530861 0.0373693
0.103578 0.0572518 0.0386664
0.136156 0.0624857 0.0394598
0.171984 0.0677348 0.0395514
0.209323 0.0728466 0.0386969
0.247868 0.077821 0.0372015
0.286458 0.0826886 0.0349889
0.325551 0.0875715 0.0325933
0.364157 0.092256 0.0300603
0.40177 0.0970169 0.027512
0.438468 0.10193 0.0254826
0.473182 0.107637 0.0250858
0.507179 0.113512 0.0250248
0.541054 0.119341 0.0250248
0.575036 0.12607 0.0249485
0.608682 0.132357 0.0248875
0.643229 0.139055 0.024918
0.677729 0.145708 0.0250095
0.712718 0.152605 0.0252079
0.748058 0.159808 0.0254368
0.783169 0.167178 0.0257267
0.818524 0.174868 0.0261234
0.854047 0.182727 0.026978
0.889448 0.19115 0.027451
0.90753 0.191501 0.0277562
0.924468 0.191211 0.0279698
0.941466 0.191104 0.0282292
0.954452 0.191165 0.0284276
0.954421 0.190829 0.0284276
0.031754 0.0607462 0.0442206
0.0385138 0.0619821 0.0456397
0.0480049 0.0631876 0.0473182
0.0586862 0.0665293 0.043946
0.0800793 0.0702068 0.0424201
0.107378 0.0731365 0.0417487
0.140475 0.0775464 0.0415198
0.176745 0.0828107 0.0408179
0.212696 0.0870222 0.0393378
0.250095 0.0917372 0.0375372
0.288045 0.096437 0.0351415
0.32607 0.101167 0.032578
0.362997 0.105455 0.0301213
0.399542 0.110109 0.0279088
0.434745 0.115465 0.0266575
0.469062 0.12105 0.0257572
0.503395 0.126543 0.0251469
0.537438 0.132525 0.0247807
0.571572 0.138735 0.0243687
0.606027 0.14493 0.0242313
0.640589 0.151507 0.0244602
0.675425 0.158083 0.0246738
0.71017 0.165133 0.0249638
0.745586 0.172351 0.0253147
0.780896 0.17998 0.0256962
0.816449 0.187533 0.0261387
0.851804 0.19559 0.0269322
0.887129 0.203311 0.0274052
0.907713 0.204654 0.0277256
0.924681 0.204349 0.0279698
0.941726 0.20415 0.0282444
0.955642 0.203922 0.0284733
0.955612 0.20351 0.0284733
0.0383917 0.0839246 0.055314
0.0441901 0.084062 0.0560922
0.0545205 0.08542 0.0577859
0.0660563 0.087541 0.0580606
0.081529 0.0916457 0.0501717
0.109056 0.0945754 0.0471962
0.142687 0.0983444 0.0448768
0.178241 0.101961 0.0431678
0.215 0.106035 0.0413825
0.251865 0.110109 0.0392462
0.288548 0.113756 0.0368811
0.324575 0.1178 0.0343023
0.361318 0.122148 0.0323644
0.396124 0.12694 0.0309911
0.430518 0.131868 0.0300603
0.464836 0.13698 0.029099
0.499413 0.142382 0.0286717
0.534264 0.148272 0.0281224
0.568399 0.154025 0.027512
0.603037 0.160174 0.0267185
0.638117 0.166567 0.0259251
0.672786 0.172992 0.0251011
0.708125 0.179858 0.0249332
0.743175 0.186831 0.0252689
0.778683 0.19411 0.0256809
0.814237 0.201526 0.0260624
0.849653 0.209171 0.0269322
0.885008 0.216968 0.0273899
0.908202 0.219348 0.0277562
0.925017 0.218906 0.027985
0.942168 0.218631 0.028275
0.956664 0.218296 0.0284581
0.956634 0.217838 0.0284581
0.0442359 0.111925 0.067155
0.0492409 0.111681 0.067628
0.0601511 0.112474 0.068986
0.073228 0.113863 0.0700847
0.0874037 0.11725 0.0661326
0.10956 0.12079 0.0542916
0.142306 0.123507 0.0502785
0.178134 0.126314 0.0469368
0.214343 0.129488 0.0445258
0.250309 0.132052 0.0421912
0.286458 0.135546 0.0402075
0.322316 0.138872 0.0385901
0.357122 0.142702 0.0376287
0.39176 0.146975 0.0368658
0.426429 0.151537 0.0359503
0.461418 0.156435 0.0351415
0.495964 0.161379 0.0346838
0.53077 0.166964 0.0337987
0.56553 0.172885 0.0329747
0.600046 0.1785 0.0320897
0.63505 0.184573 0.03122
0.67013 0.19086 0.0304265
0.705165 0.197116 0.0293431
0.740902 0.203784 0.0283207
0.776547 0.210758 0.0272984
0.812284 0.217716 0.0267948
0.847807 0.22501 0.0270695
0.883024 0.232578 0.0273747
0.908598 0.235737 0.0277256
0.925658 0.23537 0.0280156
0.942718 0.234958 0.0282292
0.957961 0.234562 0.0284581
0.957839 0.233967 0.0284428
0.0493324 0.143694 0.079408
0.0535897 0.14287 0.0795605
0.0649577 0.143267 0.0808576
0.0788434 0.143618 0.0818494
0.0949721 0.145388 0.0811933
0.112444 0.149447 0.0696727
0.141024 0.151904 0.0578775
0.17496 0.153872 0.0535134
0.211276 0.155993 0.0496376
0.247318 0.15819 0.047303
0.283009 0.160693 0.0461128
0.31783 0.163561 0.0451209
0.35285 0.166995 0.0442664
0.387747 0.170703 0.0436866
0.422827 0.174701 0.0428321
0.457755 0.17911 0.0420539
0.492775 0.183825 0.0418402
0.527764 0.188632 0.0409857
0.562356 0.19382 0.0402533
0.597238 0.199222 0.0393683
0.631815 0.204685 0.0384375
0.667216 0.21062 0.0375067
0.702403 0.216693 0.0364843
0.737881 0.22295 0.0353094
0.773754 0.229679 0.0343328
0.809369 0.236423 0.0331121
0.844953 0.243137 0.0320287
0.880659 0.250156 0.0306706
0.908995 0.254261 0.0296635
0.925994 0.25362 0.0295415
0.943297 0.253223 0.0295109
0.959289 0.252796 0.0294652
0.959182 0.252094 0.0292973
0.0541543 0.175875 0.091722
0.0584573 0.174884 0.0917525
0.0691081 0.17438 0.092546
0.0836347 0.173983 0.093431
0.100618 0.174365 0.0935836
0.118959 0.176349 0.088426
0.140459 0.180545 0.0711833
0.171984 0.182467 0.0624399
0.206546 0.184009 0.0589456
0.24213 0.185946 0.055787
0.277897 0.187854 0.0537423
0.313313 0.190127 0.0524758
0.348501 0.193057 0.0515602
0.383841 0.195956 0.0508431
0.418997 0.199512 0.0500191
0.454292 0.203479 0.0492256
0.489433 0.207233 0.0488899
0.524315 0.21181 0.0481117
0.559075 0.216358 0.047425
0.594125 0.221408 0.0466621
0.629068 0.226459 0.0458534
0.664225 0.231907 0.0449836
0.699657 0.237644 0.0441749
0.735134 0.243565 0.0431067
0.770718 0.249546 0.0420844
0.80676 0.255879 0.0409857
0.842084 0.262287 0.0400854
0.877852 0.269276 0.038819
0.908827 0.274403 0.0379492
0.926009 0.27364 0.0374304
0.943114 0.272938 0.0369268
0.959808 0.272267 0.036408
0.959792 0.271534 0.0360876
0.0590677 0.205249 0.103365
0.0632639 0.204074 0.103243
0.0730144 0.20351 0.10399
0.0881208 0.202686 0.105013
0.105531 0.202182 0.105638
0.125505 0.203052 0.104219
0.145296 0.206821 0.0930648
0.170504 0.210788 0.0767529
0.203189 0.212528 0.0701305
0.237491 0.214237 0.0666819
0.272984 0.215961 0.0632181
0.308476 0.217609 0.0607767
0.344182 0.219913 0.0593729
0.379721 0.2224 0.05832
0.415229 0.22562 0.057435
0.450507 0.228763 0.0565194
0.48574 0.232105 0.0556039
0.52079 0.235843 0.0553292
0.555718 0.239994 0.0545663
0.59089 0.244495 0.0538338
0.626017 0.249241 0.0530251
0.661433 0.254322 0.0522927
0.696635 0.259403 0.0514534
0.732326 0.264927 0.05066
0.768032 0.27068 0.0497597
0.803784 0.276677 0.0487984
0.839628 0.28304 0.0482795
0.875227 0.289342 0.0471809
0.908751 0.295079 0.0461128
0.92607 0.294331 0.0457008
0.943145 0.293462 0.045182
0.960204 0.292866 0.0448005
0.960189 0.292088 0.0445258
0.0660868 0.233494 0.116182
0.0701457 0.232532 0.116213
0.0786297 0.231434 0.116655
0.0935531 0.230411 0.117647
0.111254 0.229923 0.118639
0.131884 0.230015 0.118502
0.152453 0.232486 0.113237
0.173068 0.237629 0.0978256
0.201007 0.240833 0.0837415
0.23389 0.242374 0.0781262
0.268238 0.244099 0.0745556
0.303624 0.245838 0.0709239
0.339483 0.247684 0.0682078
0.375189 0.249958 0.0664683
0.410849 0.252308 0.0652018
0.446372 0.254887 0.0640116
0.481743 0.257771 0.0630198
0.517235 0.261295 0.0622873
0.552239 0.264836 0.0619516
0.587716 0.268894 0.0612192
0.622766 0.273243 0.0603952
0.658091 0.277607 0.059617
0.693812 0.282414 0.0588083
0.729519 0.287465 0.0579843
0.765286 0.292882 0.0570993
0.801114 0.298207 0.05626
0.837064 0.304295 0.0558328
0.872862 0.310414 0.054963
0.908446 0.316777 0.0539406
0.925856 0.316014 0.0535897
0.943099 0.315007 0.0531167
0.960281 0.31429 0.0527962
0.960662 0.313588 0.0525521
0.0733043 0.261372 0.129244
0.0771649 0.260441 0.129244
0.0844739 0.259236 0.129458
0.0991379 0.258259 0.130556
0.116884 0.25745 0.131563
0.137774 0.257343 0.132128
0.159594 0.259068 0.130251
0.179629 0.263188 0.120592
0.202075 0.268315 0.103182
0.231678 0.270985 0.0915541
0.264607 0.272312 0.0863966
0.299001 0.273915 0.0825513
0.33431 0.275914 0.0787213
0.370291 0.277806 0.0756695
0.406104 0.279744 0.0737774
0.441917 0.281926 0.072221
0.47776 0.28455 0.0709087
0.513115 0.287434 0.0699321
0.548577 0.2907 0.0691386
0.583978 0.294316 0.0688487
0.619303 0.298192 0.0680095
0.654902 0.301885 0.0670329
0.690623 0.30634 0.066331
0.726482 0.310948 0.0654154
0.762478 0.315923 0.0646067
0.798352 0.321233 0.063798
0.834363 0.32668 0.0634928
0.870161 0.332464 0.062562
0.905898 0.338277 0.0615854
0.925795 0.338384 0.0612039
0.943114 0.337499 0.0608072
0.960311 0.336721 0.0608988
0.960906 0.335988 0.0606241
0.0804608 0.289219 0.142321
0.0841382 0.28835 0.142306
0.090425 0.286915 0.142321
0.104921 0.286061 0.143511
0.122637 0.285161 0.144701
0.143511 0.284977 0.145632
0.165866 0.285695 0.145083
0.186923 0.288991 0.140185
0.207095 0.294194 0.126452
0.231693 0.298924 0.109651
0.262242 0.301106 0.0997635
0.295689 0.302602 0.0948959
0.329915 0.304189 0.090959
0.365377 0.305989 0.0869001
0.401205 0.307897 0.0835584
0.437293 0.309743 0.081239
0.473381 0.31194 0.0794537
0.509148 0.314549 0.0781262
0.544762 0.317372 0.0771496
0.580072 0.32047 0.0761273
0.615473 0.323659 0.075639
0.65127 0.327169 0.0747692
0.687205 0.331167 0.073991
0.723156 0.335439 0.0730755
0.75967 0.340093 0.0723583
0.795544 0.344778 0.0713664
0.831693 0.349844 0.0711528
0.86743 0.35523 0.0702525
0.903273 0.360723 0.0693217
0.925643 0.361624 0.0689708
0.94287 0.360769 0.068513
0.96022 0.360006 0.0690776
0.961242 0.359274 0.068986
0.0877241 0.317327 0.155703
0.0910964 0.316121 0.155489
0.0972457 0.314855 0.155535
0.11075 0.314199 0.156725
0.128084 0.313085 0.157794
0.148745 0.312566 0.158816
0.171847 0.313085 0.159396
0.193988 0.315373 0.157183
0.214466 0.319936 0.14876
0.235325 0.325399 0.132326
0.261799 0.329427 0.116854
0.293111 0.331273 0.108171
0.326543 0.332723 0.103548
0.361013 0.334356 0.0995041
0.396277 0.336172 0.0952316
0.432517 0.338018 0.0916304
0.468589 0.339956 0.0890516
0.504646 0.342107 0.087068
0.540337 0.344442 0.0855879
0.575998 0.347189 0.0842756
0.611673 0.35021 0.0831617
0.647745 0.35346 0.0827192
0.683726 0.357076 0.0819409
0.720119 0.360891 0.0809644
0.756359 0.36495 0.0801404
0.792432 0.369238 0.079118
0.828931 0.373907 0.0789654
0.864866 0.378958 0.0780804
0.900603 0.384146 0.0771191
0.925505 0.385885 0.0766155
0.942702 0.384756 0.0762493
0.960113 0.383963 0.0772106
0.961456 0.383169 0.0772259
0.0948959 0.345296 0.168963
0.0984207 0.344244 0.168826
0.104326 0.343084 0.168917
0.116381 0.342138 0.169741
0.133593 0.341192 0.171038
0.154299 0.340475 0.172259
0.177676 0.340627 0.173129
0.200504 0.342245 0.172564
0.221866 0.346029 0.168048
0.24213 0.351492 0.1561
0.26424 0.356664 0.138537
0.292134 0.360159 0.124834
0.323857 0.36173 0.116945
0.35758 0.362966 0.112322
0.392172 0.364706 0.108232
0.427695 0.366583 0.103822
0.463783 0.368322 0.0999924
0.500023 0.370367 0.0970779
0.535897 0.372457 0.0948653
0.571878 0.374853 0.0932326
0.607828 0.377584 0.0919203
0.644083 0.380301 0.0906081
0.680415 0.383703 0.0902419
0.71667 0.387106 0.0891737
0.753017 0.390707 0.0882124
0.789364 0.394766 0.0872511
0.825772 0.399023 0.0867933
0.862089 0.403616 0.0861677
0.8981 0.408515 0.0852064
0.92517 0.410636 0.0845502
0.94255 0.409476 0.084062
0.959899 0.408667 0.0848859
0.961532 0.407843 0.0848707
0.102052 0.373251 0.18233
0.10544 0.372427 0.1823
0.111452 0.371221 0.182376
0.122011 0.370245 0.183108
0.139071 0.369146 0.184237
0.159503 0.368322 0.185489
0.183139 0.368277 0.186648
0.206638 0.369635 0.187213
0.229084 0.372778 0.185153
0.249592 0.377249 0.177462
0.269673 0.382742 0.162585
0.293523 0.387549 0.145052
0.322713 0.390524 0.132921
0.355169 0.392325 0.125841
0.388846 0.393652 0.121263
0.423453 0.395254 0.117128
0.45919 0.397177 0.112596
0.495109 0.398978 0.108705
0.531319 0.400824 0.105486
0.567391 0.402899 0.103197
0.603723 0.405386 0.101259
0.640162 0.408103 0.0996719
0.676616 0.410925 0.0983749
0.7131 0.413825 0.097261
0.749569 0.417258 0.0966354
0.786084 0.420935 0.0955825
0.822736 0.424842 0.0948196
0.859083 0.429145 0.0944076
0.895155 0.433555 0.093431
0.924559 0.436179 0.0926986
0.942184 0.43508 0.0922408
0.959487 0.434195 0.0938582
0.96144 0.433371 0.0942092
0.109697 0.401633 0.196078
0.112535 0.400748 0.195972
0.118395 0.399374 0.195834
0.12755 0.398459 0.196414
0.144289 0.39733 0.197559
0.16466 0.396521 0.198947
0.188479 0.396262 0.200336
0.212619 0.397314 0.20148
0.235523 0.399771 0.200992
0.257023 0.403677 0.196704
0.277028 0.408667 0.186084
0.297932 0.414313 0.169299
0.323201 0.418601 0.152712
0.353506 0.421332 0.141588
0.386282 0.42298 0.13492
0.420127 0.424155 0.130236
0.454932 0.425772 0.126085
0.490364 0.42771 0.121447
0.526406 0.42948 0.117311
0.562432 0.431556 0.114
0.59913 0.43386 0.111498
0.635889 0.436027 0.109438
0.672419 0.438575 0.107637
0.709209 0.441352 0.106218
0.745907 0.444419 0.10515
0.782544 0.447715 0.104356
0.819303 0.451347 0.10338
0.855772 0.455116 0.102327
0.891981 0.459251 0.101946
0.923919 0.462318 0.101152
0.941543 0.461219 0.100572
0.958816 0.459907 0.102327
0.961059 0.45919 0.103105
0.116991 0.430014 0.209567
0.119585 0.429084 0.2094
0.12546 0.427817 0.20943
0.133242 0.426841 0.209873
0.149737 0.425635 0.211002
0.170169 0.424781 0.212421
0.193866 0.424323 0.21387
0.218204 0.425193 0.215305
0.241779 0.427344 0.215976
0.264088 0.430564 0.21387
0.284733 0.435035 0.206897
0.304494 0.440345 0.193545
0.32668 0.445838 0.175875
0.353704 0.449989 0.160678
0.384421 0.452338 0.150607
0.417456 0.453803 0.144137
0.451606 0.455055 0.139483
0.486397 0.456764 0.135271
0.521996 0.458824 0.130617
0.558129 0.4607 0.126436
0.594461 0.462623 0.12282
0.631281 0.464759 0.120089
0.668116 0.467002 0.117739
0.704921 0.469459 0.115969
0.741894 0.472084 0.114382
0.779004 0.475105 0.113146
0.815457 0.478233 0.112261
0.852125 0.481788 0.111254
0.888563 0.485603 0.110216
0.92314 0.489036 0.109865
0.940597 0.487648 0.109133
0.958083 0.48661 0.11043
0.960754 0.485908 0.111192
0.124269 0.458259 0.223072
0.126619 0.457343 0.222873
0.13254 0.45626 0.222995
0.139086 0.455192 0.223255
0.155138 0.454078 0.224323
0.175586 0.453437 0.225986
0.199191 0.452888 0.227451
0.223682 0.453269 0.228977
0.247639 0.455009 0.23032
0.270726 0.457862 0.22977
0.292241 0.461784 0.225727
0.312566 0.466972 0.216205
0.33286 0.472602 0.200671
0.356283 0.477714 0.182895
0.38436 0.481117 0.169253
0.415839 0.483314 0.159533
0.449195 0.484642 0.153368
0.483238 0.486076 0.148882
0.518166 0.487907 0.144686
0.553841 0.489998 0.13994
0.589746 0.491753 0.135454
0.626459 0.493614 0.131624
0.663417 0.495521 0.128649
0.700511 0.497642 0.126131
0.737835 0.500237 0.124285
0.774807 0.502815 0.122515
0.81178 0.50576 0.121111
0.848539 0.508843 0.120546
0.88513 0.512337 0.119356
0.921202 0.515892 0.118135
0.939818 0.514992 0.118196
0.957488 0.513909 0.119356
0.960555 0.513069 0.120134
0.131655 0.486824 0.236927
0.133791 0.486061 0.236744
0.139651 0.484855 0.236728
0.146151 0.483787 0.236927
0.160891 0.482948 0.238102
0.180972 0.481849 0.239475
0.204456 0.481163 0.241001
0.229191 0.481468 0.242634
0.253666 0.483146 0.244511
0.277348 0.48571 0.245029
0.299641 0.489143 0.242786
0.320394 0.493614 0.236316
0.340276 0.498924 0.224262
0.361471 0.504692 0.207233
0.386282 0.50959 0.190143
0.415427 0.512566 0.177722
0.447517 0.514687 0.16846
0.480995 0.516167 0.162676
0.515053 0.517357 0.158129
0.549889 0.518944 0.15407
0.58558 0.52079 0.149157
0.622003 0.522683 0.144594
0.6589 0.524407 0.140581
0.696193 0.526635 0.137392
0.733486 0.528756 0.134844
0.770703 0.531136 0.132647
0.807874 0.53373 0.130953
0.844602 0.536461 0.129412
0.881346 0.539528 0.128588
0.9178 0.542962 0.127443
0.938964 0.542733 0.126909
0.95642 0.541421 0.128222
0.959854 0.540612 0.129107
0.13901 0.515511 0.250767
0.140887 0.514656 0.250568
0.146746 0.513512 0.250629
0.153384 0.512703 0.251026
0.166705 0.511543 0.251835
0.186481 0.510521 0.253254
0.209735 0.509941 0.254871
0.234653 0.510048 0.256596
0.259312 0.511376 0.258488
0.283665 0.513802 0.259785
0.30663 0.516884 0.259098
0.328191 0.520821 0.255146
0.348501 0.52575 0.246342
0.368536 0.531304 0.231998
0.3906 0.536675 0.214008
0.416785 0.540963 0.198108
0.446662 0.543984 0.186419
0.478935 0.545724 0.177554
0.512505 0.547219 0.172015
0.546792 0.548455 0.167437
0.581765 0.550103 0.163256
0.6177 0.551919 0.158434
0.654521 0.553933 0.153887
0.691707 0.555673 0.149798
0.728908 0.557473 0.146197
0.766262 0.55964 0.143511
0.803479 0.561975 0.141192
0.840681 0.56466 0.139345
0.877745 0.567727 0.137896
0.914504 0.570871 0.136934
0.937819 0.570809 0.136202
0.955581 0.569711 0.136995
0.959258 0.568902 0.138109
0.14638 0.544152 0.264668
0.148043 0.543435 0.264515
0.153948 0.542412 0.264637
0.16051 0.541543 0.265003
0.172274 0.54049 0.265629
0.191852 0.53959 0.267201
0.214878 0.538827 0.268833
0.239857 0.538674 0.270604
0.264851 0.53991 0.272694
0.289723 0.542184 0.274617
0.313252 0.544839 0.274968
0.335393 0.548287 0.27274
0.356237 0.552529 0.266606
0.376318 0.557733 0.255573
0.396857 0.563485 0.239368
0.420264 0.568902 0.221485
0.447486 0.572747 0.206607
0.477882 0.575204 0.195453
0.510414 0.577005 0.187106
0.543877 0.578424 0.181582
0.578363 0.579522 0.176852
0.613977 0.581415 0.172549
0.65008 0.583139 0.167697
0.686946 0.585016 0.162951
0.72433 0.586908 0.158862
0.761669 0.588815 0.155322
0.799252 0.590982 0.152575
0.836652 0.593469 0.150225
0.873854 0.59617 0.148348
0.910491 0.598978 0.146563
0.936614 0.599786 0.145922
0.954406 0.598352 0.146578
0.958434 0.597604 0.147784
0.153964 0.573465 0.279072
0.155383 0.572915 0.27895
0.161151 0.571618 0.278782
0.167712 0.570687 0.279088
0.177996 0.569772 0.279789
0.19707 0.568704 0.281178
0.22031 0.567758 0.282826
0.245274 0.56788 0.284932
0.270527 0.568826 0.287083
0.29546 0.570611 0.289143
0.319417 0.573083 0.290135
0.342046 0.576074 0.289097
0.363714 0.579995 0.285405
0.384298 0.584848 0.277424
0.404395 0.590295 0.264164
0.425528 0.595987 0.246937
0.449744 0.6009 0.229129
0.477821 0.604379 0.215228
0.508736 0.60679 0.204807
0.541482 0.608545 0.196796
0.575433 0.609964 0.191211
0.610636 0.61146 0.186664
0.646265 0.613016 0.182239
0.682567 0.614664 0.177188
0.719509 0.616403 0.172198
0.75697 0.618326 0.168078
0.794736 0.620615 0.16463
0.832227 0.622812 0.161715
0.869474 0.625254 0.159274
0.906645 0.627863 0.157473
0.935241 0.628962 0.155962
0.953109 0.627894 0.156619
0.957656 0.627176 0.158434
0.161501 0.602655 0.293187
0.162539 0.601999 0.293004
0.168658 0.600885 0.293156
0.175036 0.59997 0.293462
0.183352 0.59884 0.293767
0.20206 0.597879 0.295262
0.22533 0.597162 0.297139
0.250065 0.596811 0.299001
0.275395 0.597543 0.301152
0.300526 0.599176 0.30341
0.325078 0.60145 0.305104
0.348409 0.604242 0.305226
0.370779 0.607828 0.303059
0.391852 0.61207 0.297459
0.412146 0.617105 0.287404
0.432303 0.622629 0.272465
0.454337 0.628214 0.254459
0.479683 0.632914 0.237629
0.508659 0.636362 0.224399
0.540032 0.638804 0.214649
0.573098 0.640482 0.206882
0.607553 0.641779 0.201221
0.642664 0.643076 0.196521
0.678492 0.644633 0.191852
0.715145 0.646494 0.186816
0.752468 0.648447 0.181918
0.790051 0.650507 0.17763
0.827604 0.652613 0.174151
0.865064 0.654902 0.171115
0.902083 0.657237 0.168658
0.933639 0.6589 0.166949
0.951782 0.657862 0.1673
0.956603 0.657252 0.169314
0.169024 0.631815 0.307561
0.169787 0.631251 0.307362
0.17583 0.630121 0.3075
0.182193 0.629236 0.307866
0.189624 0.628214 0.30811
0.207126 0.627344 0.309575
0.229908 0.626444 0.311238
0.254673 0.625956 0.31313
0.280171 0.626352 0.315328
0.305699 0.628061 0.317952
0.330465 0.630014 0.319905
0.354467 0.63267 0.320851
0.37731 0.635859 0.319921
0.399039 0.639612 0.316213
0.419715 0.644175 0.308782
0.440192 0.649729 0.297017
0.460792 0.655421 0.280735
0.483528 0.660807 0.262623
0.509911 0.665278 0.246723
0.53933 0.668498 0.23389
0.571267 0.670756 0.224445
0.604852 0.672358 0.216815
0.63949 0.673671 0.2112
0.674922 0.674983 0.206455
0.711406 0.67686 0.201877
0.748135 0.678813 0.196841
0.78529 0.68069 0.191684
0.822889 0.682734 0.187396
0.86038 0.684794 0.183703
0.897704 0.687221 0.180621
0.932128 0.689265 0.178393
0.950149 0.688182 0.178103
0.955489 0.687556 0.179904
0.176913 0.661112 0.322133
0.177218 0.660639 0.32195
0.182956 0.65951 0.321981
0.189425 0.65864 0.322316
0.19678 0.657923 0.322744
0.212299 0.65687 0.323857
0.234302 0.655848 0.325536
0.259434 0.655329 0.327581
0.284962 0.655528 0.329793
0.310552 0.657008 0.332418
0.335775 0.659083 0.334768
0.360204 0.661402 0.336263
0.383627 0.664302 0.336339
0.406043 0.667826 0.334264
0.427405 0.671992 0.329152
0.447974 0.676982 0.319951
0.468238 0.682551 0.30631
0.489509 0.688426 0.289143
0.513252 0.69369 0.271199
0.540307 0.697749 0.255802
0.570336 0.700786 0.243595
0.603159 0.703136 0.234592
0.637125 0.704784 0.227207
0.67219 0.706233 0.221592
0.707958 0.707576 0.216785
0.74435 0.709285 0.2121
0.781125 0.711254 0.207019
0.818128 0.713161 0.201785
0.855604 0.715297 0.197345
0.893202 0.717678 0.193759
0.930343 0.720119 0.190509
0.948547 0.719142 0.189761
0.954452 0.718486 0.191699
0.184527 0.690547 0.336919
0.184405 0.690105 0.33669
0.190127 0.689097 0.336751
0.196567 0.688228 0.336934
0.203845 0.687495 0.337377
0.217151 0.686427 0.338216
0.238941 0.685573 0.340063
0.263706 0.684855 0.342031
0.289555 0.684962 0.34435
0.315404 0.686259 0.347051
0.340764 0.68809 0.349554
0.365713 0.690471 0.351644
0.389624 0.693126 0.352438
0.412619 0.696269 0.351507
0.434669 0.700053 0.348074
0.455711 0.70457 0.341329
0.476326 0.710079 0.33048
0.496742 0.715862 0.315389
0.518624 0.721767 0.297795
0.543267 0.726787 0.280201
0.571237 0.730678 0.265415
0.602136 0.733577 0.253712
0.635355 0.735866 0.244923
0.669841 0.737408 0.237583
0.704967 0.738827 0.231952
0.740826 0.740139 0.227054
0.777249 0.741894 0.2224
0.814023 0.743969 0.217365
0.85127 0.746151 0.212268
0.888533 0.748287 0.207675
0.92578 0.750546 0.203906
0.946715 0.750057 0.202289
0.953231 0.749645 0.204868
0.192142 0.720073 0.351751
0.192035 0.719676 0.351522
0.197299 0.718807 0.351568
0.2038 0.717815 0.35172
0.211109 0.717037 0.352163
0.22208 0.716289 0.352987
0.243626 0.715251 0.354665
0.268162 0.714412 0.356527
0.294423 0.714534 0.358907
0.320348 0.71577 0.361761
0.346242 0.717693 0.364691
0.371283 0.719753 0.366873
0.395605 0.722087 0.368185
0.419059 0.725048 0.3682
0.441825 0.728695 0.366278
0.463645 0.733028 0.361624
0.484535 0.737972 0.353384
