assets/luts/LDmono1.cube
TITLE "LD - Earthy Monochrome 1"
# Copyright (c) 2019 Lens Distortions, LLC. All Rights Reserved.
# LensDistortions.com
# ref-EM10
LUT_3D_SIZE 9
0.0187991 0.0252995 0.0287785
0.0905318 0.0396735 0.0390631
0.247288 0.0695506 0.0472725
0.41532 0.0990463 0.0428931
0.548058 0.127428 0.0390173
0.679026 0.155337 0.0363012
0.815122 0.183032 0.0347753
0.923934 0.202487 0.0342107
0.962524 0.202304 0.0341955
0.0434424 0.111223 0.0696117
0.105669 0.119524 0.0599985
0.250828 0.135409 0.0483711
0.39379 0.15433 0.0429694
0.529397 0.176471 0.0386664
0.666102 0.201205 0.0339666
0.804593 0.227451 0.0322423
0.923003 0.249638 0.0323949
0.964462 0.246937 0.0324559
0.0697337 0.240345 0.130251
0.13022 0.231983 0.130556
0.231174 0.240253 0.0905928
0.374075 0.248905 0.0766003
0.513619 0.262608 0.0718853
0.65124 0.280919 0.0682689
0.791577 0.302235 0.0626383
0.921645 0.323903 0.0548257
0.965866 0.319448 0.0517891
0.0986343 0.355947 0.189517
0.151888 0.346654 0.189746
0.243214 0.34902 0.177508
0.355352 0.361501 0.13077
0.495277 0.369482 0.113085
0.634882 0.380255 0.105318
0.778027 0.394141 0.0996719
0.912917 0.410452 0.0927443
0.965515 0.407477 0.0910353
0.128099 0.468528 0.245365
0.171496 0.459571 0.244755
0.271504 0.455329 0.246174
0.355245 0.47245 0.20499
0.47808 0.48127 0.16939
0.616632 0.488762 0.151843
0.762417 0.49752 0.140841
0.901381 0.508232 0.13315
0.964736 0.506355 0.132479
0.156954 0.580209 0.299657
0.191562 0.572595 0.298756
0.294591 0.565042 0.301564
0.383352 0.57583 0.293065
0.473335 0.595209 0.233433
0.600488 0.60177 0.205524
0.744396 0.608667 0.1879
0.887816 0.615656 0.175723
0.963363 0.614969 0.173434
0.186175 0.694072 0.355489
0.212589 0.687663 0.354299
0.313207 0.677638 0.356359
0.408652 0.684367 0.360693
0.491981 0.702358 0.32987
0.591714 0.720317 0.269337
0.727214 0.727016 0.243061
0.871504 0.733898 0.223529
0.960922 0.735073 0.216602
0.21297 0.804105 0.410178
0.236652 0.799374 0.409445
0.328267 0.79086 0.411383
0.428244 0.796155 0.420249
0.520729 0.809674 0.415076
0.60322 0.83238 0.365209
0.716838 0.848493 0.309392
0.856123 0.855024 0.283238
0.957961 0.858595 0.267536
0.23331 0.882094 0.444358
0.254414 0.879881 0.444755
0.335851 0.87396 0.447486
0.43827 0.878904 0.458137
0.537209 0.891295 0.462852
0.622599 0.912016 0.437888
0.717494 0.937179 0.376928
0.846632 0.951522 0.348028
0.957076 0.958587 0.323293
0.0218509 0.0293126 0.068986
0.0934615 0.0411688 0.104479
0.243885 0.0704967 0.136034
0.406241 0.0979934 0.140932
0.53846 0.125368 0.130266
0.671092 0.15256 0.118883
0.808957 0.179995 0.10692
0.920287 0.200137 0.092607
0.959457 0.199939 0.0856031
0.0274357 0.116976 0.129549
0.10573 0.118395 0.130434
0.228168 0.13991 0.122469
0.358541 0.165331 0.120821
0.508507 0.183551 0.115892
0.659281 0.198856 0.108248
0.799603 0.224353 0.0961624
0.920089 0.246632 0.0822461
0.962264 0.243763 0.0750896
0.0476081 0.246143 0.173373
0.153307 0.223346 0.217899
0.285908 0.222095 0.159731
0.384131 0.239979 0.147082
0.507683 0.259266 0.140505
0.64712 0.277668 0.126192
0.788296 0.298756 0.115709
0.919142 0.321065 0.102434
0.963623 0.316854 0.0952621
0.0839399 0.360449 0.221851
0.203357 0.335988 0.300771
0.310155 0.336339 0.23006
0.405798 0.345693 0.188937
0.5019 0.363165 0.167254
0.633082 0.376761 0.156939
0.775753 0.390753 0.150072
0.910933 0.407218 0.139696
0.963928 0.404852 0.134371
0.11632 0.472328 0.273701
0.21648 0.452766 0.319783
0.288609 0.452277 0.303639
0.385718 0.465553 0.2598
0.487663 0.476829 0.215335
0.615808 0.486748 0.192935
0.761349 0.495094 0.184085
0.900145 0.505608 0.176532
0.963912 0.504128 0.173373
0.146624 0.583795 0.326635
0.18381 0.575311 0.325963
0.292973 0.565301 0.329564
0.387182 0.573449 0.328435
0.473457 0.593179 0.27361
0.599359 0.600641 0.242802
0.743725 0.607202 0.224277
0.887572 0.61413 0.212757
0.963287 0.613733 0.209277
0.17673 0.697108 0.379934
0.205371 0.690166 0.378393
0.310185 0.678492 0.380743
0.40972 0.683726 0.388434
0.4963 0.699565 0.368765
0.591424 0.71931 0.306859
0.726589 0.72639 0.279377
0.871366 0.733059 0.258427
0.961074 0.734279 0.250187
0.205127 0.807034 0.431403
0.230259 0.80209 0.430762
0.324819 0.792447 0.433371
0.42768 0.796551 0.443763
0.524163 0.808698 0.444968
0.607156 0.830533 0.404135
0.716777 0.848188 0.344686
0.85597 0.854917 0.318303
0.958206 0.85832 0.300847
0.226734 0.885069 0.463249
0.248463 0.882689 0.463203
0.331243 0.87602 0.466346
0.436866 0.87982 0.478126
0.53904 0.891096 0.487327
0.627176 0.910552 0.471336
0.719158 0.936172 0.411887
0.846586 0.951583 0.374578
0.957259 0.95877 0.352209
0.0269017 0.0340887 0.137514
0.0948653 0.0466011 0.180362
0.25095 0.072221 0.255283
0.399512 0.100008 0.26772
0.525444 0.127123 0.259449
0.656565 0.154513 0.25156
0.795483 0.181064 0.244358
0.909255 0.200855 0.235294
0.949172 0.200427 0.228504
0.0341955 0.118379 0.220508
0.0833448 0.136294 0.191836
0.241337 0.133547 0.24921
0.373373 0.155612 0.234897
0.511696 0.17882 0.215671
0.64799 0.199161 0.234165
0.788434 0.223651 0.231434
0.91107 0.245487 0.221668
0.953506 0.242222 0.21445
0.028275 0.250751 0.268513
0.129961 0.228382 0.283589
0.227695 0.234623 0.247913
0.351568 0.249348 0.232547
0.471641 0.272068 0.231571
0.604074 0.295323 0.229938
0.748226 0.318288 0.226535
0.902968 0.330175 0.214893
0.958312 0.314549 0.208545
0.0524453 0.37026 0.291829
0.159457 0.343236 0.354726
0.261097 0.342779 0.318502
0.398245 0.345022 0.275898
0.508827 0.358236 0.256977
0.630228 0.374273 0.25243
0.762692 0.392706 0.247059
0.901823 0.408774 0.232654
0.961471 0.40264 0.22153
0.087129 0.48191 0.329793
0.185931 0.46125 0.362493
0.313069 0.450858 0.394491
0.428992 0.455726 0.327703
0.533532 0.463233 0.299992
0.639582 0.477302 0.276326
0.766537 0.490379 0.266423
0.899214 0.503288 0.255192
0.963012 0.502297 0.246479
0.12195 0.592523 0.376074
0.159014 0.583658 0.372229
0.338781 0.564034 0.439643
0.430976 0.566888 0.422446
0.524544 0.581994 0.359258
0.624445 0.592828 0.323674
0.75314 0.602762 0.297948
0.88893 0.611627 0.285069
0.963256 0.61236 0.278126
0.15613 0.70489 0.424979
0.18616 0.697322 0.422049
0.330358 0.681239 0.458717
0.41738 0.683879 0.453773
0.518196 0.694591 0.447333
0.610498 0.714351 0.386267
0.730694 0.724163 0.350057
0.872801 0.731914 0.327001
0.961669 0.733577 0.317571
0.187366 0.813962 0.473457
0.213291 0.808972 0.471977
0.31841 0.797009 0.479118
0.425849 0.798825 0.490639
0.529976 0.807813 0.499138
0.616999 0.826566 0.477333
0.718761 0.847349 0.413153
0.856031 0.854597 0.38436
0.958602 0.858183 0.366995
0.211673 0.892485 0.504555
0.234104 0.889723 0.504662
0.320897 0.881453 0.507912
0.433936 0.883055 0.522286
0.54139 0.891936 0.53547
0.635737 0.90811 0.533135
0.724392 0.934066 0.482979
0.846845 0.951614 0.435996
0.957626 0.959121 0.417472
0.0315404 0.0398871 0.217777
0.101381 0.0518196 0.271595
0.251942 0.0759442 0.370382
0.398611 0.100816 0.393591
0.522683 0.128176 0.384512
0.648737 0.156161 0.377462
0.78436 0.18378 0.371984
0.899123 0.2047 0.364996
0.939452 0.204288 0.358282
0.0375677 0.122057 0.320378
0.0917372 0.151614 0.268788
0.230655 0.138048 0.355245
0.374258 0.152743 0.371695
0.504829 0.175875 0.367971
0.636835 0.201022 0.364752
0.776181 0.226459 0.360647
0.900801 0.248707 0.352529
0.943938 0.245518 0.345296
0.0347143 0.247456 0.375692
0.114137 0.238224 0.345205
0.205905 0.24509 0.323293
0.360296 0.244709 0.362829
0.493553 0.260166 0.357748
0.629999 0.284566 0.313832
0.773892 0.304906 0.299428
0.906554 0.323461 0.321675
0.950835 0.316289 0.336156
0.0372473 0.373816 0.393545
0.145586 0.345403 0.425696
0.244388 0.346777 0.39501
0.351034 0.355154 0.368856
0.479561 0.366262 0.355428
0.603738 0.383093 0.348379
0.738811 0.401984 0.343954
0.883207 0.418051 0.335637
0.957473 0.402975 0.334691
0.0582132 0.490806 0.413291
0.147524 0.470069 0.43653
0.257649 0.461021 0.457572
0.376638 0.462943 0.41912
0.497536 0.470665 0.389334
0.624933 0.479622 0.372442
0.75816 0.491417 0.365774
0.892241 0.504509 0.356954
0.961425 0.50135 0.345861
0.0898299 0.603143 0.44387
0.125887 0.594659 0.437842
0.298192 0.574273 0.488762
0.413016 0.571191 0.477317
0.514458 0.581033 0.445823
0.624933 0.591409 0.409705
0.757092 0.600183 0.386328
0.891279 0.609445 0.376211
0.962936 0.611322 0.368322
0.126207 0.715068 0.48188
0.156985 0.707652 0.477195
0.304906 0.689372 0.500587
0.427176 0.686091 0.514504
0.528206 0.692561 0.512947
0.612619 0.712505 0.465537
0.734737 0.722759 0.428992
0.876112 0.730358 0.406973
0.962219 0.732708 0.398703
0.161181 0.82388 0.524193
0.18822 0.818769 0.521828
0.299092 0.804791 0.52433
0.424201 0.803326 0.544015
0.532876 0.809323 0.554208
0.629099 0.823377 0.550988
0.721782 0.846159 0.490364
0.856794 0.854582 0.457862
0.959182 0.858106 0.440482
0.187594 0.902358 0.552361
0.211536 0.899229 0.551781
0.303471 0.889586 0.553643
0.425162 0.888197 0.568093
0.540948 0.894301 0.584772
0.643107 0.907042 0.593866
0.732464 0.930877 0.561929
0.847486 0.951782 0.506111
0.958099 0.959609 0.487327
0.0359503 0.0461128 0.310994
0.109224 0.0570687 0.375174
0.250401 0.0809186 0.472572
0.393896 0.10277 0.510216
0.52137 0.128893 0.507469
0.647288 0.156847 0.500359
0.779965 0.184924 0.495048
0.893034 0.207218 0.488838
0.933318 0.207584 0.482124
0.0395819 0.127245 0.427344
0.106355 0.152956 0.394705
0.219089 0.145312 0.4486
0.3682 0.154604 0.486702
0.503197 0.17615 0.491096
0.633906 0.201343 0.488304
0.769314 0.22826 0.484474
0.892638 0.251865 0.477806
0.936034 0.248737 0.470939
0.0428779 0.244999 0.473136
0.116686 0.242344 0.433341
0.18822 0.26363 0.37557
0.352285 0.246525 0.472404
0.491569 0.259174 0.483375
0.624567 0.278141 0.482368
0.757839 0.305318 0.463905
0.894331 0.32697 0.456046
0.941329 0.319646 0.462806
0.0413367 0.370596 0.501137
0.110002 0.357046 0.490913
0.231189 0.352102 0.468864
0.340139 0.359991 0.457267
0.481712 0.363989 0.480568
0.617075 0.37525 0.480339
0.753674 0.395254 0.449409
0.894636 0.411444 0.432547
0.948943 0.404898 0.460502
0.0456092 0.493217 0.51545
0.107942 0.47921 0.517159
0.252064 0.462745 0.529503
0.356191 0.468605 0.504601
0.473487 0.474907 0.489052
0.610574 0.482551 0.479133
0.745373 0.494865 0.467933
0.883558 0.507195 0.46067
0.957214 0.501595 0.461067
0.0648508 0.610376 0.533486
0.0977188 0.602655 0.526345
0.252644 0.582574 0.560296
0.362356 0.583703 0.54406
0.491478 0.584207 0.525383
0.603281 0.595453 0.500816
0.747997 0.601587 0.487083
0.886748 0.609979 0.480049
0.961975 0.610529 0.473487
0.0950637 0.725002 0.557504
0.124636 0.718227 0.551385
0.26656 0.700557 0.563439
0.393988 0.696895 0.568185
0.5149 0.696986 0.57142
0.616358 0.708782 0.564721
0.731853 0.723049 0.518486
0.876402 0.729763 0.500023
0.962692 0.731823 0.493278
0.129473 0.834989 0.588907
0.156542 0.830076 0.585153
0.268101 0.81622 0.581918
0.401648 0.812528 0.595789
0.52752 0.813703 0.609995
0.635142 0.822446 0.619883
0.725734 0.844022 0.581567
0.856992 0.854536 0.54139
0.960204 0.858198 0.525277
0.157687 0.914122 0.611307
0.181903 0.911086 0.609766
0.275731 0.900847 0.607843
0.406348 0.896956 0.619486
0.534401 0.899397 0.637705
0.646448 0.90837 0.653544
0.743709 0.927153 0.646647
0.848493 0.951675 0.587549
0.958587 0.960113 0.566873
0.0399329 0.0523537 0.41854
0.116411 0.0623484 0.488258
0.250172 0.0850538 0.576242
0.385046 0.107027 0.614054
0.517708 0.130846 0.627573
0.645472 0.157351 0.623819
0.778408 0.185473 0.618738
0.892042 0.208316 0.612528
0.931731 0.208927 0.605646
0.0411841 0.131411 0.538048
0.114626 0.138277 0.535821
0.22623 0.144137 0.555108
0.359304 0.159106 0.586282
0.498573 0.177218 0.610605
0.631891 0.201419 0.612039
0.767346 0.228351 0.608194
0.890028 0.253178 0.601511
0.932876 0.250721 0.594553
0.0478218 0.244633 0.572717
0.116487 0.236835 0.558038
0.19118 0.280324 0.443107
0.281804 0.26833 0.557092
0.486686 0.259251 0.602319
0.621408 0.278325 0.604761
0.757641 0.300404 0.600855
0.887816 0.325902 0.592294
0.935729 0.321904 0.586877
0.0510414 0.366476 0.601541
0.112627 0.356359 0.584772
0.224079 0.363134 0.528649
0.310262 0.377783 0.509621
0.47602 0.364523 0.593561
0.612253 0.375677 0.600946
0.751034 0.390433 0.599145
0.882551 0.411444 0.584619
0.940566 0.407568 0.584848
0.0482948 0.490379 0.624994
0.0943465 0.480919 0.61648
0.240909 0.46508 0.610956
0.352071 0.470161 0.592569
0.47219 0.475425 0.590768
0.605173 0.482292 0.603067
0.745281 0.492058 0.601022
0.880842 0.506264 0.583368
0.948104 0.504005 0.586419
0.0539254 0.612329 0.637491
0.0849165 0.604959 0.63035
0.240558 0.584924 0.644205
0.35378 0.586145 0.63151
0.467262 0.591089 0.617624
0.595789 0.595453 0.610468
0.742199 0.601511 0.602609
0.88307 0.610254 0.592569
0.957702 0.610986 0.590875
0.0723125 0.731472 0.651759
0.100603 0.725093 0.64535
0.232563 0.708446 0.648966
0.348318 0.707988 0.647089
0.475395 0.70959 0.640574
0.610239 0.710613 0.641489
0.725399 0.724056 0.617823
0.875181 0.72929 0.606638
0.962661 0.731121 0.602045
0.0999771 0.844419 0.671489
0.125765 0.84004 0.666865
0.231754 0.827878 0.657938
0.363485 0.82536 0.663539
0.500496 0.824216 0.670054
0.630625 0.826307 0.684474
0.736751 0.839521 0.68513
0.856382 0.85452 0.637675
0.961349 0.857801 0.62179
0.125124 0.926146 0.68629
0.149187 0.92343 0.683894
0.240803 0.914015 0.677531
0.373617 0.909972 0.682322
0.512795 0.909285 0.695903
0.64155 0.912947 0.714321
0.75407 0.925338 0.72723
0.850828 0.95079 0.682551
0.959213 0.960784 0.657191
0.0437781 0.0590524 0.544137
0.12311 0.0681468 0.614801
0.250431 0.0886549 0.686793
0.376272 0.11194 0.715816
0.509224 0.134005 0.742306
0.641855 0.15877 0.751171
0.77615 0.186084 0.748425
0.892134 0.209659 0.742489
0.932509 0.210254 0.735286
0.0426032 0.134676 0.654307
0.117449 0.134035 0.65745
0.23064 0.144594 0.664576
0.354253 0.162295 0.688899
0.489738 0.180377 0.722942
0.627909 0.201953 0.739605
0.76463 0.228275 0.738079
0.889952 0.253803 0.731914
0.933349 0.251118 0.724483
0.0510872 0.244511 0.678584
0.117601 0.236835 0.66775
0.213413 0.285267 0.559701
0.30045 0.266468 0.665095
0.471626 0.266484 0.703914
0.616678 0.278065 0.731548
0.754818 0.299733 0.730663
0.886091 0.324193 0.724193
0.935363 0.322377 0.716731
0.0592508 0.363516 0.704067
0.117586 0.35407 0.690547
0.231617 0.369421 0.618189
0.299123 0.39379 0.574624
0.410452 0.382132 0.689052
0.607569 0.37496 0.726925
0.746929 0.390524 0.726833
0.881178 0.408209 0.722042
0.938247 0.408225 0.713939
0.0578622 0.485359 0.733272
0.103838 0.476143 0.722103
0.236835 0.470603 0.686412
0.34435 0.476982 0.669505
0.445838 0.488411 0.660166
0.597696 0.483192 0.720012
0.740581 0.491859 0.727245
0.876616 0.504265 0.722698
0.942351 0.50544 0.715145
0.0551919 0.609079 0.753277
0.0880446 0.60174 0.745953
0.230381 0.585107 0.742077
0.351888 0.585 0.73225
0.472419 0.589441 0.719829
0.595392 0.595514 0.718227
0.734707 0.601389 0.733791
0.873869 0.611063 0.728206
0.948348 0.613016 0.721355
0.0614939 0.732784 0.761669
0.0894636 0.726741 0.755688
0.212375 0.711543 0.750805
0.335164 0.710628 0.749905
0.458976 0.713619 0.745663
0.583276 0.718425 0.741634
0.723629 0.722423 0.739025
0.872648 0.728176 0.731746
0.958816 0.730892 0.727153
0.0782177 0.850446 0.773449
0.103197 0.846235 0.76878
0.204105 0.835706 0.758404
0.329992 0.834699 0.759472
0.459892 0.836667 0.758282
0.594751 0.839246 0.759747
0.737743 0.840543 0.769375
0.855421 0.854215 0.745312
0.962463 0.856641 0.735454
0.097734 0.936156 0.781201
0.119936 0.933776 0.778485
0.206714 0.925734 0.769818
0.335683 0.923445 0.769024
0.473182 0.924269 0.773678
0.612879 0.925307 0.782925
0.751476 0.929107 0.800046
0.8598 0.946975 0.797803
0.95993 0.961547 0.760235
0.0464637 0.0635843 0.644739
0.126436 0.0717784 0.712154
0.249912 0.0911421 0.771725
0.370809 0.114702 0.795224
0.499687 0.137621 0.825437
0.634745 0.160372 0.847028
0.772244 0.187228 0.855039
0.891478 0.210544 0.854887
0.933211 0.210666 0.852735
0.0435492 0.136187 0.747387
0.118257 0.135576 0.749554
0.230152 0.145724 0.756497
0.351034 0.164126 0.778347
0.481209 0.183429 0.812131
0.619852 0.203571 0.841154
0.760571 0.227909 0.852583
0.889174 0.253971 0.852766
0.93402 0.251148 0.850248
0.0534371 0.24419 0.771634
0.117662 0.236896 0.763867
0.225315 0.28365 0.70013
0.310491 0.26424 0.770825
0.460533 0.272206 0.798535
0.60705 0.279942 0.837201
0.749966 0.299077 0.853132
0.883024 0.32314 0.853697
0.936034 0.321904 0.847776
0.0641794 0.361669 0.799771
0.120516 0.352987 0.790219
0.236774 0.366857 0.748608
0.304143 0.406989 0.661158
0.379049 0.399283 0.764584
0.590631 0.381079 0.83035
0.742184 0.389197 0.854978
0.877455 0.407172 0.851667
0.938842 0.407614 0.845518
0.0678416 0.480522 0.832944
0.114092 0.471916 0.824018
0.240391 0.471077 0.790433
0.34052 0.485313 0.75346
0.430869 0.49984 0.742626
0.564858 0.492653 0.817914
0.734051 0.490761 0.853101
0.87277 0.503319 0.851774
0.942397 0.504707 0.846326
0.064332 0.603418 0.861219
0.0991684 0.595911 0.853773
0.22829 0.584405 0.837507
0.353521 0.586038 0.82359
0.470008 0.591699 0.815061
0.575998 0.599741 0.824063
0.725719 0.602792 0.849577
0.870497 0.609949 0.857511
0.9467 0.612894 0.851743
0.0620432 0.729458 0.875471
0.0913558 0.723232 0.8701
0.206744 0.710002 0.860624
0.337194 0.708217 0.860624
0.465278 0.710475 0.855711
0.594003 0.715206 0.849531
0.721721 0.722866 0.84799
0.865629 0.727993 0.864713
0.95172 0.732036 0.859144
0.0685893 0.851545 0.881193
0.0933394 0.84773 0.877485
0.191409 0.837751 0.868574
0.31664 0.837034 0.868894
0.445579 0.839658 0.869245
0.57673 0.843885 0.870024
0.710018 0.848707 0.870558
0.854093 0.852583 0.869184
0.959594 0.855421 0.864637
0.0799725 0.942443 0.885328
0.102541 0.9402 0.88304
0.186053 0.932982 0.875242
0.311666 0.931792 0.873899
0.443763 0.934356 0.875853
0.57583 0.938308 0.878202
0.715465 0.94316 0.880995
0.864027 0.947173 0.890715
0.960708 0.962356 0.873182
0.0472267 0.0646067 0.67866
0.126223 0.0721294 0.743526
0.248463 0.0910201 0.799435
0.368093 0.114794 0.821149
0.495232 0.137346 0.85095
0.62977 0.160571 0.875303
0.768887 0.186954 0.887877
0.890455 0.211994 0.891279
0.933425 0.211612 0.891783
0.0452277 0.136507 0.778698
0.116594 0.134081 0.780743
0.228672 0.144228 0.78732
0.348516 0.162493 0.807828
0.477104 0.182391 0.840085
0.615198 0.202289 0.871916
0.756497 0.226261 0.887922
0.888212 0.253834 0.892134
0.934218 0.251026 0.892515
0.0548714 0.242542 0.801389
0.117174 0.235492 0.795209
0.228397 0.236683 0.796246
0.345357 0.248676 0.808499
0.467918 0.263874 0.833463
0.602014 0.278874 0.868269
0.745418 0.29749 0.889418
0.880034 0.321141 0.894865
0.93608 0.321263 0.895109
0.0664836 0.359472 0.829908
0.120653 0.350896 0.821561
0.233997 0.348516 0.816236
0.349554 0.354711 0.820249
0.46659 0.365728 0.833722
0.593072 0.37702 0.863432
0.736919 0.387915 0.892256
0.874601 0.404959 0.899962
0.93901 0.406455 0.900099
0.0711376 0.477577 0.86363
0.115908 0.469291 0.855436
0.236057 0.463294 0.844205
0.355062 0.466621 0.841779
0.471122 0.473533 0.845487
0.589334 0.483879 0.860929
0.727977 0.49044 0.894484
0.869932 0.501137 0.90721
0.942565 0.503594 0.907347
0.0686503 0.599756 0.898299
0.103655 0.592355 0.892607
0.227543 0.581659 0.879408
0.353567 0.582116 0.872694
0.476051 0.58677 0.869337
0.593561 0.594278 0.872358
0.72079 0.60325 0.89305
0.866773 0.608957 0.917128
0.946914 0.6121 0.917708
0.0653849 0.725643 0.926574
0.094255 0.719722 0.923064
0.207004 0.707408 0.912947
0.335607 0.706615 0.909316
0.468009 0.708659 0.905119
0.596445 0.713954 0.900526
0.722652 0.72221 0.901869
0.860716 0.728161 0.927687
0.951858 0.731411 0.930877
0.0678569 0.849699 0.947906
0.0906996 0.846326 0.945495
0.188571 0.836316 0.937102
0.314046 0.835859 0.936126
0.446525 0.838239 0.936736
0.578775 0.841993 0.937194
0.717693 0.846067 0.935561
0.853544 0.852552 0.933516
0.957031 0.855146 0.946853
0.0763561 0.944244 0.959197
0.0982223 0.942229 0.957244
0.18024 0.93521 0.950347
0.30518 0.934432 0.949264
0.436667 0.937209 0.950942
0.56701 0.941619 0.953414
0.702541 0.947738 0.95671
0.841962 0.955276 0.960082
0.96051 0.962188 0.962203
