assets/luts/LDmono2.cube
TITLE "LD - Earthy Monochrome 2"
# Copyright (c) 2019 Lens Distortions, LLC. All Rights Reserved.
# LensDistortions.com
# ref-EM10
LUT_3D_SIZE 9
0.0142367 0.018555 0.0209659
0.0662089 0.0307774 0.0303655
0.1991 0.0533608 0.0384222
0.362219 0.0733043 0.0333867
0.513634 0.0940719 0.027039
0.649241 0.11899 0.0264591
0.788159 0.147127 0.026627
0.907591 0.169619 0.0278325
0.952926 0.170367 0.0284733
0.0383917 0.0839246 0.055314
0.081529 0.0916457 0.0501717
0.215 0.106035 0.0413825
0.361318 0.122148 0.0323644
0.499413 0.142382 0.0286717
0.638117 0.166567 0.0259251
0.778683 0.19411 0.0256809
0.908202 0.219348 0.0277562
0.956634 0.217838 0.0284581
0.0590677 0.205249 0.103365
0.105531 0.202182 0.105638
0.203189 0.212528 0.0701305
0.344182 0.219913 0.0593729
0.48574 0.232105 0.0556039
0.626017 0.249241 0.0530251
0.768032 0.27068 0.0497597
0.908751 0.295079 0.0461128
0.960189 0.292088 0.0445258
0.0877241 0.317327 0.155703
0.128084 0.313085 0.157794
0.214466 0.319936 0.14876
0.326543 0.332723 0.103548
0.468589 0.339956 0.0890516
0.611673 0.35021 0.0831617
0.756359 0.36495 0.0801404
0.900603 0.384146 0.0771191
0.961456 0.383169 0.0772259
0.116991 0.430014 0.209567
0.149737 0.425635 0.211002
0.241779 0.427344 0.215976
0.32668 0.445838 0.175875
0.451606 0.455055 0.139483
0.594461 0.462623 0.12282
0.741894 0.472084 0.114382
0.888563 0.485603 0.110216
0.960754 0.485908 0.111192
0.14638 0.544152 0.264668
0.172274 0.54049 0.265629
0.264851 0.53991 0.272694
0.356237 0.552529 0.266606
0.447486 0.572747 0.206607
0.578363 0.579522 0.176852
0.72433 0.586908 0.158862
0.873854 0.59617 0.148348
0.958434 0.597604 0.147784
0.176913 0.661112 0.322133
0.19678 0.657923 0.322744
0.284962 0.655528 0.329793
0.383627 0.664302 0.336339
0.468238 0.682551 0.30631
0.570336 0.700786 0.243595
0.707958 0.707576 0.216785
0.855604 0.715297 0.197345
0.954452 0.718486 0.191699
0.207416 0.77937 0.38175
0.225498 0.776822 0.382376
0.303883 0.774563 0.388998
0.40737 0.781155 0.399512
0.500557 0.794705 0.394766
0.584558 0.816999 0.342733
0.699641 0.832273 0.284916
0.840223 0.838758 0.258946
0.950225 0.84361 0.244327
0.232654 0.869871 0.423224
0.249195 0.869535 0.424979
0.318349 0.86836 0.431571
0.424445 0.874495 0.443915
0.522911 0.886213 0.448264
0.609262 0.905791 0.421408
0.704005 0.92987 0.35697
0.832685 0.94374 0.325978
0.950317 0.951629 0.301076
0.0169985 0.0218967 0.0500801
0.0687877 0.0325322 0.0773632
0.197086 0.054551 0.100862
0.357107 0.0734112 0.106249
0.506325 0.0936904 0.0979019
0.643473 0.117876 0.0894484
0.783368 0.145495 0.0809796
0.904784 0.168368 0.0723888
0.950469 0.169268 0.0679026
0.0276341 0.0882734 0.0981003
0.0821546 0.0912947 0.100618
0.19649 0.111376 0.096849
0.328573 0.135058 0.0934157
0.48011 0.151659 0.0884108
0.632975 0.16582 0.0818799
0.774929 0.192523 0.0739452
0.906142 0.217746 0.0658427
0.955077 0.215961 0.0609903
0.042359 0.210575 0.139788
0.123583 0.196384 0.19089
0.257816 0.194858 0.130404
0.355642 0.212268 0.117189
0.48127 0.230228 0.110582
0.623255 0.247303 0.0983749
0.765911 0.268757 0.0911269
0.907256 0.293767 0.0836805
0.958724 0.290929 0.0791333
0.076112 0.32105 0.187167
0.173678 0.307179 0.272068
0.282185 0.308385 0.203006
0.378164 0.317403 0.160128
0.476265 0.334478 0.137453
0.610971 0.347784 0.126726
0.755123 0.362631 0.121386
0.899382 0.382132 0.115175
0.96054 0.381735 0.112215
0.107485 0.433402 0.238346
0.185153 0.424247 0.289799
0.260288 0.425101 0.275563
0.358053 0.439246 0.233402
0.462287 0.45095 0.187671
0.594034 0.460975 0.16376
0.741131 0.470039 0.155138
0.88777 0.483665 0.149813
0.960357 0.484352 0.148409
0.138231 0.547265 0.291234
0.165896 0.543008 0.292912
0.263416 0.540352 0.301305
0.360357 0.550378 0.302495
0.44773 0.570809 0.247868
0.577432 0.578622 0.215686
0.724025 0.585672 0.197116
0.873579 0.594705 0.186877
0.958556 0.596643 0.185153
0.16939 0.663783 0.346105
0.190707 0.66006 0.346258
0.282063 0.656626 0.353933
0.384649 0.663661 0.363729
0.472709 0.679973 0.34493
0.570184 0.699886 0.280964
0.707347 0.706889 0.253178
0.855726 0.714794 0.233524
0.954711 0.717906 0.227008
0.2009 0.781842 0.40264
0.220005 0.779187 0.40354
0.300465 0.77612 0.410697
0.406882 0.781582 0.42269
0.503929 0.793759 0.42414
0.588357 0.815167 0.381231
0.69955 0.831968 0.319493
0.840009 0.838605 0.29337
0.950469 0.843275 0.277287
0.227207 0.872633 0.442191
0.244114 0.871916 0.443259
0.31397 0.870298 0.450324
0.423041 0.875334 0.463844
0.524773 0.886107 0.472602
0.613764 0.90428 0.454551
0.705776 0.928893 0.391989
0.832349 0.943496 0.352117
0.950347 0.951659 0.329381
0.0215152 0.0261997 0.110658
0.0702068 0.0369879 0.144732
0.203479 0.0555581 0.207324
0.354543 0.0745403 0.227497
0.493706 0.0957046 0.225055
0.629847 0.120485 0.21886
0.770535 0.147601 0.212467
0.893919 0.170718 0.206104
0.939788 0.171389 0.200351
0.0321355 0.0893263 0.179461
0.066804 0.105379 0.156756
0.209628 0.105852 0.217304
0.343847 0.125292 0.206546
0.484123 0.147066 0.185443
0.622858 0.167071 0.203021
0.764981 0.193149 0.201007
0.897734 0.218433 0.194339
0.946426 0.216373 0.187976
0.0209354 0.216114 0.23328
0.102281 0.200778 0.255146
0.200488 0.207935 0.221149
0.323232 0.222171 0.205371
0.445121 0.243656 0.203632
0.580941 0.266117 0.20145
0.726879 0.289311 0.198428
0.890501 0.304112 0.189105
0.953857 0.290288 0.184222
0.0448463 0.331441 0.25417
0.128542 0.313893 0.325338
0.233951 0.314702 0.290364
0.370626 0.316884 0.248508
0.483833 0.329946 0.229664
0.60853 0.345907 0.224979
0.74258 0.365347 0.220447
0.889937 0.384482 0.208377
0.958297 0.380438 0.199329
0.080766 0.442603 0.291646
0.15555 0.432334 0.331762
0.285679 0.424247 0.366857
0.402152 0.429633 0.299794
0.509957 0.437339 0.27248
0.618524 0.451637 0.249058
0.747234 0.46595 0.240467
0.887282 0.481804 0.231678
0.959854 0.482902 0.225132
0.116701 0.555596 0.338918
0.144549 0.550683 0.338033
0.312413 0.540581 0.413062
0.404623 0.544152 0.396002
0.500587 0.559686 0.331792
0.603464 0.570916 0.296178
0.733593 0.581567 0.271183
0.875456 0.592752 0.260716
0.958724 0.595712 0.256107
0.151354 0.671 0.390433
0.173892 0.666804 0.389425
0.304707 0.660166 0.432959
0.392523 0.664134 0.428946
0.494697 0.675166 0.422553
0.589746 0.695171 0.359365
0.71194 0.704906 0.323186
0.85742 0.713771 0.301259
0.955459 0.717327 0.293873
0.185016 0.788266 0.444495
0.204883 0.785718 0.444846
0.294209 0.780667 0.456718
0.405234 0.783932 0.469947
0.509651 0.792828 0.478248
0.597971 0.810987 0.454383
0.701335 0.830945 0.387884
0.839948 0.838148 0.35906
0.950729 0.842924 0.342672
0.213596 0.879499 0.483665
0.231144 0.878691 0.485206
0.303838 0.875532 0.492149
0.420111 0.878431 0.508309
0.526802 0.886671 0.520821
0.62211 0.901579 0.51664
0.710704 0.926299 0.463157
0.832425 0.943297 0.41416
0.95021 0.951507 0.394598
0.0254826 0.0308843 0.17969
0.074876 0.0409247 0.22269
0.204288 0.0577096 0.311788
0.356161 0.0741283 0.351125
0.490425 0.0964828 0.348837
0.621897 0.122057 0.343618
0.759258 0.150591 0.339071
0.882979 0.174762 0.334661
0.928832 0.175448 0.329183
0.034226 0.092195 0.267735
0.0729839 0.119997 0.229572
0.20058 0.10956 0.320012
0.344244 0.121996 0.341787
0.476905 0.143923 0.33669
0.611475 0.169177 0.332555
0.752651 0.19617 0.329381
0.886595 0.22179 0.324468
0.935622 0.219837 0.318471
0.0255436 0.212863 0.339696
0.0886397 0.209552 0.315114
0.177844 0.218143 0.295293
0.331777 0.21738 0.334539
0.467414 0.231815 0.328344
0.607217 0.255283 0.284077
0.752789 0.276341 0.270817
0.89482 0.2981 0.296147
0.945312 0.292271 0.311803
0.0284886 0.335073 0.355016
0.115709 0.315587 0.39707
0.216709 0.318395 0.367147
0.323095 0.327413 0.341238
0.454002 0.338354 0.327459
0.581842 0.3552 0.320058
0.719097 0.375082 0.316411
0.869886 0.393881 0.310765
0.953811 0.38088 0.312169
0.0500954 0.452262 0.373342
0.118807 0.440284 0.405707
0.229755 0.434211 0.430549
0.349203 0.436942 0.392157
0.472831 0.445014 0.361852
0.60412 0.454398 0.345068
0.739071 0.467216 0.339086
0.879866 0.483177 0.332403
0.958267 0.482292 0.324041
0.0838331 0.566613 0.404852
0.111452 0.561746 0.402243
0.271351 0.550881 0.463035
0.386618 0.548623 0.452018
0.490379 0.558938 0.420111
0.604105 0.569619 0.382818
0.738079 0.579248 0.359777
0.877989 0.59057 0.351385
0.958602 0.594781 0.345724
0.122011 0.681315 0.446448
0.14551 0.677073 0.444404
0.278767 0.668376 0.475746
0.402304 0.666484 0.491157
0.505028 0.67306 0.489387
0.591852 0.693385 0.439918
0.71574 0.703456 0.402808
0.860792 0.71223 0.381567
0.955947 0.716426 0.374945
0.159854 0.79794 0.495262
0.18056 0.795117 0.494728
0.27422 0.788296 0.502571
0.403143 0.788342 0.524361
0.512184 0.794079 0.534203
0.610239 0.807584 0.529503
0.704097 0.829541 0.466163
0.840375 0.837751 0.433539
0.951232 0.842664 0.416907
0.190967 0.889097 0.531746
0.209644 0.887831 0.532738
0.286152 0.883604 0.538842
0.411139 0.883391 0.555138
0.526055 0.888823 0.571115
0.629541 0.900298 0.578805
0.718761 0.922774 0.543664
0.832471 0.942794 0.485359
0.950042 0.951354 0.46537
0.0293126 0.0357977 0.262104
0.0800793 0.0445716 0.313466
0.20322 0.0607614 0.409735
0.353231 0.0748455 0.471458
0.488518 0.0967269 0.474052
0.619883 0.122423 0.469078
0.754452 0.151461 0.464591
0.876051 0.177203 0.461082
0.921416 0.17879 0.455467
0.0350805 0.0958572 0.366903
0.0837873 0.122255 0.351919
0.189792 0.115846 0.416175
0.337652 0.123384 0.458747
0.47454 0.143771 0.462135
0.608423 0.169146 0.45861
0.74548 0.197894 0.455421
0.877562 0.224796 0.451957
0.926162 0.22298 0.446097
0.0314794 0.210697 0.439536
0.0904402 0.213321 0.404303
0.158892 0.236118 0.34757
0.323568 0.218891 0.446052
0.465019 0.230747 0.45655
0.601587 0.249027 0.455131
0.736584 0.276692 0.437049
0.881468 0.301335 0.432151
0.93434 0.295537 0.440543
0.03122 0.332006 0.46566
0.0853285 0.32459 0.461357
0.203235 0.323507 0.442435
0.312367 0.332097 0.431418
0.456245 0.336004 0.454932
0.595483 0.34725 0.454719
0.734081 0.368414 0.423667
0.88275 0.38764 0.409293
0.943893 0.382727 0.439536
0.0361944 0.455039 0.477928
0.0848402 0.446815 0.485878
0.223819 0.435904 0.504646
0.328283 0.442741 0.479957
0.448188 0.449653 0.464195
0.589395 0.457496 0.453986
0.726192 0.470787 0.442908
0.87042 0.485786 0.437766
0.953353 0.482414 0.440757
0.0565957 0.574624 0.495644
0.0816663 0.570321 0.492027
0.224521 0.559014 0.536126
0.33492 0.561379 0.520638
0.466651 0.562264 0.501686
0.581933 0.573754 0.476158
0.728817 0.580438 0.462394
0.872969 0.590951 0.457252
0.957275 0.593729 0.452537
0.0888228 0.692027 0.52253
0.111528 0.68835 0.519203
0.238895 0.679683 0.540032
0.368277 0.677363 0.546136
0.491249 0.677684 0.549493
0.59527 0.689296 0.541848
0.712642 0.703502 0.494591
0.860868 0.711437 0.476692
0.956161 0.715282 0.471519
0.126986 0.809354 0.560067
0.147906 0.806729 0.558663
0.242283 0.800061 0.561944
0.379904 0.797421 0.577371
0.506539 0.798505 0.591485
0.616342 0.806317 0.600565
0.707668 0.827085 0.55967
0.840162 0.837278 0.519005
0.951705 0.8421 0.503288
0.160525 0.90103 0.590951
0.179461 0.899733 0.591104
0.257954 0.894804 0.594232
0.391852 0.892027 0.607752
0.518929 0.893721 0.625269
0.632395 0.901076 0.639689
0.729809 0.918395 0.630472
0.833036 0.942031 0.569085
0.950042 0.951339 0.546746
0.0323339 0.0403449 0.357656
0.085008 0.0480659 0.416037
0.204532 0.0633555 0.513939
0.345724 0.0779431 0.579965
0.48426 0.0982376 0.596887
0.617624 0.122591 0.595438
0.752697 0.151797 0.591592
0.874632 0.178195 0.588022
0.919295 0.179965 0.582132
0.0352636 0.0986191 0.47335
0.0894331 0.108156 0.488167
0.196979 0.113939 0.526696
0.328206 0.127581 0.560815
0.469581 0.144533 0.584665
0.605905 0.168917 0.585397
0.743328 0.197772 0.582574
0.874647 0.22591 0.579126
0.92256 0.224765 0.573236
0.0350805 0.210254 0.541817
0.0899825 0.20705 0.531777
0.161807 0.252262 0.416175
0.253605 0.240421 0.533486
0.459953 0.230594 0.578744
0.598276 0.249027 0.580941
0.736324 0.271702 0.57789
0.874067 0.300069 0.572076
0.927871 0.297536 0.568231
0.0383917 0.328695 0.569543
0.0874952 0.323888 0.557855
0.195605 0.334279 0.503822
0.282383 0.34995 0.484916
0.450355 0.336431 0.571221
0.590555 0.347662 0.578744
0.731304 0.363394 0.577691
0.869444 0.387304 0.565362
0.934112 0.385306 0.567559
0.0375067 0.452613 0.591196
0.0735637 0.44741 0.586786
0.212512 0.438117 0.588266
0.324132 0.444282 0.570413
0.446708 0.450217 0.568887
0.583947 0.457191 0.581811
0.72604 0.467643 0.57995
0.867369 0.484764 0.564157
0.942412 0.484688 0.569635
0.044419 0.576974 0.602899
0.0681773 0.573022 0.59884
0.212085 0.561349 0.621912
0.326131 0.563943 0.610361
0.441779 0.569345 0.596506
0.574212 0.573739 0.58912
0.722957 0.580224 0.581491
0.869078 0.591089 0.572946
0.952056 0.59379 0.573159
0.0644846 0.699062 0.618784
0.0862287 0.695659 0.615137
0.2038 0.687739 0.627573
0.321813 0.688701 0.627375
0.450523 0.690501 0.620523
0.589181 0.691218 0.621103
0.706142 0.704463 0.596704
0.859434 0.710582 0.586175
0.955627 0.714107 0.583017
0.0955825 0.819303 0.643519
0.115572 0.817288 0.641611
0.204929 0.811795 0.639841
0.340673 0.810361 0.646754
0.478202 0.809155 0.652964
0.611322 0.810025 0.666651
0.718517 0.82211 0.666041
0.839017 0.836728 0.617533
0.952361 0.841077 0.602167
0.126421 0.913527 0.665919
0.145373 0.912428 0.665446
0.22208 0.908049 0.66511
0.358053 0.905028 0.671733
0.496391 0.903517 0.684535
0.626932 0.905348 0.701503
0.739712 0.915938 0.712474
0.835248 0.940505 0.666346
0.949935 0.951263 0.638666
0.0349432 0.0447852 0.46952
0.0895705 0.0516976 0.53312
0.206592 0.0657206 0.62739
0.337789 0.082063 0.683711
0.475914 0.101015 0.712566
0.613825 0.123903 0.723247
0.750561 0.152316 0.721904
0.874693 0.179599 0.71902
0.920256 0.181476 0.713207
0.0353094 0.10103 0.588418
0.0908675 0.104005 0.608667
0.201007 0.113649 0.639902
0.322728 0.13051 0.664363
0.460258 0.14786 0.697581
0.601877 0.169329 0.713695
0.740719 0.197696 0.713527
0.874632 0.226612 0.710979
0.923232 0.225376 0.704967
0.037583 0.209827 0.649073
0.0907149 0.206638 0.643137
0.184985 0.256855 0.536065
0.271534 0.238407 0.643091
0.444511 0.237888 0.681758
0.593408 0.248814 0.708858
0.733425 0.271153 0.708965
0.872419 0.298329 0.705776
0.927504 0.298116 0.700038
0.0446937 0.326299 0.674098
0.091371 0.321843 0.665583
0.203342 0.340734 0.595743
0.271107 0.366049 0.551843
0.383352 0.35462 0.668482
0.585809 0.34696 0.706233
0.727245 0.363485 0.70692
0.86804 0.384085 0.704906
0.931456 0.385992 0.698756
0.04477 0.448631 0.701396
0.0813916 0.443351 0.694621
0.208484 0.44387 0.664973
0.316289 0.451331 0.648737
0.419883 0.463539 0.639963
0.57644 0.458259 0.700252
0.721523 0.467552 0.707927
0.862852 0.482612 0.705715
0.935683 0.486 0.700282
0.0445106 0.574548 0.7205
0.0700084 0.57052 0.716487
0.201343 0.561379 0.720027
0.324361 0.562905 0.712062
0.447288 0.567742 0.700069
0.573907 0.573907 0.698314
0.715572 0.580133 0.714275
0.858961 0.591699 0.71046
0.941009 0.595621 0.705547
0.0529183 0.700847 0.729839
0.074403 0.697749 0.726696
0.18291 0.690623 0.72987
0.308873 0.691585 0.730816
0.434195 0.69456 0.726619
0.561807 0.699153 0.72224
0.704204 0.702739 0.71928
0.856367 0.709194 0.712917
0.950637 0.713588 0.709972
0.0728923 0.825757 0.746075
0.0922103 0.823682 0.743725
0.177203 0.819272 0.740551
0.307424 0.819715 0.743297
0.437461 0.821439 0.741909
0.574716 0.822797 0.742077
0.719478 0.822828 0.75079
0.837644 0.836042 0.725917
0.952987 0.839261 0.716731
0.0974136 0.92398 0.760327
0.114977 0.923171 0.759625
0.187732 0.919738 0.757061
0.319753 0.918532 0.758175
0.456275 0.918318 0.762112
0.597971 0.917342 0.769909
0.736934 0.919188 0.785183
0.844312 0.935851 0.781735
0.94992 0.951293 0.741756
0.036408 0.0475776 0.559258
0.0917678 0.0538186 0.62565
0.207095 0.0669566 0.717021
0.33254 0.0845502 0.765148
0.466926 0.10454 0.798947
0.606928 0.125765 0.822614
0.746777 0.153903 0.832197
0.874601 0.18114 0.835218
0.921492 0.182391 0.833951
0.0352789 0.102342 0.682582
0.0908827 0.104768 0.704005
0.200229 0.114473 0.731945
0.3196 0.132235 0.754116
0.451835 0.151034 0.788403
0.593927 0.171389 0.818326
0.737011 0.197711 0.831662
0.874434 0.227497 0.835126
0.924498 0.226001 0.83386
0.0393683 0.209323 0.742657
0.0908064 0.206439 0.739254
0.196796 0.254902 0.678187
0.281529 0.236164 0.749081
0.433402 0.243824 0.777401
0.583963 0.251133 0.817166
0.729244 0.271107 0.834684
0.869505 0.29781 0.838132
0.928573 0.298054 0.833326
0.0487526 0.324895 0.771664
0.0940261 0.320928 0.765957
0.208774 0.338231 0.726955
0.276188 0.379431 0.640177
0.351415 0.372107 0.744106
0.568872 0.353674 0.811444
0.723079 0.362692 0.837934
0.864469 0.383536 0.836912
0.932631 0.385946 0.83241
0.0526284 0.44506 0.805554
0.0896315 0.440467 0.799542
0.212528 0.444602 0.769451
0.312779 0.459998 0.732876
0.404547 0.475517 0.72253
0.542901 0.468452 0.799252
0.715633 0.467185 0.836286
0.859449 0.482048 0.837095
0.936187 0.485603 0.833463
0.0516213 0.570397 0.834272
0.0792096 0.56611 0.829145
0.19971 0.561257 0.818112
0.326223 0.564187 0.804578
0.444984 0.570474 0.79617
0.554452 0.578729 0.805508
0.706905 0.581979 0.832044
0.855848 0.59086 0.841917
0.939361 0.595819 0.837781
0.0522469 0.698711 0.849653
0.0751507 0.695415 0.846448
0.177417 0.689601 0.842664
0.311131 0.68954 0.84416
0.440955 0.691936 0.838972
0.573007 0.696193 0.83209
0.702525 0.70341 0.82977
0.848997 0.709178 0.8477
0.942641 0.714595 0.843153
0.062089 0.827451 0.859052
0.0814374 0.825666 0.857404
0.164385 0.821607 0.854047
0.29398 0.822278 0.855695
0.42295 0.824598 0.855451
0.556466 0.827558 0.854795
0.691386 0.830915 0.853864
0.836271 0.834211 0.851545
0.949157 0.837705 0.84712
0.0780804 0.931197 0.868894
0.0959487 0.930404 0.868238
0.166247 0.927504 0.86537
0.29482 0.927321 0.865278
0.425757 0.928832 0.866239
0.559533 0.930739 0.866697
0.700374 0.933272 0.866896
0.848066 0.93576 0.875425
0.950149 0.951537 0.855863
0.0367742 0.048127 0.590829
0.0912642 0.0538338 0.656107
0.205951 0.0667124 0.747082
0.3299 0.0846265 0.792325
0.462333 0.104387 0.826139
0.602319 0.126192 0.853254
0.743618 0.153765 0.86772
0.873808 0.182834 0.874296
0.922057 0.183703 0.876112
0.0361791 0.102708 0.715877
0.0894026 0.103212 0.735393
0.198642 0.112947 0.763394
0.317006 0.130617 0.784436
0.447745 0.150195 0.817823
0.58938 0.170214 0.851026
0.732998 0.196292 0.869474
0.87335 0.227481 0.877287
0.924834 0.226032 0.878996
0.0404974 0.207813 0.773678
0.0903639 0.20502 0.771252
0.19968 0.208362 0.774487
0.316136 0.220569 0.787564
0.441032 0.235584 0.813519
0.57911 0.250263 0.849958
0.724987 0.269734 0.873747
0.866621 0.29601 0.8822
0.929061 0.298009 0.884169
0.0505684 0.323033 0.803342
0.0942855 0.319036 0.798657
0.206149 0.319966 0.796048
0.321874 0.326955 0.80116
0.441047 0.338247 0.815091
0.571557 0.349767 0.846525
0.718303 0.361852 0.878126
0.861753 0.381613 0.888472
0.933227 0.385229 0.890593
0.0553445 0.442603 0.838315
0.0912795 0.438087 0.833265
0.208225 0.436866 0.825452
0.327855 0.441505 0.823804
0.446479 0.448966 0.828077
0.568536 0.459663 0.844419
0.709834 0.467201 0.880461
0.856626 0.480293 0.896193
0.936736 0.484855 0.898329
0.0548867 0.567391 0.874784
0.0831159 0.563165 0.871504
0.199207 0.558694 0.862562
0.326802 0.560708 0.856703
0.451575 0.565744 0.853284
0.572625 0.573327 0.856184
0.70251 0.582864 0.878279
0.852033 0.590143 0.905486
0.939834 0.595285 0.907713
0.0550393 0.695674 0.906188
0.0775158 0.692699 0.904585
0.178058 0.687449 0.899153
0.310155 0.688411 0.896605
0.443992 0.690455 0.891768
0.575647 0.695094 0.885893
0.703502 0.702892 0.886839
0.844114 0.709621 0.914961
0.943191 0.714275 0.919936
0.0604562 0.826047 0.932769
0.0784161 0.824567 0.931975
0.16173 0.820798 0.928267
0.291264 0.821363 0.927932
0.424079 0.823468 0.927886
0.558999 0.825788 0.926986
0.699275 0.828321 0.923232
0.835554 0.834165 0.919997
0.946685 0.837613 0.935149
0.0728161 0.933974 0.950759
0.0903182 0.933455 0.950225
0.159701 0.930404 0.947036
0.287846 0.930419 0.946517
0.418173 0.932128 0.94699
0.550042 0.934478 0.947433
0.686183 0.938369 0.94818
0.824475 0.944381 0.949706
0.949722 0.951141 0.951156
