assets/luts/LDmono1.cube
TITLE "LD - Earthy Monochrome 1"
# Copyright (c) 2019 Lens Distortions, LLC. All Rights Reserved.
# LensDistortions.com
# ref-EM10
LUT_3D_SIZE 33
0.0187991 0.0252995 0.0287785
0.0299687 0.0275883 0.0307012
0.0436408 0.0307012 0.033402
0.0637369 0.0347601 0.0362097
0.0905318 0.0396735 0.0390631
0.122957 0.0460365 0.0419165
0.160113 0.0536812 0.0446326
0.202136 0.0617838 0.0465248
0.247288 0.0695506 0.0472725
0.292546 0.0772259 0.046952
0.336782 0.0851453 0.046128
0.37763 0.0922866 0.0447547
0.41532 0.0990463 0.0428931
0.450416 0.10602 0.0415351
0.483406 0.11313 0.0406958
0.51548 0.120073 0.0396429
0.548058 0.127428 0.0390173
0.580118 0.134447 0.0382391
0.612711 0.141466 0.0375219
0.645304 0.148379 0.0367742
0.679026 0.155337 0.0363012
0.713191 0.162173 0.035874
0.747478 0.169085 0.0354314
0.781689 0.17612 0.0351873
0.815122 0.183032 0.0347753
0.848188 0.190082 0.0345006
0.880323 0.197421 0.0345617
0.908873 0.202884 0.0344244
0.923934 0.202487 0.0342107
0.938872 0.202411 0.0341802
0.953094 0.202319 0.0341497
0.962524 0.202304 0.0341955
0.962524 0.202304 0.0341955
0.0228122 0.0398718 0.035935
0.0352789 0.04094 0.0375677
0.0496986 0.0444038 0.0387121
0.0707713 0.0484016 0.0408484
0.0973373 0.0527504 0.0425269
0.130861 0.059144 0.0446632
0.167452 0.0662242 0.0462501
0.209064 0.0736095 0.0466773
0.252461 0.0807813 0.0461433
0.295705 0.0881056 0.0448615
0.337835 0.0956741 0.0434272
0.375967 0.102251 0.0415656
0.412314 0.108858 0.039765
0.445777 0.115923 0.0389563
0.478218 0.122652 0.038056
0.510628 0.129885 0.0371099
0.543313 0.136858 0.0367742
0.575479 0.143572 0.0361791
0.608423 0.1505 0.0355993
0.641566 0.157122 0.0351873
0.6757 0.163958 0.0349584
0.710079 0.170855 0.034638
0.744732 0.177813 0.0345159
0.778851 0.184771 0.0341192
0.812558 0.191653 0.0338598
0.845701 0.198993 0.0337987
0.878035 0.205966 0.0339208
0.908537 0.212375 0.0337682
0.923674 0.211856 0.0337377
0.938552 0.211505 0.0337987
0.952758 0.211017 0.033814
0.962966 0.210727 0.0338293
0.962951 0.210407 0.0338445
0.0303044 0.0584726 0.0456397
0.0415045 0.0587472 0.0472419
0.0541238 0.0619669 0.0483558
0.0743114 0.0655528 0.0457923
0.104158 0.0694591 0.046067
0.137331 0.0747082 0.046891
0.174029 0.0816815 0.0473945
0.213489 0.0887007 0.0471046
0.254978 0.0958267 0.0459297
0.296468 0.103044 0.0443427
0.335012 0.109346 0.0420233
0.371832 0.11548 0.0396582
0.406775 0.12195 0.0381018
0.439872 0.128252 0.0365759
0.472587 0.134798 0.0354162
0.505409 0.141329 0.0345617
0.53814 0.148028 0.034287
0.571313 0.154467 0.034165
0.60473 0.161639 0.0339818
0.638132 0.1682 0.0336919
0.672389 0.175097 0.0335546
0.706706 0.181781 0.0333867
0.741543 0.188602 0.0332799
0.776043 0.195331 0.0330968
0.809995 0.202106 0.0332799
0.843244 0.209003 0.0331731
0.875395 0.215763 0.033463
0.90724 0.223224 0.0333104
0.923217 0.222919 0.0332799
0.938094 0.2224 0.0333562
0.952361 0.221729 0.0333562
0.963317 0.221439 0.0333562
0.963302 0.221118 0.0333715
0.0369879 0.0809796 0.0563516
0.0470588 0.0825513 0.0581674
0.0610513 0.0837873 0.0601205
0.0762646 0.0884871 0.0548714
0.106432 0.092668 0.0512551
0.140932 0.0959945 0.0493629
0.177234 0.101381 0.0485389
0.215824 0.108385 0.0476081
0.254917 0.113954 0.0462959
0.293217 0.119615 0.0441291
0.330465 0.125109 0.041825
0.36611 0.131228 0.0400702
0.39942 0.136751 0.0387732
0.432929 0.142748 0.0374456
0.466606 0.148974 0.0362707
0.500023 0.155032 0.03505
0.534157 0.161242 0.0341955
0.567468 0.167498 0.0335241
0.601205 0.174014 0.0328374
0.634897 0.180529 0.0324254
0.669291 0.187137 0.0325475
0.703914 0.193652 0.0325475
0.738918 0.200381 0.032639
0.773465 0.207019 0.0327764
0.807157 0.214008 0.0327001
0.840513 0.22089 0.0326848
0.873121 0.227909 0.0330205
0.905028 0.234791 0.0328985
0.923003 0.235431 0.0328527
0.937972 0.234852 0.0329137
0.952239 0.234089 0.0329137
0.963943 0.233494 0.0329595
0.963928 0.233097 0.0329747
0.0434424 0.111223 0.0696117
0.0523995 0.111559 0.0708476
0.0677958 0.112627 0.0727092
0.0840467 0.115007 0.0725109
0.105669 0.119524 0.0599985
0.140688 0.122484 0.0552987
0.177417 0.12723 0.0522774
0.213642 0.131258 0.05037
0.250828 0.135409 0.0483711
0.288426 0.139925 0.0464485
0.324269 0.144228 0.0449683
0.358968 0.149172 0.0437476
0.39379 0.15433 0.0429694
0.42768 0.159533 0.0416419
0.46157 0.165026 0.040528
0.495827 0.170687 0.0395361
0.529397 0.176471 0.0386664
0.563684 0.182681 0.0378119
0.597421 0.188663 0.0368353
0.631632 0.19498 0.0354314
0.666102 0.201205 0.0339666
0.701106 0.207599 0.0327611
0.73608 0.214038 0.0322271
0.770581 0.220844 0.0323033
0.804593 0.227451 0.0322423
0.838331 0.234363 0.0322271
0.870756 0.241032 0.0325933
0.902602 0.248051 0.0324559
0.923003 0.249638 0.0323949
0.937789 0.248707 0.0323644
0.952193 0.248081 0.0324254
0.964416 0.247395 0.0323949
0.964462 0.246937 0.0324559
0.0496681 0.144747 0.0843824
0.0572824 0.144274 0.085008
0.0736858 0.144579 0.0866255
0.0920424 0.145892 0.0877699
0.111192 0.149294 0.0802319
0.139864 0.151827 0.0648356
0.17438 0.153872 0.0600595
0.209888 0.156435 0.0561837
0.246311 0.159686 0.0542153
0.282475 0.162478 0.052842
0.31841 0.16614 0.0518807
0.353399 0.170062 0.0509346
0.388434 0.174441 0.0501259
0.42266 0.179004 0.0490578
0.457191 0.183932 0.0480354
0.491478 0.189227 0.0469978
0.525597 0.1944 0.046479
0.559747 0.200244 0.0451209
0.593973 0.206256 0.0439155
0.627909 0.211994 0.0426337
0.662562 0.218143 0.0410163
0.697261 0.224231 0.0394293
0.732647 0.230564 0.0376135
0.767636 0.236866 0.0357366
0.802045 0.243473 0.0339971
0.835721 0.249958 0.0326696
0.868528 0.256565 0.0323491
0.90045 0.263264 0.0319371
0.923003 0.265751 0.0318456
0.938033 0.264851 0.0318914
0.952453 0.264103 0.0319371
0.965179 0.263188 0.0318914
0.965133 0.262592 0.0318914
0.0561227 0.179553 0.100237
0.0623636 0.178302 0.100343
0.0789654 0.177142 0.101381
0.0975967 0.176165 0.1019
0.118456 0.17673 0.0994736
0.140047 0.180072 0.0820325
0.171374 0.181628 0.071397
0.204517 0.183322 0.0672007
0.240299 0.18529 0.0634775
0.276829 0.187625 0.0616312
0.313191 0.190417 0.0603037
0.348562 0.19382 0.0593271
0.383749 0.197421 0.0584115
0.418326 0.201434 0.0576028
0.453086 0.205753 0.0566415
0.487465 0.210513 0.0556344
0.52166 0.215351 0.0553292
0.556039 0.220645 0.0541238
0.589944 0.226078 0.0531167
0.624079 0.23151 0.051545
0.658412 0.237263 0.0502785
0.69366 0.243168 0.0486763
0.728603 0.249134 0.047013
0.763958 0.255497 0.0449531
0.798596 0.261845 0.0428626
0.832395 0.268238 0.0404822
0.865431 0.274434 0.0383917
0.897704 0.280766 0.035996
0.922911 0.284169 0.0339666
0.937926 0.282963 0.0334478
0.952514 0.282155 0.0330968
0.96585 0.281071 0.032639
0.965911 0.280446 0.0325017
0.0621958 0.210758 0.115053
0.0682841 0.209277 0.114946
0.0836347 0.207492 0.115602
0.102907 0.20557 0.116213
0.124636 0.204211 0.115541
0.146151 0.205631 0.106554
0.170077 0.209079 0.0879988
0.200977 0.21062 0.0808423
0.234882 0.212253 0.0764172
0.271092 0.214466 0.072221
0.307622 0.216541 0.0697795
0.343633 0.219074 0.0682078
0.378805 0.22237 0.0670939
0.413855 0.225727 0.0662089
0.448707 0.229633 0.0653391
0.483482 0.233967 0.0643473
0.517662 0.23798 0.0638437
0.552117 0.243 0.0629587
0.586114 0.247913 0.0619211
0.620295 0.25304 0.0606699
0.654887 0.258366 0.0595407
0.689784 0.264118 0.0581369
0.725078 0.269703 0.0565957
0.760342 0.275578 0.054963
0.794858 0.281376 0.0529183
0.829053 0.287388 0.0509194
0.862165 0.293324 0.049073
0.894636 0.299458 0.0464485
0.922255 0.303822 0.0443732
0.937346 0.302495 0.0432746
0.951888 0.301472 0.0422217
0.965957 0.300313 0.0412909
0.965957 0.299596 0.0408789
0.0697337 0.240345 0.130251
0.0755627 0.238422 0.129839
0.0888685 0.236454 0.13019
0.108354 0.233906 0.130648
0.13022 0.231983 0.130556
0.153338 0.231662 0.126818
0.173754 0.235264 0.112108
0.199313 0.238605 0.0969253
0.231174 0.240253 0.0905928
0.265858 0.24213 0.0860914
0.302235 0.244205 0.0813916
0.338399 0.246174 0.0783856
0.374075 0.248905 0.0766003
0.409354 0.25182 0.0751965
0.44445 0.255299 0.0741894
0.478935 0.258808 0.0730144
0.513619 0.262608 0.0718853
0.547951 0.266896 0.0715038
0.582269 0.271351 0.070634
0.616526 0.27599 0.069398
0.65124 0.280919 0.0682689
0.686275 0.286381 0.067216
0.721294 0.291279 0.0656748
0.756832 0.296712 0.0641794
0.791577 0.302235 0.0626383
0.825696 0.30782 0.0606699
0.859159 0.313558 0.0592966
0.891691 0.319081 0.057145
0.921645 0.323903 0.0548257
0.936645 0.322545 0.0538338
0.951339 0.32134 0.0530404
0.965866 0.320211 0.0521553
0.965866 0.319448 0.0517891
0.0770733 0.269703 0.14519
0.0827955 0.268193 0.144991
0.0941787 0.265736 0.144884
0.113771 0.263218 0.145495
0.135683 0.260868 0.145602
0.160204 0.259358 0.143984
0.18146 0.261463 0.136065
0.201633 0.266285 0.11989
0.228992 0.269062 0.106676
0.261952 0.270573 0.100511
0.297276 0.272557 0.0960861
0.333028 0.274571 0.0910048
0.368856 0.276692 0.0875715
0.40444 0.279408 0.0852674
0.439689 0.282078 0.08365
0.474632 0.285206 0.0822766
0.50927 0.288533 0.0809796
0.544015 0.292409 0.079881
0.578088 0.29601 0.0792401
0.612833 0.300298 0.0783093
0.647334 0.304784 0.0771801
0.682353 0.309407 0.0758831
0.71783 0.31397 0.0746471
0.753323 0.318944 0.0731365
0.788418 0.32401 0.0716106
0.822507 0.328954 0.0699016
0.856367 0.33431 0.0687114
0.888869 0.339483 0.0665904
0.920958 0.344991 0.0645914
0.93608 0.343557 0.0636454
0.950927 0.34229 0.0627756
0.965438 0.341085 0.0618601
0.965774 0.340383 0.0615396
0.0843366 0.298695 0.160067
0.0897383 0.297169 0.159823
0.0998093 0.294987 0.159731
0.119036 0.292103 0.160113
0.141329 0.289464 0.160372
0.166461 0.287556 0.159625
0.189395 0.288579 0.156054
0.208545 0.292561 0.145144
0.230121 0.297215 0.128161
0.259617 0.299718 0.116472
0.293294 0.301122 0.110582
0.328069 0.302968 0.105913
0.363867 0.30518 0.100938
0.399512 0.307393 0.0971847
0.434714 0.309758 0.0944839
0.469978 0.31223 0.0925154
0.504891 0.315145 0.0907607
0.539544 0.31809 0.0892958
0.573999 0.321675 0.088014
0.608545 0.32546 0.0876326
0.643488 0.329366 0.0863966
0.678401 0.333165 0.0848402
0.714046 0.33753 0.0835584
0.749828 0.341939 0.0821851
0.784939 0.346441 0.0805524
0.819577 0.351415 0.0789654
0.85333 0.356176 0.0780499
0.885969 0.360967 0.0759747
0.918212 0.365942 0.0740063
0.935699 0.365225 0.0728618
0.950423 0.364034 0.0719768
0.965133 0.362814 0.0717327
0.965743 0.362036 0.0714427
0.0914931 0.327382 0.174823
0.0966354 0.325948 0.174624
0.105196 0.323659 0.174319
0.124483 0.320882 0.174701
0.146746 0.318181 0.175113
0.172183 0.315969 0.174868
0.196429 0.315587 0.173007
0.216495 0.318624 0.167285
0.235569 0.3234 0.153368
0.259663 0.327703 0.136217
0.2907 0.329809 0.126116
0.324605 0.331365 0.120592
0.35874 0.333181 0.116014
0.394034 0.335271 0.110765
0.429435 0.337423 0.106737
0.465019 0.339513 0.103624
0.500191 0.342 0.101488
0.535119 0.344839 0.0996567
0.569818 0.347921 0.0979782
0.604471 0.35108 0.0967422
0.639261 0.354452 0.0959793
0.674372 0.357885 0.094377
0.710079 0.361791 0.0929732
0.745968 0.36585 0.0915389
0.781552 0.369985 0.0899367
0.816434 0.374334 0.0881819
0.850416 0.378759 0.0870375
0.883238 0.383062 0.0852216
0.915679 0.387732 0.0832532
0.935302 0.387778 0.0819867
0.950149 0.386648 0.0812848
0.964813 0.385306 0.0815137
0.965713 0.384573 0.0814069
0.0986343 0.355947 0.189517
0.103426 0.354208 0.18909
0.111818 0.35227 0.188861
0.12987 0.349538 0.189288
0.151888 0.346654 0.189746
0.177417 0.343954 0.189624
0.202747 0.342977 0.188891
0.224048 0.344869 0.186007
0.243214 0.34902 0.177508
0.263691 0.354314 0.161013
0.290425 0.358282 0.144961
0.321965 0.360113 0.13608
0.355352 0.361501 0.13077
0.389639 0.363195 0.126085
0.42446 0.36527 0.120775
0.459876 0.367346 0.116457
0.495277 0.369482 0.113085
0.530388 0.371908 0.11078
0.565255 0.374472 0.108721
0.600031 0.377188 0.106767
0.634882 0.380255 0.105318
0.670451 0.383444 0.104433
0.706218 0.386938 0.102922
0.742275 0.390417 0.101106
0.778027 0.394141 0.0996719
0.813001 0.398062 0.0978103
0.847257 0.402106 0.0966201
0.880446 0.406088 0.0947738
0.912917 0.410452 0.0927443
0.93489 0.4112 0.0913252
0.949798 0.409842 0.0903639
0.964401 0.408286 0.0910353
0.965515 0.407477 0.0910353
0.105913 0.384421 0.203937
0.110887 0.382803 0.203525
0.11873 0.380636 0.203174
0.135103 0.378088 0.203464
0.156847 0.375051 0.203937
0.182559 0.371984 0.203983
0.208865 0.370565 0.203754
0.231113 0.371923 0.202838
0.251118 0.375158 0.198077
0.270573 0.379995 0.186069
0.292699 0.385046 0.168063
0.320836 0.388479 0.153948
0.352575 0.390021 0.145846
0.385901 0.391318 0.140826
0.420142 0.393149 0.136156
0.454963 0.395254 0.13077
0.490333 0.397162 0.126177
0.525536 0.399374 0.122637
0.560494 0.401602 0.119997
0.595605 0.404089 0.117754
0.630838 0.406836 0.115877
0.666346 0.409506 0.114183
0.702113 0.412589 0.113085
0.738552 0.415732 0.111391
0.774441 0.419165 0.109865
0.809659 0.422751 0.108003
0.844038 0.426123 0.106416
0.877714 0.429908 0.104646
0.910506 0.433967 0.102785
0.934432 0.435142 0.101091
0.949355 0.4336 0.0999161
0.96408 0.43212 0.100435
0.965423 0.43125 0.100374
0.113146 0.412467 0.2177
0.117891 0.411093 0.217456
0.125948 0.408957 0.217136
0.140185 0.406271 0.217151
0.161807 0.403235 0.217563
0.187625 0.400153 0.217853
0.214511 0.398291 0.217823
0.23743 0.398947 0.217762
0.258412 0.401526 0.215503
0.278218 0.405478 0.207828
0.298253 0.410727 0.192706
0.32221 0.415518 0.174929
0.3514 0.418387 0.162692
0.383551 0.420066 0.155596
0.416693 0.421424 0.150835
0.450645 0.423102 0.146181
0.485466 0.425208 0.140932
0.520668 0.4271 0.136263
0.555764 0.429114 0.132326
0.590799 0.431128 0.129427
0.626276 0.43357 0.126894
0.662058 0.436179 0.124926
0.698146 0.438911 0.123049
0.734508 0.441764 0.121309
0.770687 0.444831 0.120043
0.806027 0.447761 0.118288
0.840726 0.451102 0.11635
0.874739 0.454673 0.115053
0.907607 0.457954 0.113085
0.933684 0.459709 0.111208
0.948898 0.458091 0.11014
0.963592 0.456657 0.111559
0.965209 0.455787 0.111971
0.120867 0.440482 0.231571
0.124849 0.439124 0.231266
0.13286 0.43711 0.231022
0.145312 0.43444 0.230793
0.166796 0.431556 0.231296
0.192248 0.428138 0.231342
0.219669 0.426001 0.23151
0.24361 0.426337 0.232044
0.26511 0.428199 0.231235
0.285756 0.431617 0.226856
0.305577 0.43624 0.216007
0.326635 0.441718 0.198795
0.351965 0.445838 0.182147
0.381933 0.448447 0.171237
0.414176 0.45005 0.16466
0.447181 0.45124 0.160174
0.481117 0.452873 0.155932
0.515602 0.454932 0.150896
0.550698 0.456794 0.146105
0.585885 0.4589 0.142138
0.621653 0.461219 0.139086
0.65771 0.463371 0.136309
0.693797 0.465736 0.134096
0.730129 0.468177 0.131807
0.766705 0.470802 0.130144
0.802411 0.473579 0.128847
0.837476 0.476753 0.126848
0.871473 0.479667 0.124788
0.904494 0.48275 0.123354
0.933013 0.484825 0.121477
0.94847 0.483192 0.120348
0.962997 0.481376 0.122057
0.964935 0.480568 0.122805
0.128099 0.468528 0.245365
0.131762 0.467155 0.245014
0.139681 0.465064 0.244709
0.150332 0.462837 0.244495
0.171496 0.459571 0.244755
0.197162 0.45626 0.245014
0.224872 0.453727 0.245197
0.249393 0.453864 0.246082
0.271504 0.455329 0.246174
0.29279 0.457923 0.243778
0.313237 0.462013 0.236637
0.333043 0.467155 0.222919
0.355245 0.47245 0.20499
0.381979 0.476204 0.189761
0.412253 0.478416 0.179995
0.444663 0.479896 0.173693
0.47808 0.48127 0.16939
0.511757 0.483009 0.165286
0.546212 0.484993 0.160525
0.58117 0.486824 0.155978
0.616632 0.488762 0.151843
0.652598 0.490867 0.148547
0.689082 0.492943 0.145617
0.725765 0.495155 0.143206
0.762417 0.49752 0.140841
0.798764 0.500191 0.138918
0.833661 0.502525 0.137438
0.86804 0.505318 0.135332
0.901381 0.508232 0.13315
0.932174 0.510643 0.13193
0.94757 0.508721 0.130587
0.962417 0.507164 0.131716
0.964736 0.506355 0.132479
0.135317 0.496315 0.2589
0.138598 0.495003 0.258518
0.146532 0.493141 0.258259
0.155612 0.490883 0.257969
0.176394 0.487663 0.258198
0.202075 0.484489 0.258625
0.229847 0.481849 0.25893
0.254887 0.481254 0.259648
0.277546 0.482383 0.26038
0.299367 0.484611 0.259419
0.320348 0.487922 0.254948
0.340734 0.492882 0.245014
0.361074 0.498482 0.229221
0.38439 0.503426 0.211582
0.412161 0.50663 0.19826
0.442939 0.508721 0.188907
0.475425 0.510033 0.182818
0.508659 0.511299 0.178576
0.542473 0.513176 0.17438
0.577005 0.515114 0.169741
0.612009 0.516854 0.165347
0.647944 0.518746 0.161486
0.68423 0.520653 0.158053
0.720958 0.522545 0.154894
0.758206 0.524636 0.152392
0.794461 0.526802 0.149844
0.829892 0.529168 0.147784
0.864393 0.531579 0.146105
0.8981 0.534173 0.143877
0.930587 0.536599 0.141588
0.947066 0.535103 0.141176
0.961868 0.533562 0.141802
0.964431 0.532616 0.142565
0.142626 0.52433 0.272404
0.145632 0.523186 0.272099
0.153368 0.521004 0.271717
0.162509 0.518853 0.271473
0.181491 0.516045 0.271748
0.20679 0.512581 0.272023
0.234699 0.509621 0.272267
0.260258 0.508812 0.273106
0.283268 0.509682 0.274128
0.305653 0.511589 0.274083
0.327688 0.514748 0.271702
0.348516 0.518959 0.264744
0.368322 0.524071 0.252232
0.389364 0.529549 0.23505
0.413764 0.534066 0.218265
0.44242 0.536843 0.206317
0.473732 0.538842 0.197482
0.506157 0.540337 0.191867
0.539193 0.541512 0.187625
0.572976 0.54313 0.183383
0.607797 0.5449 0.178744
0.643397 0.546715 0.174228
0.679545 0.548348 0.170245
0.716472 0.550362 0.166888
0.753674 0.552178 0.164019
0.790341 0.554162 0.161257
0.826108 0.556268 0.15877
0.860853 0.558251 0.156435
0.894728 0.560494 0.154681
0.927596 0.562905 0.152392
0.946181 0.561898 0.151003
0.961273 0.56025 0.152148
0.964141 0.55935 0.153109
0.149813 0.5523 0.28603
0.152453 0.551125 0.285679
0.160311 0.549172 0.285389
0.169421 0.546929 0.284993
0.186801 0.544182 0.285176
0.211521 0.540795 0.285527
0.239261 0.537636 0.28571
0.265553 0.536477 0.286473
0.289174 0.537316 0.287892
0.311971 0.539101 0.28864
0.334401 0.54168 0.287449
0.355856 0.54522 0.282826
0.375937 0.549905 0.273548
0.395773 0.555276 0.258793
0.41767 0.560403 0.24097
0.443442 0.564431 0.225711
0.472953 0.567452 0.21471
0.504356 0.5691 0.206317
0.53669 0.570489 0.200839
0.569909 0.571649 0.196612
0.60383 0.573297 0.192538
0.639094 0.575051 0.187747
0.675319 0.576883 0.183291
0.711772 0.578393 0.179004
0.749004 0.580056 0.175387
0.785931 0.581827 0.172473
0.821942 0.583658 0.169757
0.857191 0.585687 0.167361
0.891554 0.587915 0.165087
0.924681 0.589883 0.163027
0.945434 0.58938 0.161746
0.960494 0.587625 0.16202
0.963668 0.586694 0.163134
0.156954 0.580209 0.299657
0.159289 0.579232 0.299351
0.167239 0.577325 0.299077
0.176287 0.575265 0.298817
0.191562 0.572595 0.298756
0.215961 0.569146 0.298985
0.243885 0.565942 0.299245
0.27071 0.564492 0.300114
0.294591 0.565042 0.301564
0.317769 0.566537 0.302739
0.34049 0.568627 0.30251
0.362615 0.571786 0.299748
0.383352 0.57583 0.293065
0.403357 0.581079 0.281712
0.423606 0.586618 0.2654
0.446571 0.591592 0.247684
0.473335 0.595209 0.233433
0.502861 0.597543 0.223041
0.534463 0.599283 0.215213
0.566979 0.600687 0.209827
0.600488 0.60177 0.205524
0.635142 0.603662 0.201343
0.67068 0.60528 0.196643
0.707149 0.606989 0.19202
0.744396 0.608667 0.1879
0.781506 0.610239 0.184192
0.817929 0.611963 0.181064
0.853284 0.613657 0.178103
0.887816 0.615656 0.175723
0.921279 0.617685 0.173373
0.944503 0.617517 0.171923
0.959869 0.615854 0.172351
0.963363 0.614969 0.173434
0.164157 0.608591 0.313542
0.16614 0.607797 0.313313
0.173999 0.605737 0.312932
0.183001 0.603708 0.312673
0.196399 0.601099 0.312428
0.220249 0.598001 0.312764
0.2486 0.59443 0.312871
0.2757 0.592721 0.313649
0.29987 0.592981 0.315221
0.323064 0.594141 0.316686
0.346273 0.596033 0.317189
0.3691 0.59884 0.315908
0.390478 0.602472 0.311543
0.410727 0.607126 0.302953
0.430518 0.612421 0.289311
0.451286 0.617914 0.272282
0.475242 0.622553 0.254902
0.502754 0.625849 0.241672
0.532723 0.628183 0.231968
0.564553 0.629908 0.22446
0.597589 0.631327 0.218997
0.631754 0.632593 0.214664
0.666514 0.634241 0.210285
0.702434 0.635828 0.205509
0.739467 0.637446 0.200824
0.776699 0.639094 0.196628
0.813504 0.641016 0.192966
0.849317 0.642649 0.189761
0.884138 0.644388 0.18677
0.917845 0.645991 0.184054
0.943572 0.646494 0.182101
0.95903 0.644739 0.182284
0.96286 0.6439 0.183932
0.171328 0.636988 0.327474
0.172808 0.636133 0.327169
0.181033 0.634119 0.326818
0.189746 0.632136 0.326543
0.200702 0.629877 0.326223
0.224094 0.626657 0.326497
0.252689 0.623041 0.326619
0.280095 0.620905 0.327245
0.30457 0.62089 0.328771
0.327977 0.621897 0.330388
0.351736 0.623697 0.33164
0.374777 0.626062 0.331334
0.397116 0.629404 0.328695
0.417929 0.633494 0.32256
0.437781 0.638437 0.312047
0.457572 0.643824 0.29691
0.479255 0.64921 0.279225
0.50396 0.653635 0.263081
0.532219 0.656916 0.250477
0.562951 0.659312 0.241184
0.595102 0.661082 0.234073
0.628748 0.662394 0.228458
0.663188 0.663661 0.224094
0.698436 0.665202 0.219501
0.734951 0.666957 0.214664
0.771908 0.668513 0.209751
0.808759 0.670222 0.205432
0.844816 0.67187 0.201556
0.880156 0.673579 0.198444
0.91426 0.675212 0.195331
0.942412 0.67599 0.193011
0.958083 0.674434 0.19292
0.962249 0.673716 0.194568
0.178546 0.665537 0.341543
0.179644 0.664851 0.341283
0.187671 0.662684 0.34078
0.196307 0.6607 0.340459
0.206149 0.658778 0.340215
0.22797 0.655558 0.340337
0.256092 0.651881 0.340444
0.284138 0.649378 0.340963
0.309163 0.64921 0.342611
0.332692 0.650095 0.344381
0.356451 0.651469 0.345754
0.380301 0.653727 0.346273
0.403143 0.656687 0.344915
0.424567 0.660304 0.340902
0.444846 0.664744 0.33312
0.464744 0.670069 0.320897
0.484977 0.675761 0.304829
0.507424 0.681025 0.287144
0.533165 0.685359 0.272053
0.561852 0.688502 0.2598
0.592996 0.690761 0.250782
0.625803 0.692363 0.24358
0.659831 0.693706 0.23798
0.694789 0.694972 0.233478
0.730983 0.696818 0.228885
0.767758 0.698634 0.223957
0.804334 0.700236 0.219013
0.840299 0.701732 0.214374
0.8757 0.703258 0.210285
0.910231 0.704921 0.207065
0.941192 0.706188 0.204135
0.957229 0.704814 0.203525
0.961639 0.704082 0.205219
0.186175 0.694072 0.355489
0.186633 0.693538 0.355276
0.194202 0.691463 0.354742
0.20293 0.689509 0.354437
0.212589 0.687663 0.354299
0.232059 0.684657 0.354314
0.259281 0.680934 0.35433
0.288029 0.678233 0.35491
0.313207 0.677638 0.356359
0.337102 0.678447 0.358282
0.361196 0.679896 0.360021
0.385336 0.681804 0.361089
0.408652 0.684367 0.360693
0.430854 0.687678 0.35819
0.45211 0.691951 0.352834
0.47216 0.696864 0.343572
0.491981 0.702358 0.32987
0.512764 0.708141 0.313085
0.536004 0.713283 0.295796
0.562432 0.717296 0.281041
0.591714 0.720317 0.269337
0.623636 0.72253 0.260471
0.656931 0.724239 0.253315
0.691554 0.725704 0.247776
0.727214 0.727016 0.243061
0.763592 0.728664 0.238361
0.800031 0.73051 0.233326
0.835996 0.732204 0.228305
0.871504 0.733898 0.223529
0.906081 0.735546 0.21944
0.939773 0.737163 0.21593
0.955993 0.735744 0.214725
0.960922 0.735073 0.216602
0.193164 0.722255 0.369451
0.193057 0.721843 0.369253
0.200748 0.71986 0.368734
0.209308 0.718105 0.368429
0.218891 0.71632 0.368231
0.235599 0.713649 0.368124
0.262516 0.710277 0.368429
0.291218 0.707347 0.368887
0.317311 0.706447 0.370275
0.341573 0.707088 0.372259
0.365545 0.708354 0.374151
0.38996 0.71014 0.375647
0.414099 0.712642 0.376211
0.437095 0.71574 0.375036
0.458762 0.719478 0.371359
0.479393 0.723964 0.364401
0.499519 0.729412 0.353674
0.519478 0.735149 0.338781
0.540795 0.74078 0.321584
0.564813 0.745785 0.304768
0.592111 0.749706 0.290501
0.622263 0.752682 0.27921
0.654917 0.755047 0.270573
0.688823 0.75671 0.263386
0.723781 0.758175 0.257755
0.759854 0.759426 0.252827
0.795956 0.761059 0.248127
0.831769 0.762905 0.242969
0.867216 0.764721 0.237842
0.902037 0.766537 0.233005
0.935836 0.767926 0.22858
0.954559 0.766995 0.226642
0.960311 0.766415 0.228946
0.199954 0.750057 0.383276
0.199847 0.749676 0.383078
0.206973 0.748028 0.382742
0.215427 0.746227 0.38233
0.225086 0.744396 0.382101
0.238926 0.742351 0.382147
0.2654 0.739025 0.382345
0.294286 0.735973 0.382635
0.321355 0.734966 0.384009
0.345708 0.735607 0.38613
0.369955 0.736767 0.388251
0.394568 0.73843 0.390051
0.419181 0.740764 0.391318
0.442618 0.743618 0.391073
0.465187 0.747189 0.388891
0.486625 0.751507 0.3841
0.506966 0.756329 0.375708
0.526894 0.761852 0.363485
0.547112 0.767788 0.347799
0.569162 0.773404 0.330175
