assets/luts/LDmono2.cube
TITLE "LD - Earthy Monochrome 2"
# Copyright (c) 2019 Lens Distortions, LLC. All Rights Reserved.
# LensDistortions.com
# ref-EM10
LUT_3D_SIZE 5
0.0142367 0.018555 0.0209659
0.1991 0.0533608 0.0384222
0.513634 0.0940719 0.027039
0.788159 0.147127 0.026627
0.952926 0.170367 0.0284733
0.0590677 0.205249 0.103365
0.203189 0.212528 0.0701305
0.48574 0.232105 0.0556039
0.768032 0.27068 0.0497597
0.960189 0.292088 0.0445258
0.116991 0.430014 0.209567
0.241779 0.427344 0.215976
0.451606 0.455055 0.139483
0.741894 0.472084 0.114382
0.960754 0.485908 0.111192
0.176913 0.661112 0.322133
0.284962 0.655528 0.329793
0.468238 0.682551 0.30631
0.707958 0.707576 0.216785
0.954452 0.718486 0.191699
0.232654 0.869871 0.423224
0.318349 0.86836 0.431571
0.522911 0.886213 0.448264
0.704005 0.92987 0.35697
0.950317 0.951629 0.301076
0.0215152 0.0261997 0.110658
0.203479 0.0555581 0.207324
0.493706 0.0957046 0.225055
0.770535 0.147601 0.212467
0.939788 0.171389 0.200351
0.0209354 0.216114 0.23328
0.200488 0.207935 0.221149
0.445121 0.243656 0.203632
0.726879 0.289311 0.198428
0.953857 0.290288 0.184222
0.080766 0.442603 0.291646
0.285679 0.424247 0.366857
0.509957 0.437339 0.27248
0.747234 0.46595 0.240467
0.959854 0.482902 0.225132
0.151354 0.671 0.390433
0.304707 0.660166 0.432959
0.494697 0.675166 0.422553
0.71194 0.704906 0.323186
0.955459 0.717327 0.293873
0.213596 0.879499 0.483665
0.303838 0.875532 0.492149
0.526802 0.886671 0.520821
0.710704 0.926299 0.463157
0.95021 0.951507 0.394598
0.0293126 0.0357977 0.262104
0.20322 0.0607614 0.409735
0.488518 0.0967269 0.474052
0.754452 0.151461 0.464591
0.921416 0.17879 0.455467
0.0314794 0.210697 0.439536
0.158892 0.236118 0.34757
0.465019 0.230747 0.45655
0.736584 0.276692 0.437049
0.93434 0.295537 0.440543
0.0361944 0.455039 0.477928
0.223819 0.435904 0.504646
0.448188 0.449653 0.464195
0.726192 0.470787 0.442908
0.953353 0.482414 0.440757
0.0888228 0.692027 0.52253
0.238895 0.679683 0.540032
0.491249 0.677684 0.549493
0.712642 0.703502 0.494591
0.956161 0.715282 0.471519
0.160525 0.90103 0.590951
0.257954 0.894804 0.594232
0.518929 0.893721 0.625269
0.729809 0.918395 0.630472
0.950042 0.951339 0.546746
0.0349432 0.0447852 0.46952
0.206592 0.0657206 0.62739
0.475914 0.101015 0.712566
0.750561 0.152316 0.721904
0.920256 0.181476 0.713207
0.037583 0.209827 0.649073
0.184985 0.256855 0.536065
0.444511 0.237888 0.681758
0.733425 0.271153 0.708965
0.927504 0.298116 0.700038
0.04477 0.448631 0.701396
0.208484 0.44387 0.664973
0.419883 0.463539 0.639963
0.721523 0.467552 0.707927
0.935683 0.486 0.700282
0.0529183 0.700847 0.729839
0.18291 0.690623 0.72987
0.434195 0.69456 0.726619
0.704204 0.702739 0.71928
0.950637 0.713588 0.709972
0.0974136 0.92398 0.760327
0.187732 0.919738 0.757061
0.456275 0.918318 0.762112
0.736934 0.919188 0.785183
0.94992 0.951293 0.741756
0.0367742 0.048127 0.590829
0.205951 0.0667124 0.747082
0.462333 0.104387 0.826139
0.743618 0.153765 0.86772
0.922057 0.183703 0.876112
0.0404974 0.207813 0.773678
0.19968 0.208362 0.774487
0.441032 0.235584 0.813519
0.724987 0.269734 0.873747
0.929061 0.298009 0.884169
0.0553445 0.442603 0.838315
0.208225 0.436866 0.825452
0.446479 0.448966 0.828077
0.709834 0.467201 0.880461
0.936736 0.484855 0.898329
0.0550393 0.695674 0.906188
0.178058 0.687449 0.899153
0.443992 0.690455 0.891768
0.703502 0.702892 0.886839
0.943191 0.714275 0.919936
0.0728161 0.933974 0.950759
0.159701 0.930404 0.947036
0.418173 0.932128 0.94699
0.686183 0.938369 0.94818
0.949722 0.951141 0.951156
