assets/luts/Monochrome.CUBE
TITLE "LD - Earthy Monochrome 3"
# Copyright (c) 2019 Lens Distortions, LLC. All Rights Reserved.
# LensDistortions.com
# ref-EM10
LUT_3D_SIZE 9
0.0153201 0.020798 0.023743
0.0817884 0.0348211 0.034287
0.244358 0.0642557 0.0439002
0.436362 0.0945602 0.0409705
0.580743 0.122072 0.0363317
0.718975 0.150515 0.0334325
0.849668 0.181964 0.0336919
0.941421 0.207782 0.0360571
0.972793 0.209903 0.0372931
0.0412299 0.103273 0.063798
0.0983749 0.112673 0.0555276
0.251896 0.131289 0.0447089
0.407767 0.150195 0.0383612
0.557565 0.171817 0.0342718
0.705364 0.197803 0.031342
0.841688 0.22858 0.0318151
0.942611 0.259007 0.0353552
0.97612 0.258854 0.036759
0.0710613 0.242344 0.127413
0.125231 0.232181 0.125872
0.229374 0.23946 0.083238
0.385367 0.24802 0.0698711
0.540871 0.262638 0.0658579
0.691035 0.283268 0.0633707
0.831571 0.310307 0.0603799
0.94345 0.341573 0.0572366
0.978988 0.339849 0.0556954
0.102007 0.367117 0.18941
0.149264 0.356497 0.18793
0.243091 0.357961 0.17528
0.364446 0.372168 0.124636
0.520928 0.381155 0.106432
0.674617 0.394018 0.0992599
0.820371 0.412558 0.0959945
0.937743 0.437461 0.0935988
0.979919 0.438025 0.0944076
0.134539 0.491829 0.249607
0.1729 0.481819 0.247761
0.274281 0.476692 0.248524
0.365179 0.495872 0.207004
0.501305 0.506096 0.166217
0.655024 0.515267 0.147875
0.805524 0.527337 0.137819
0.928954 0.544991 0.133883
0.979492 0.547204 0.136019
0.167788 0.616403 0.309392
0.198016 0.608118 0.307286
0.301808 0.599268 0.308827
0.397742 0.611505 0.301472
0.4972 0.632792 0.23534
0.637568 0.639963 0.204639
0.788403 0.648859 0.187488
0.917769 0.66067 0.178515
0.978225 0.664195 0.179202
0.200931 0.739986 0.372946
0.22443 0.733074 0.370596
0.325658 0.721965 0.370932
0.427695 0.72961 0.375753
0.519539 0.748669 0.339925
0.629999 0.766873 0.272435
0.772763 0.773571 0.245121
0.904601 0.782406 0.22678
0.976104 0.787015 0.222705
0.228977 0.848554 0.436622
0.251057 0.843458 0.434745
0.345281 0.833494 0.434775
0.451728 0.838605 0.443549
0.551812 0.851942 0.434272
0.641657 0.874617 0.37171
0.764965 0.887694 0.31545
0.893324 0.893126 0.290623
0.974044 0.897963 0.275166
0.24921 0.918761 0.478248
0.269764 0.916136 0.478019
0.355276 0.90837 0.479011
0.466285 0.911696 0.488563
0.571878 0.922469 0.489509
0.661494 0.942519 0.450248
0.765866 0.96318 0.381018
0.887907 0.971618 0.360739
0.975113 0.977096 0.337209
0.0185245 0.0247501 0.0613565
0.0850538 0.0366674 0.0967269
0.24126 0.0652476 0.130388
0.425681 0.0932326 0.138201
0.570245 0.119768 0.12488
0.710704 0.147463 0.111666
0.843732 0.178378 0.100984
0.938338 0.205051 0.091249
0.96994 0.207324 0.0861219
0.0260471 0.109224 0.122576
0.0982223 0.111482 0.124025
0.226749 0.135637 0.116945
0.368185 0.160937 0.113741
0.534051 0.178912 0.10782
0.697795 0.194995 0.100267
0.836622 0.224948 0.090959
0.939895 0.255497 0.0823072
0.973968 0.255161 0.0770581
0.0482338 0.247868 0.172534
0.148501 0.22118 0.215473
0.287495 0.219471 0.155383
0.396231 0.238071 0.141756
0.534142 0.258595 0.134264
0.686793 0.279591 0.120195
0.828199 0.306386 0.111711
0.941268 0.338323 0.103212
0.976944 0.336904 0.0979477
0.0877394 0.37142 0.223072
0.2009 0.34316 0.304204
0.314397 0.344152 0.228473
0.420829 0.354482 0.185946
0.528222 0.37409 0.16379
0.67248 0.389929 0.153521
0.817929 0.408713 0.148119
0.935729 0.433677 0.141894
0.978408 0.43508 0.139071
0.123812 0.495384 0.278553
0.217594 0.473487 0.326116
0.29218 0.473594 0.308385
0.398688 0.488457 0.261662
0.512642 0.501457 0.213458
0.653895 0.513024 0.191257
0.804349 0.524498 0.183902
0.927504 0.541909 0.180926
0.978531 0.544503 0.180896
0.158129 0.619959 0.337957
0.190707 0.610819 0.336049
0.300084 0.599329 0.338247
0.401633 0.609125 0.338155
0.497398 0.630716 0.277058
0.636454 0.638834 0.242863
0.787915 0.647318 0.224964
0.917494 0.658961 0.217044
0.977981 0.662684 0.217044
0.191577 0.743358 0.399786
0.217014 0.735866 0.396841
0.322606 0.723095 0.397681
0.428702 0.728817 0.405737
0.524254 0.745678 0.382437
0.629557 0.765789 0.312795
0.772168 0.772839 0.283574
0.904463 0.781689 0.263096
0.976165 0.786358 0.257832
0.220447 0.851865 0.459815
0.243839 0.84651 0.458305
0.341238 0.835294 0.458961
0.450767 0.838865 0.468956
0.555566 0.850645 0.467567
0.645136 0.872557 0.414832
0.764523 0.887251 0.353338
0.892729 0.892576 0.328344
0.973999 0.897444 0.31107
0.241413 0.922194 0.499214
0.262486 0.919142 0.498116
0.349538 0.910689 0.499672
0.4645 0.912642 0.510643
0.573983 0.922057 0.516808
0.66627 0.940444 0.488563
0.766537 0.962295 0.418418
0.887495 0.971389 0.389578
0.974899 0.976883 0.36846
0.0239414 0.0300755 0.130297
0.0867323 0.0419776 0.17261
0.250034 0.0673228 0.255482
0.417914 0.0952468 0.272755
0.555444 0.12134 0.260243
0.694743 0.149126 0.24947
0.831434 0.178988 0.244602
0.929274 0.205097 0.241108
0.96141 0.207156 0.236484
0.0322576 0.111269 0.215534
0.076463 0.130449 0.187076
0.24123 0.129046 0.250278
0.384527 0.150988 0.232532
0.537484 0.173754 0.211307
0.685725 0.19501 0.231144
0.826352 0.223743 0.231708
0.932464 0.253712 0.22826
0.966598 0.252964 0.223377
0.0273747 0.252659 0.271702
0.123888 0.227115 0.28719
0.225238 0.233005 0.247425
0.360067 0.248356 0.23035
0.494347 0.272679 0.229404
0.640558 0.298833 0.228107
0.790997 0.326863 0.227268
0.928252 0.347478 0.221744
0.97232 0.333959 0.218647
0.054078 0.382086 0.295689
0.154284 0.35137 0.364065
0.261006 0.351186 0.324208
0.412406 0.353979 0.277485
0.536141 0.368673 0.257176
0.669673 0.387335 0.253117
0.805661 0.410651 0.250034
0.92845 0.434836 0.240375
0.976272 0.432456 0.232883
0.0935378 0.505837 0.338293
0.18439 0.48307 0.372992
0.31783 0.472236 0.408988
0.447074 0.477882 0.334859
0.563989 0.486473 0.304402
0.679667 0.502724 0.27863
0.809903 0.519783 0.27071
0.926848 0.539422 0.263523
0.978012 0.542565 0.25835
0.132677 0.629252 0.391455
0.16553 0.619669 0.386801
0.347616 0.59884 0.460288
0.449866 0.60177 0.440925
0.554147 0.618463 0.370108
0.663584 0.630564 0.330678
0.796948 0.642588 0.303639
0.918547 0.656397 0.293553
0.97792 0.661265 0.289982
0.16965 0.751553 0.449119
0.196719 0.74374 0.445197
0.342046 0.726375 0.483619
0.436957 0.729244 0.478035
0.548043 0.740047 0.469108
0.649546 0.760388 0.400122
0.776074 0.77023 0.361212
0.905425 0.780163 0.337469
0.976257 0.785092 0.330571
0.200061 0.859693 0.506691
0.224475 0.854215 0.504112
0.33315 0.840421 0.509407
0.448188 0.841443 0.520821
0.561761 0.849271 0.527871
0.654704 0.867796 0.496712
0.765393 0.885924 0.427878
0.892363 0.891859 0.400946
0.973785 0.89662 0.383352
0.222644 0.930632 0.545434
0.244388 0.927382 0.544564
0.336049 0.916854 0.545525
0.459937 0.915801 0.558831
0.576043 0.92224 0.570138
0.675364 0.93666 0.560037
0.76907 0.959899 0.494835
0.886732 0.970718 0.456641
0.974273 0.976242 0.439857
0.0291142 0.0362707 0.21651
0.0935531 0.0471809 0.269871
0.252049 0.0710307 0.382834
0.4168 0.0961166 0.412146
0.551919 0.122255 0.398642
0.686259 0.150729 0.388235
0.8215 0.181765 0.385
0.921675 0.208713 0.3832
0.953994 0.210895 0.378729
0.035523 0.115923 0.325338
0.0851606 0.148272 0.270542
0.229938 0.133577 0.367269
0.385229 0.147906 0.383169
0.529931 0.170581 0.377646
0.673961 0.196918 0.374334
0.815442 0.226474 0.373236
0.924788 0.256733 0.371115
0.959228 0.256275 0.366247
0.0327459 0.248188 0.389914
0.107408 0.237736 0.35552
0.202625 0.244038 0.329976
0.369711 0.243259 0.373587
0.518517 0.259693 0.367361
0.668696 0.287251 0.319524
0.815137 0.312963 0.306859
0.931319 0.340475 0.338277
0.966583 0.335607 0.357412
0.0361334 0.385931 0.408026
0.139559 0.354177 0.444038
0.24271 0.355612 0.409644
0.359854 0.36527 0.380606
0.503594 0.377752 0.365743
0.641154 0.397116 0.358312
0.783093 0.420539 0.355627
0.913558 0.44419 0.35201
0.973205 0.432471 0.356344
0.0600443 0.516106 0.429633
0.142367 0.493278 0.45568
0.257191 0.48333 0.479545
0.388388 0.485863 0.436713
0.524041 0.494804 0.403815
0.664042 0.505333 0.385107
0.802121 0.520699 0.380026
0.921431 0.540551 0.375219
0.976913 0.541482 0.367758
0.0964218 0.641169 0.465354
0.128634 0.6318 0.458701
0.302663 0.610147 0.515526
0.429587 0.606897 0.502617
0.543008 0.617227 0.467231
0.664042 0.628733 0.426657
0.800931 0.639811 0.401877
0.92047 0.653773 0.394415
0.977569 0.659739 0.389456
0.136446 0.76318 0.51252
0.164355 0.755322 0.506661
0.313542 0.735546 0.530739
0.446784 0.73164 0.545434
0.55903 0.737438 0.542626
0.65127 0.758114 0.488197
0.77937 0.768353 0.448768
0.907774 0.778241 0.426154
0.976471 0.783841 0.420188
0.170138 0.870771 0.563958
0.195285 0.865293 0.560433
0.309834 0.849348 0.560067
0.444343 0.846601 0.579767
0.564172 0.850355 0.588846
0.667796 0.863401 0.580819
0.76701 0.884306 0.512123
0.892119 0.890944 0.482109
0.973754 0.895888 0.464607
0.193515 0.941802 0.600061
0.216785 0.938125 0.598184
0.313191 0.926101 0.596597
0.447868 0.921767 0.609415
0.57467 0.924544 0.624659
0.683742 0.934401 0.629694
0.774685 0.956207 0.581872
0.886152 0.970123 0.533013
0.973785 0.975723 0.516793
0.0339208 0.04271 0.319951
0.101656 0.052369 0.38381
0.25153 0.0761883 0.498405
0.411139 0.0979171 0.542382
0.549874 0.122606 0.535439
0.684627 0.151308 0.525689
0.817441 0.182742 0.522545
0.917128 0.210971 0.521691
0.949279 0.214084 0.517296
0.0371405 0.12134 0.444526
0.0996567 0.149584 0.410254
0.216739 0.140993 0.471
0.378088 0.149569 0.511391
0.527413 0.170687 0.515053
0.670787 0.197147 0.512718
0.80911 0.228229 0.511513
0.918486 0.259678 0.510842
0.952956 0.259419 0.506203
0.0397498 0.245212 0.498482
0.109758 0.241871 0.453651
0.184283 0.263722 0.387701
0.360754 0.24506 0.496223
0.516106 0.258534 0.508125
0.662791 0.280049 0.507713
0.800336 0.312932 0.489952
0.921828 0.34345 0.487938
0.959167 0.338811 0.498985
0.0393225 0.381994 0.528191
0.102846 0.367132 0.517205
0.228733 0.361395 0.491951
0.34789 0.370886 0.47982
0.505989 0.375235 0.50576
0.655512 0.388296 0.506203
0.797482 0.413352 0.474174
0.92311 0.437613 0.461295
0.966461 0.433997 0.496437
0.0451362 0.518975 0.54377
0.101778 0.503594 0.545739
0.251057 0.485435 0.559915
0.365698 0.492531 0.532601
0.497002 0.499596 0.515404
0.648615 0.508537 0.504845
0.789639 0.524147 0.494026
0.914214 0.542718 0.490715
0.973434 0.54107 0.495903
0.0677195 0.649653 0.565209
0.0969711 0.64126 0.557565
0.253422 0.618982 0.594568
0.373205 0.6206 0.577234
0.517098 0.620737 0.555688
0.640406 0.632837 0.528328
0.791791 0.640665 0.51426
0.916487 0.653651 0.51017
0.976501 0.658106 0.506645
0.101656 0.774273 0.596429
0.128161 0.766934 0.589288
0.271489 0.74757 0.601053
0.408942 0.743603 0.605417
0.543511 0.742336 0.607431
0.655009 0.753658 0.598505
0.776104 0.768185 0.548516
0.9075 0.776913 0.529747
0.976333 0.782132 0.525353
0.135164 0.882673 0.637263
0.160204 0.87744 0.632197
0.274098 0.861952 0.625208
0.416449 0.856901 0.637324
0.556649 0.855314 0.650217
0.674403 0.861585 0.65832
0.769253 0.882002 0.611414
0.891432 0.890013 0.57435
0.973632 0.894835 0.557824
0.15993 0.954177 0.66807
0.182895 0.950637 0.665125
0.279377 0.938872 0.658839
0.422599 0.931899 0.666392
0.564431 0.929946 0.681788
0.686625 0.934737 0.695232
0.785245 0.95111 0.67895
0.885588 0.969162 0.621027
0.973098 0.975006 0.603525
0.0376135 0.0485847 0.437263
0.109911 0.0578012 0.511162
0.25304 0.0807355 0.615106
0.400809 0.101976 0.655467
0.545632 0.124575 0.666484
0.682795 0.151888 0.660899
0.81648 0.183459 0.658289
0.916655 0.212284 0.657633
0.948379 0.215579 0.653178
0.038529 0.126253 0.569162
0.108873 0.134188 0.568551
0.224445 0.139483 0.588861
0.367788 0.154116 0.620722
0.52253 0.171893 0.646082
0.668635 0.197375 0.648325
0.807416 0.228458 0.647852
0.916793 0.261051 0.647288
0.950881 0.261463 0.642832
0.0441291 0.244709 0.608331
0.109239 0.235538 0.591562
0.187442 0.281926 0.463157
0.282963 0.268849 0.590082
0.510994 0.258686 0.638941
0.659663 0.280339 0.642588
0.800259 0.307607 0.641245
0.916732 0.341939 0.638285
0.954986 0.340993 0.636118
0.0479133 0.377417 0.638773
0.105531 0.366659 0.620661
0.221454 0.373632 0.558572
0.314717 0.390478 0.537957
0.499794 0.375982 0.630396
0.650446 0.388937 0.639246
0.794965 0.407996 0.639902
0.913329 0.436728 0.629343
0.959823 0.436606 0.633814
0.046891 0.515862 0.664088
0.0889448 0.50547 0.654704
0.239536 0.48806 0.648844
0.361501 0.494285 0.629664
0.495491 0.500328 0.627726
0.642939 0.508247 0.641855
0.789578 0.520729 0.641047
0.91191 0.541268 0.626322
0.965957 0.543099 0.634318
0.0552377 0.65214 0.679408
0.0827955 0.644007 0.671214
0.240787 0.621805 0.685618
0.364126 0.623545 0.672572
0.490166 0.628412 0.656916
0.632136 0.632746 0.649027
0.786007 0.640238 0.641581
0.913237 0.653361 0.634089
0.972808 0.65774 0.635935
0.0770275 0.781231 0.699367
0.102419 0.774411 0.691951
0.236255 0.756069 0.694194
0.359579 0.755383 0.691981
0.499519 0.756024 0.683558
0.647913 0.755337 0.682582
0.769207 0.768688 0.657038
0.906096 0.775631 0.646586
0.975677 0.780346 0.644358
0.105211 0.892134 0.728374
0.128786 0.887449 0.722652
0.235859 0.873838 0.710063
0.374685 0.870436 0.71342
0.523857 0.867124 0.715984
0.668132 0.865446 0.727794
0.779232 0.876554 0.724926
0.890089 0.889143 0.678538
0.973663 0.893446 0.662699
0.127794 0.965454 0.752575
0.150256 0.962188 0.748638
0.242756 0.951736 0.738125
0.384146 0.945617 0.737362
0.535363 0.941314 0.74493
0.678828 0.939422 0.759487
0.796078 0.947448 0.768582
0.885771 0.967636 0.720241
0.972427 0.97435 0.700008
0.0413672 0.0549477 0.572824
0.117205 0.0637369 0.648859
0.253468 0.084535 0.732616
0.390402 0.106798 0.759625
0.536538 0.12813 0.782666
0.679606 0.153887 0.789807
0.815076 0.184436 0.790295
0.917647 0.214359 0.791074
0.949752 0.217639 0.787182
0.0402533 0.130724 0.696712
0.112108 0.12987 0.699901
0.228992 0.13994 0.705669
0.362432 0.157549 0.728923
0.513054 0.175738 0.762097
0.665171 0.198505 0.779004
0.805951 0.228992 0.781842
0.917479 0.262303 0.782528
0.951827 0.26244 0.778485
0.0473793 0.244587 0.721035
0.110491 0.235645 0.708751
0.210391 0.287419 0.592935
0.303548 0.26717 0.70576
0.494667 0.267124 0.74583
0.655131 0.28072 0.77406
0.798169 0.3075 0.776226
0.915969 0.34049 0.776486
0.955352 0.342031 0.772824
0.0553902 0.37464 0.746639
0.111009 0.364446 0.733059
0.229358 0.38088 0.656275
0.302281 0.408484 0.609674
0.426841 0.396033 0.731975
0.645884 0.388693 0.770672
0.791745 0.408408 0.77322
0.91281 0.433661 0.774258
0.958465 0.437568 0.770245
0.0556649 0.510796 0.775784
0.0983291 0.50074 0.765042
0.235599 0.49456 0.728893
0.352911 0.502312 0.711879
0.466529 0.515007 0.702342
0.635294 0.509712 0.764508
0.785245 0.520958 0.773312
0.908797 0.539025 0.773404
0.961547 0.544488 0.76994
0.0557259 0.649134 0.797513
0.0855116 0.640955 0.790249
0.230304 0.622278 0.785107
0.362493 0.622721 0.776669
0.496376 0.626902 0.764187
0.631983 0.633097 0.762295
0.778912 0.640192 0.778775
0.905623 0.653727 0.776501
0.96527 0.659388 0.77322
0.0660563 0.782956 0.810437
0.091249 0.77644 0.803983
0.215641 0.75938 0.797498
0.346502 0.758526 0.796643
0.483177 0.760204 0.791669
0.619364 0.763638 0.786419
0.767163 0.766857 0.783261
0.903624 0.773953 0.777646
0.972152 0.779385 0.775814
0.0855268 0.89778 0.830137
0.108263 0.893248 0.824872
0.210056 0.880934 0.812467
0.343648 0.878904 0.811841
0.484169 0.878798 0.808469
0.629145 0.878584 0.806073
0.779568 0.876905 0.812055
0.888594 0.888304 0.789364
0.973785 0.891524 0.780682
0.104768 0.973632 0.847196
0.125536 0.970733 0.84361
0.213092 0.96144 0.83267
0.349599 0.957031 0.828031
0.495628 0.955077 0.827405
0.64445 0.952361 0.829725
0.791791 0.950637 0.841337
0.891981 0.963439 0.835172
0.971878 0.9738 0.804181
0.0440375 0.0595254 0.674022
0.121431 0.0676585 0.746944
0.253605 0.0872053 0.813184
0.384985 0.110002 0.832959
0.526665 0.132403 0.856947
0.673106 0.156451 0.874693
0.812726 0.18674 0.884504
0.918364 0.216526 0.890578
0.951598 0.219455 0.891417
0.0416266 0.133059 0.788754
0.113237 0.131807 0.790082
0.228779 0.14139 0.794568
0.359335 0.159945 0.813596
0.504479 0.179538 0.843503
0.657786 0.201175 0.87039
0.803189 0.22977 0.883986
0.918212 0.26392 0.890349
0.953704 0.264042 0.89102
0.0496223 0.244556 0.810117
0.111009 0.236225 0.802045
0.222858 0.285969 0.741344
0.315572 0.265446 0.808606
0.483192 0.274418 0.834318
0.646021 0.284001 0.869505
0.795148 0.308125 0.886122
0.914855 0.340627 0.892393
0.957092 0.342931 0.890761
0.0606241 0.373266 0.83653
0.114656 0.363928 0.827344
0.235737 0.378805 0.789044
0.308324 0.423575 0.702571
0.392386 0.415961 0.805173
0.62884 0.396536 0.864958
0.788663 0.408286 0.888716
0.910857 0.433509 0.890944
0.960021 0.438148 0.889494
0.0652323 0.506569 0.867185
0.108782 0.497322 0.858732
0.240421 0.496025 0.828717
0.348989 0.512016 0.795148
0.450095 0.528389 0.785733
0.600153 0.52108 0.855131
0.780148 0.520897 0.887266
0.906706 0.538933 0.890547
0.962402 0.544396 0.889418
0.0644999 0.644053 0.893889
0.0967117 0.635782 0.886946
0.229221 0.622644 0.871717
0.364965 0.624567 0.860227
0.494438 0.630198 0.85275
0.611811 0.638743 0.861067
0.770748 0.642496 0.883925
0.903685 0.653147 0.893553
0.964553 0.659876 0.89192
0.0664073 0.780697 0.910597
0.0932631 0.773877 0.905318
0.21059 0.758877 0.894697
0.349752 0.756939 0.894835
0.490776 0.757763 0.889998
0.631434 0.760891 0.884031
0.765743 0.767712 0.882429
0.897932 0.773983 0.897826
0.966751 0.780484 0.895521
0.0779126 0.899153 0.923247
0.100755 0.894896 0.919173
0.200183 0.883345 0.908782
0.332982 0.881254 0.907591
0.473014 0.881514 0.90602
0.614893 0.882429 0.904189
0.754177 0.884276 0.902678
0.887434 0.886656 0.900572
0.971008 0.889982 0.897581
0.0920272 0.978775 0.936172
0.113222 0.975921 0.93315
0.198108 0.967117 0.923598
0.332143 0.963302 0.919326
0.473411 0.962524 0.917723
0.614481 0.962264 0.915877
0.758007 0.962737 0.913985
0.89514 0.962814 0.918456
0.971649 0.973587 0.904128
0.0448615 0.0605631 0.705959
0.121431 0.0682078 0.77644
0.252369 0.0873579 0.837964
0.382055 0.11017 0.85539
0.522026 0.132433 0.878508
0.668513 0.157122 0.897902
0.810132 0.186938 0.911055
0.918212 0.218708 0.919722
0.952407 0.221164 0.922774
0.0432288 0.133669 0.817472
0.111727 0.130495 0.81854
0.22771 0.140032 0.822507
0.357092 0.158511 0.839551
0.500313 0.178943 0.867475
0.653086 0.200381 0.89543
0.800061 0.228641 0.912245
0.918151 0.264454 0.921981
0.954543 0.264729 0.924941
0.0512551 0.243183 0.836789
0.11075 0.235004 0.83003
0.226764 0.235859 0.830289
0.354376 0.248859 0.842084
0.491829 0.265705 0.864317
0.641291 0.283299 0.895064
0.791653 0.30692 0.915404
0.913039 0.339025 0.925338
0.957809 0.34313 0.928801
0.0628672 0.371313 0.862791
0.115038 0.362173 0.854902
0.233539 0.359106 0.849699
0.359991 0.366705 0.854368
0.491264 0.379339 0.866621
0.631937 0.39263 0.892836
0.784298 0.407736 0.919005
0.909178 0.431662 0.929717
0.960769 0.437613 0.933349
0.0686046 0.503807 0.892805
0.111025 0.494835 0.885618
0.236362 0.487968 0.875288
0.366598 0.4925 0.87425
0.496681 0.50016 0.878157
0.627649 0.511955 0.891936
0.775113 0.521385 0.921126
0.905028 0.537469 0.934966
0.963348 0.544182 0.938598
0.0684977 0.640513 0.923781
0.101503 0.632532 0.918578
0.229068 0.620172 0.906142
0.365881 0.621286 0.901686
0.501976 0.625513 0.899031
0.631464 0.633234 0.901747
0.766491 0.643549 0.919722
0.900999 0.652659 0.94136
0.965423 0.659876 0.9449
0.0699626 0.777707 0.950927
0.0961776 0.771344 0.947097
0.211551 0.757076 0.936461
0.348791 0.755917 0.933852
0.494636 0.756603 0.930114
0.634699 0.76022 0.925826
0.766934 0.767391 0.926711
0.894316 0.774655 0.948196
0.9673 0.780224 0.95285
0.0778821 0.898192 0.97409
0.0990311 0.894484 0.971313
0.198383 0.882872 0.961364
0.331167 0.880858 0.959335
0.474739 0.880873 0.958251
0.617823 0.881392 0.95697
0.762341 0.882261 0.953948
0.886915 0.886687 0.951782
0.969207 0.889845 0.962692
0.0908217 0.980499 0.990951
0.11165 0.977752 0.988281
0.195499 0.969207 0.979873
0.328771 0.965637 0.976074
0.469612 0.964935 0.974609
0.609064 0.964874 0.973281
0.749172 0.96614 0.972473
0.877729 0.969085 0.972351
0.971328 0.973236 0.973266
