assets/luts/Monochrome.CUBE
TITLE "LD - Earthy Monochrome 3"
# Copyright (c) 2019 Lens Distortions, LLC. All Rights Reserved.
# LensDistortions.com
# ref-EM10
LUT_3D_SIZE 5
0.0153201 0.020798 0.023743
0.244358 0.0642557 0.0439002
0.580743 0.122072 0.0363317
0.849668 0.181964 0.0336919
0.972793 0.209903 0.0372931
0.0710613 0.242344 0.127413
0.229374 0.23946 0.083238
0.540871 0.262638 0.0658579
0.831571 0.310307 0.0603799
0.978988 0.339849 0.0556954
0.134539 0.491829 0.249607
0.274281 0.476692 0.248524
0.501305 0.506096 0.166217
0.805524 0.527337 0.137819
0.979492 0.547204 0.136019
0.200931 0.739986 0.372946
0.325658 0.721965 0.370932
0.519539 0.748669 0.339925
0.772763 0.773571 0.245121
0.976104 0.787015 0.222705
0.24921 0.918761 0.478248
0.355276 0.90837 0.479011
0.571878 0.922469 0.489509
0.765866 0.96318 0.381018
0.975113 0.977096 0.337209
0.0239414 0.0300755 0.130297
0.250034 0.0673228 0.255482
0.555444 0.12134 0.260243
0.831434 0.178988 0.244602
0.96141 0.207156 0.236484
0.0273747 0.252659 0.271702
0.225238 0.233005 0.247425
0.494347 0.272679 0.229404
0.790997 0.326863 0.227268
0.97232 0.333959 0.218647
0.0935378 0.505837 0.338293
0.31783 0.472236 0.408988
0.563989 0.486473 0.304402
0.809903 0.519783 0.27071
0.978012 0.542565 0.25835
0.16965 0.751553 0.449119
0.342046 0.726375 0.483619
0.548043 0.740047 0.469108
0.776074 0.77023 0.361212
0.976257 0.785092 0.330571
0.222644 0.930632 0.545434
0.336049 0.916854 0.545525
0.576043 0.92224 0.570138
0.76907 0.959899 0.494835
0.974273 0.976242 0.439857
0.0339208 0.04271 0.319951
0.25153 0.0761883 0.498405
0.549874 0.122606 0.535439
0.817441 0.182742 0.522545
0.949279 0.214084 0.517296
0.0397498 0.245212 0.498482
0.184283 0.263722 0.387701
0.516106 0.258534 0.508125
0.800336 0.312932 0.489952
0.959167 0.338811 0.498985
0.0451362 0.518975 0.54377
0.251057 0.485435 0.559915
0.497002 0.499596 0.515404
0.789639 0.524147 0.494026
0.973434 0.54107 0.495903
0.101656 0.774273 0.596429
0.271489 0.74757 0.601053
0.543511 0.742336 0.607431
0.776104 0.768185 0.548516
0.976333 0.782132 0.525353
0.15993 0.954177 0.66807
0.279377 0.938872 0.658839
0.564431 0.929946 0.681788
0.785245 0.95111 0.67895
0.973098 0.975006 0.603525
0.0413672 0.0549477 0.572824
0.253468 0.084535 0.732616
0.536538 0.12813 0.782666
0.815076 0.184436 0.790295
0.949752 0.217639 0.787182
0.0473793 0.244587 0.721035
0.210391 0.287419 0.592935
0.494667 0.267124 0.74583
0.798169 0.3075 0.776226
0.955352 0.342031 0.772824
0.0556649 0.510796 0.775784
0.235599 0.49456 0.728893
0.466529 0.515007 0.702342
0.785245 0.520958 0.773312
0.961547 0.544488 0.76994
0.0660563 0.782956 0.810437
0.215641 0.75938 0.797498
0.483177 0.760204 0.791669
0.767163 0.766857 0.783261
0.972152 0.779385 0.775814
0.104768 0.973632 0.847196
0.213092 0.96144 0.83267
0.495628 0.955077 0.827405
0.791791 0.950637 0.841337
0.971878 0.9738 0.804181
0.0448615 0.0605631 0.705959
0.252369 0.0873579 0.837964
0.522026 0.132433 0.878508
0.810132 0.186938 0.911055
0.952407 0.221164 0.922774
0.0512551 0.243183 0.836789
0.226764 0.235859 0.830289
0.491829 0.265705 0.864317
0.791653 0.30692 0.915404
0.957809 0.34313 0.928801
0.0686046 0.503807 0.892805
0.236362 0.487968 0.875288
0.496681 0.50016 0.878157
0.775113 0.521385 0.921126
0.963348 0.544182 0.938598
0.0699626 0.777707 0.950927
0.211551 0.757076 0.936461
0.494636 0.756603 0.930114
0.766934 0.767391 0.926711
0.9673 0.780224 0.95285
0.0908217 0.980499 0.990951
0.195499 0.969207 0.979873
0.469612 0.964935 0.974609
0.749172 0.96614 0.972473
0.971328 0.973236 0.973266
