assets/luts/Monochrome.CUBE
TITLE "LD - Earthy Monochrome 3"
# Copyright (c) 2019 Lens Distortions, LLC. All Rights Reserved.
# LensDistortions.com
# ref-EM10
LUT_3D_SIZE 33
0.0153201 0.020798 0.023743
0.0248722 0.0229191 0.0255283
0.0373693 0.0260014 0.0283207
0.0556497 0.0299992 0.0313115
0.0817884 0.0348211 0.034287
0.114946 0.0410315 0.0374456
0.151904 0.0483253 0.0403754
0.195254 0.0563668 0.04271
0.244358 0.0642557 0.0439002
0.295598 0.0722667 0.0440833
0.345617 0.079881 0.0434424
0.393057 0.0874647 0.0424659
0.436362 0.0945602 0.0409705
0.4748 0.10132 0.0395514
0.511208 0.108431 0.0388037
0.545998 0.115129 0.0373846
0.580743 0.122072 0.0363317
0.615457 0.129107 0.0354162
0.650019 0.135897 0.0347753
0.684489 0.143221 0.0340429
0.718975 0.150515 0.0334325
0.753536 0.158022 0.0331731
0.786877 0.165743 0.0331731
0.818906 0.173602 0.0333257
0.849668 0.181964 0.0336919
0.87866 0.190417 0.0341039
0.90602 0.199695 0.0350652
0.92961 0.207263 0.0357671
0.941421 0.207782 0.0360571
0.953399 0.208682 0.0365606
0.965118 0.209323 0.0369573
0.972793 0.209903 0.0372931
0.972793 0.209903 0.0372931
0.0195773 0.0341039 0.0306249
0.0303502 0.0352178 0.0322881
0.0431067 0.0384833 0.0335699
0.0623941 0.0425727 0.035996
0.0885634 0.0468452 0.037995
0.121965 0.0527352 0.0399329
0.159167 0.0598001 0.0419928
0.203037 0.0675517 0.0430915
0.251057 0.0751354 0.0433509
0.299763 0.0826276 0.0424201
0.347921 0.0905013 0.0411536
0.391836 0.0977646 0.0395666
0.432197 0.104219 0.0376745
0.468849 0.111116 0.0368353
0.504631 0.117922 0.0358434
0.539849 0.124804 0.0345312
0.575219 0.131609 0.0339208
0.609735 0.138216 0.033341
0.644404 0.145144 0.032517
0.679423 0.15227 0.032105
0.714961 0.159335 0.0319066
0.750484 0.166964 0.0320745
0.784039 0.174517 0.0322271
0.816449 0.182437 0.0324407
0.847456 0.190845 0.0328222
0.87686 0.19971 0.0333257
0.904585 0.208728 0.0344396
0.929702 0.217334 0.0353552
0.941543 0.217823 0.0358282
0.953475 0.218433 0.0363775
0.965133 0.218692 0.0367742
0.973404 0.219028 0.0371252
0.973388 0.218692 0.0371252
0.0273136 0.051545 0.0403143
0.0368505 0.051957 0.0418097
0.0479438 0.0548562 0.0428473
0.066041 0.0582132 0.0408179
0.094789 0.0619669 0.0413977
0.12929 0.0672465 0.0426337
0.167224 0.0746166 0.0436713
0.209384 0.0823224 0.0440375
0.25481 0.0900587 0.043183
0.301488 0.097612 0.0419318
0.345739 0.104799 0.0399481
0.386511 0.110994 0.0372625
0.425116 0.117418 0.0356603
0.461616 0.12369 0.034226
0.497627 0.129931 0.0327916
0.532921 0.136263 0.0318608
0.56849 0.142885 0.0312963
0.603845 0.149416 0.03093
0.639643 0.156649 0.0306401
0.675441 0.163546 0.0306401
0.711513 0.170626 0.0307012
0.747036 0.17821 0.0309148
0.781125 0.185641 0.0311131
0.814221 0.193652 0.0316167
0.845411 0.201694 0.0322423
0.875074 0.210193 0.0329595
0.903044 0.21915 0.0343328
0.929213 0.228885 0.0352026
0.941726 0.229694 0.0356756
0.953521 0.230213 0.0361791
0.965301 0.230396 0.0366369
0.974105 0.230686 0.0369268
0.97409 0.230335 0.0369421
0.0343328 0.0730907 0.0507362
0.0428168 0.0743114 0.0522011
0.0549477 0.0756847 0.0541543
0.0686046 0.0800336 0.0497444
0.0978408 0.0846265 0.0466316
0.134112 0.0882734 0.0451972
0.172305 0.0946059 0.0450599
0.212329 0.102037 0.0443122
0.255406 0.108553 0.0432288
0.298726 0.115236 0.0413672
0.339879 0.12076 0.0389868
0.3794 0.126848 0.037171
0.416266 0.132387 0.0356909
0.452811 0.138231 0.0340887
0.488884 0.144121 0.032639
0.525643 0.150271 0.031281
0.562509 0.156207 0.0305638
0.599359 0.1626 0.0301213
0.635569 0.1691 0.0295872
0.672099 0.176089 0.0295415
0.708186 0.183062 0.0296788
0.744427 0.190478 0.0302129
0.77882 0.197894 0.0307164
0.811948 0.205676 0.0313115
0.843595 0.214267 0.0320745
0.873198 0.222736 0.0327001
0.901274 0.231937 0.0339513
0.927779 0.241367 0.0349279
0.942061 0.243336 0.0354772
0.953933 0.243809 0.0360571
0.965606 0.243824 0.0364538
0.975097 0.243946 0.0368505
0.975067 0.243503 0.0368505
0.0412299 0.103273 0.063798
0.0489204 0.103578 0.0648814
0.0622568 0.104921 0.0667124
0.077348 0.1075 0.0669566
0.0983749 0.112673 0.0555276
0.134585 0.115648 0.0506142
0.1729 0.121019 0.0479438
0.211566 0.126375 0.0466011
0.251896 0.131289 0.0447089
0.292348 0.135912 0.0424964
0.331792 0.140337 0.04094
0.369802 0.145403 0.0395056
0.407767 0.150195 0.0383612
0.445243 0.15523 0.0371099
0.48278 0.160525 0.0361028
0.520272 0.165911 0.0349737
0.557565 0.171817 0.0342718
0.594644 0.177966 0.0336004
0.631693 0.184314 0.0331884
0.668437 0.190753 0.0321965
0.705364 0.197803 0.031342
0.74165 0.204761 0.0305486
0.776944 0.212375 0.0305333
0.810025 0.220157 0.0311131
0.841688 0.22858 0.0318151
0.871748 0.237201 0.032517
0.899779 0.246052 0.033753
0.92636 0.255802 0.0347295
0.942611 0.259007 0.0353552
0.954208 0.259068 0.0357977
0.96614 0.259251 0.0363165
0.976135 0.259419 0.0367285
0.97612 0.258854 0.036759
0.0481727 0.139132 0.0789502
0.0546883 0.138598 0.0793774
0.068925 0.138964 0.0807355
0.0859388 0.140475 0.0819257
0.104829 0.144305 0.0757458
0.134203 0.147631 0.0594797
0.170703 0.149981 0.0547189
0.206989 0.152773 0.0511482
0.245624 0.156115 0.0489052
0.28513 0.159045 0.0475471
0.324376 0.162707 0.0466316
0.362707 0.166354 0.0457465
0.401404 0.170459 0.0447242
0.439246 0.174945 0.043595
0.477546 0.179736 0.0427863
0.515297 0.184787 0.0416724
0.553185 0.190234 0.0413672
0.590982 0.196017 0.0404364
0.628031 0.202335 0.0394598
0.66508 0.208743 0.0386206
0.702068 0.215244 0.0376287
0.738582 0.222446 0.0368963
0.773709 0.229648 0.0357061
0.807691 0.237537 0.0346685
0.839765 0.245563 0.0335851
0.869978 0.254139 0.0331579
0.898436 0.26302 0.0337682
0.924941 0.27248 0.0344244
0.943084 0.276921 0.0350958
0.954925 0.277134 0.0356756
0.966842 0.277256 0.0361334
0.977142 0.277028 0.0364843
0.977096 0.276326 0.0364996
0.0557717 0.177203 0.0959945
0.061265 0.175906 0.0959335
0.0759442 0.175082 0.0968948
0.0931563 0.174014 0.0972152
0.113054 0.174228 0.0948043
0.134936 0.177142 0.0769207
0.167758 0.178622 0.0649577
0.201801 0.180484 0.0610819
0.23917 0.182422 0.0576791
0.278553 0.184619 0.0556802
0.318151 0.18732 0.0543679
0.357046 0.190326 0.0535286
0.396033 0.193881 0.0525063
0.434516 0.19791 0.051667
0.473167 0.202213 0.0508125
0.511193 0.206744 0.0499275
0.54931 0.211933 0.0497902
0.587182 0.217533 0.0488136
0.624247 0.223117 0.0479744
0.661509 0.229282 0.0471504
0.697963 0.235645 0.0460365
0.735302 0.242573 0.0452583
0.77055 0.249577 0.0441444
0.804623 0.257465 0.0429694
0.836896 0.265538 0.0419776
0.867628 0.273976 0.0407263
0.896376 0.282551 0.0396582
0.923339 0.291752 0.0382544
0.943725 0.297353 0.0373846
0.955367 0.297261 0.0373693
0.967376 0.297353 0.0374456
0.978088 0.297032 0.0374151
0.978134 0.296315 0.0372625
0.0628214 0.210803 0.111528
0.0680705 0.209079 0.111269
0.0814984 0.207111 0.11165
0.0991684 0.204898 0.111803
0.119738 0.203281 0.110765
0.141451 0.203769 0.101228
0.1664 0.206699 0.0809491
0.197971 0.208133 0.0736553
0.233051 0.209903 0.0695811
0.272145 0.211933 0.0658122
0.312154 0.214145 0.0634165
0.35169 0.216709 0.0619211
0.390692 0.219974 0.0610208
0.429923 0.223255 0.0601358
0.468345 0.227039 0.0590372
0.507088 0.23151 0.0582742
0.545296 0.235935 0.0580758
0.583001 0.241123 0.057145
0.620264 0.24654 0.0563821
0.657954 0.252461 0.0556954
0.694621 0.258442 0.0548714
0.731792 0.265232 0.0540475
0.767285 0.272114 0.053254
0.801633 0.27953 0.0522621
0.834379 0.287205 0.0512245
0.865141 0.295171 0.0501106
0.894148 0.303517 0.0493324
0.921355 0.312276 0.0480964
0.943496 0.319203 0.0473793
0.955276 0.318898 0.0469062
0.967361 0.318685 0.0464332
0.978759 0.31841 0.0459297
0.978744 0.317601 0.0455329
0.0710613 0.242344 0.127413
0.0758679 0.240116 0.126726
0.0875105 0.237858 0.12665
0.104982 0.234791 0.126452
0.125231 0.232181 0.125872
0.148852 0.23122 0.121721
0.170214 0.234333 0.105394
0.196414 0.237659 0.0897841
0.229374 0.23946 0.083238
0.266285 0.241489 0.0789197
0.30634 0.243534 0.0744945
0.346059 0.245396 0.0717021
0.385367 0.24802 0.0698711
0.424567 0.250996 0.0687114
0.464057 0.254673 0.0677806
0.502632 0.258488 0.066804
0.540871 0.262638 0.0658579
0.579004 0.266987 0.0656596
0.616419 0.272129 0.0648356
0.654124 0.277653 0.0641337
0.691035 0.283268 0.0633707
0.728527 0.289815 0.0627909
0.764279 0.296117 0.061799
0.798795 0.302876 0.0611887
0.831571 0.310307 0.0603799
0.862608 0.317769 0.0593271
0.891951 0.325826 0.0591897
0.919203 0.334035 0.0580301
0.94345 0.341573 0.0572366
0.955215 0.341161 0.0568399
0.967346 0.340856 0.0564736
0.978943 0.340627 0.0560159
0.978988 0.339849 0.0556954
0.0788128 0.273625 0.142916
0.0834669 0.271733 0.142336
0.0933394 0.269047 0.141894
0.110826 0.265782 0.141588
0.13138 0.263264 0.141436
0.155962 0.260899 0.139254
0.178302 0.262333 0.13048
0.198932 0.267277 0.113832
0.227054 0.270359 0.0999161
0.262043 0.272038 0.0931868
0.300298 0.274098 0.0886244
0.339971 0.27631 0.0837873
0.37995 0.278584 0.0805371
0.419669 0.281392 0.0783856
0.458839 0.284245 0.0769818
0.497658 0.287358 0.0754864
0.536416 0.290898 0.0744793
0.574716 0.295247 0.0738079
0.612497 0.299596 0.0734417
0.650172 0.304326 0.0726635
0.687251 0.309758 0.07187
0.724605 0.315389 0.0713664
0.761105 0.321187 0.0704356
0.795972 0.327565 0.069688
0.829023 0.334386 0.0690471
0.860243 0.341207 0.0681926
0.889952 0.348898 0.06804
0.917357 0.356558 0.067277
0.94342 0.365042 0.0665141
0.955139 0.36466 0.0661631
0.967269 0.364279 0.065919
0.979049 0.363851 0.0656748
0.979339 0.363134 0.0654002
0.0865034 0.304784 0.158434
0.0909285 0.302953 0.15787
0.0995651 0.300267 0.157198
0.116747 0.297276 0.157183
0.137407 0.294224 0.156985
0.162631 0.291478 0.155749
0.186648 0.291661 0.151293
0.206287 0.295613 0.140124
0.228321 0.300679 0.122957
0.259388 0.303609 0.110048
0.295918 0.305287 0.103532
0.334386 0.307286 0.0987716
0.373999 0.309773 0.0935225
0.413794 0.312139 0.0897993
0.453315 0.31458 0.0873426
0.492714 0.317281 0.085481
0.531777 0.320546 0.0839094
0.570092 0.324117 0.0827039
0.607996 0.327886 0.0818189
0.645899 0.332341 0.0816052
0.683528 0.337118 0.0808118
0.720836 0.341894 0.0798352
0.757595 0.347417 0.0792401
0.792813 0.353216 0.0785077
0.825956 0.359319 0.0775464
0.857832 0.366201 0.0771496
0.887541 0.373266 0.0770123
0.915312 0.380423 0.0761883
0.941558 0.38822 0.0757
0.955093 0.388907 0.0751965
0.967254 0.38851 0.0748913
0.978988 0.387915 0.0750744
0.979477 0.387076 0.0748302
0.0942245 0.335912 0.173907
0.0985122 0.334325 0.173465
0.105837 0.331365 0.172442
0.122881 0.328557 0.172549
0.143343 0.325246 0.172396
0.168597 0.322347 0.171679
0.19411 0.321218 0.169207
0.214862 0.324269 0.163424
0.234653 0.329503 0.14995
0.259754 0.334493 0.132082
0.293385 0.337072 0.120287
0.330617 0.338918 0.114183
0.36875 0.340902 0.109361
0.408042 0.343236 0.103899
0.447639 0.345602 0.0997787
0.486915 0.347723 0.0964981
0.526543 0.350378 0.0944686
0.565423 0.353613 0.0927749
0.603571 0.357229 0.0914778
0.641428 0.361074 0.0903792
0.679347 0.365194 0.0900893
0.716731 0.369482 0.0889143
0.75404 0.374502 0.0882124
0.789548 0.379904 0.0874495
0.823285 0.385611 0.0865797
0.855329 0.391775 0.0859388
0.885283 0.39823 0.0858778
0.913344 0.404974 0.0851759
0.939742 0.412436 0.0846113
0.954986 0.414069 0.0843366
0.967315 0.413748 0.0841535
0.979019 0.413016 0.0848402
0.979721 0.412238 0.0847334
0.102007 0.367117 0.18941
0.105959 0.36527 0.188724
0.113313 0.362905 0.188205
0.129061 0.359838 0.188052
0.149264 0.356497 0.18793
0.17435 0.353201 0.18732
0.201099 0.351736 0.186267
0.223255 0.353552 0.183291
0.243091 0.357961 0.17528
0.264393 0.363638 0.158465
0.292729 0.368368 0.140703
0.327413 0.37055 0.130465
0.364446 0.372168 0.124636
0.402823 0.374044 0.119783
0.441794 0.376364 0.11426
0.481498 0.378698 0.109789
0.520928 0.381155 0.106432
0.560128 0.383978 0.104021
0.598901 0.386969 0.102174
0.63679 0.390188 0.100618
0.674617 0.394018 0.0992599
0.712642 0.398123 0.0988022
0.750179 0.402716 0.0978408
0.785977 0.407324 0.0968032
0.820371 0.412558 0.0959945
0.852567 0.418235 0.0950332
0.882719 0.42414 0.0948501
0.911269 0.43061 0.0943313
0.937743 0.437461 0.0935988
0.955032 0.440177 0.09337
0.967071 0.439338 0.0930495
0.979034 0.438849 0.0943618
0.979919 0.438025 0.0944076
0.109758 0.398276 0.204944
0.113863 0.396506 0.204318
0.120882 0.394141 0.203708
0.134981 0.391226 0.203403
0.155047 0.387869 0.203357
0.180209 0.384543 0.203265
0.207584 0.382376 0.202533
0.230747 0.383368 0.201282
0.251545 0.386877 0.197009
0.272221 0.392111 0.185534
0.295842 0.397894 0.166339
0.326177 0.402075 0.150225
0.361303 0.403937 0.140841
0.398474 0.405493 0.135103
0.436866 0.407523 0.130327
0.475944 0.409873 0.124743
0.515373 0.4121 0.120089
0.55462 0.414679 0.116503
0.593576 0.417273 0.113832
0.632074 0.42034 0.111696
0.670329 0.423743 0.110307
0.708263 0.427054 0.108568
0.74612 0.431327 0.108019
0.78262 0.435691 0.106966
0.817029 0.440558 0.106096
0.849439 0.445548 0.104845
0.880323 0.451041 0.104402
0.909178 0.457038 0.104005
0.936065 0.463401 0.103227
0.954742 0.46659 0.102647
0.966995 0.46595 0.102159
0.978973 0.465415 0.103349
0.980056 0.464561 0.103365
0.117723 0.429358 0.219883
0.12166 0.427848 0.21944
0.128786 0.425406 0.21883
0.141085 0.42237 0.218357
0.161135 0.419242 0.218509
0.185763 0.415641 0.218326
0.213672 0.413046 0.217899
0.237659 0.413489 0.2177
0.259556 0.416297 0.215915
0.280735 0.420584 0.208942
0.302464 0.426581 0.194049
0.328374 0.432227 0.174243
0.360037 0.43563 0.15993
0.395804 0.437629 0.151431
0.432929 0.439216 0.146044
0.471061 0.441123 0.141054
0.510231 0.443503 0.135485
0.549249 0.445762 0.130739
0.587976 0.447959 0.126894
0.626795 0.450477 0.123857
0.665385 0.453666 0.121523
0.703975 0.457023 0.119936
0.742077 0.460746 0.118349
0.778744 0.464607 0.11696
0.813474 0.468833 0.116457
0.846586 0.473533 0.115389
0.877684 0.478752 0.114336
0.906691 0.48423 0.114015
0.933837 0.490105 0.113405
0.954589 0.49395 0.112688
0.966857 0.493263 0.112322
0.978653 0.492332 0.114351
0.979889 0.491508 0.114778
0.126314 0.460502 0.234668
0.129595 0.459022 0.234211
0.136614 0.456611 0.233585
0.147417 0.454063 0.23328
0.166949 0.450614 0.233188
0.191211 0.446891 0.232929
0.219364 0.444114 0.232609
0.244663 0.444129 0.232975
0.267063 0.446372 0.232807
0.289082 0.450034 0.229099
0.31075 0.455009 0.218708
0.333547 0.46125 0.200793
0.361013 0.466178 0.181903
0.394049 0.469352 0.169131
0.430045 0.471229 0.161471
0.467018 0.472618 0.156466
0.505165 0.47451 0.151598
0.543694 0.476905 0.146151
0.582712 0.479118 0.141253
0.621393 0.481682 0.137392
0.660395 0.484611 0.134295
0.698909 0.48719 0.131579
0.737255 0.49041 0.129717
0.774655 0.493965 0.128069
0.809903 0.497978 0.126909
0.843198 0.502235 0.12636
0.874571 0.506874 0.125017
0.904097 0.511955 0.124041
0.931502 0.517418 0.124041
0.95407 0.521752 0.123201
0.966232 0.520806 0.122576
0.978256 0.51989 0.125154
0.979812 0.519097 0.126177
0.134539 0.491829 0.249607
0.137514 0.490272 0.249058
0.144442 0.4878 0.248386
0.153643 0.48542 0.24799
0.1729 0.481819 0.247761
0.196994 0.478401 0.247684
0.22536 0.475196 0.247379
0.251301 0.475029 0.248112
0.274281 0.476692 0.248524
0.296803 0.479622 0.246693
0.319127 0.484077 0.240269
0.341115 0.489754 0.226352
0.365179 0.495872 0.207004
0.39443 0.500359 0.189471
0.428016 0.503014 0.178088
0.46421 0.504646 0.170871
0.501305 0.506096 0.166217
0.539101 0.508034 0.161944
0.577493 0.510506 0.156878
0.616129 0.512871 0.152056
0.655024 0.515267 0.147875
0.693843 0.518029 0.144549
0.732464 0.520928 0.141848
0.770108 0.524117 0.139849
0.805524 0.527337 0.137819
0.83978 0.531304 0.13695
0.871427 0.535515 0.136172
0.901259 0.540215 0.134997
0.928954 0.544991 0.133883
0.953521 0.549767 0.134005
0.965789 0.548989 0.133486
0.97763 0.547951 0.135027
0.979492 0.547204 0.136019
0.142824 0.522942 0.264393
0.145449 0.521385 0.263828
0.152392 0.519097 0.263264
0.160113 0.516762 0.26276
0.178836 0.513283 0.262501
0.20296 0.510018 0.262592
0.231266 0.506767 0.262455
0.257786 0.505699 0.262898
0.281163 0.507042 0.26392
0.30425 0.50959 0.263447
0.327153 0.513222 0.259449
0.349752 0.518715 0.249714
0.372122 0.524804 0.233051
0.397665 0.530617 0.213626
0.428367 0.534478 0.198199
0.462623 0.53698 0.187457
0.499001 0.538476 0.180545
0.535836 0.539986 0.176013
0.573587 0.542077 0.17174
0.611383 0.544244 0.167071
0.649561 0.546304 0.162448
0.688502 0.548745 0.158297
0.727245 0.551308 0.155001
0.765377 0.554101 0.152117
0.801907 0.557473 0.14995
0.836011 0.560876 0.147967
0.868025 0.564431 0.146578
0.898238 0.568566 0.145998
0.926238 0.573281 0.144884
0.9523 0.578286 0.144152
0.965042 0.577615 0.144289
0.97731 0.576761 0.145861
0.979385 0.575906 0.146777
0.151186 0.554116 0.279225
0.153643 0.552865 0.278782
0.160403 0.55024 0.277897
0.168139 0.548058 0.27747
0.185245 0.544854 0.277195
0.208835 0.541482 0.277333
0.23714 0.53785 0.277089
0.26421 0.536522 0.277592
0.288045 0.53756 0.278904
0.311498 0.539803 0.279377
0.335256 0.543099 0.277302
0.358602 0.54789 0.270726
0.380652 0.553674 0.258
0.403815 0.559869 0.239292
0.43061 0.565072 0.220462
0.462394 0.568292 0.206531
0.497154 0.570611 0.196521
0.533486 0.572259 0.190173
0.570031 0.573632 0.185702
0.607462 0.575463 0.181292
0.645304 0.577646 0.176699
0.683772 0.579919 0.172381
0.722286 0.582116 0.168551
0.760693 0.584604 0.165164
0.797467 0.58735 0.162432
0.832166 0.590494 0.160082
0.864607 0.594018 0.158114
0.89514 0.597879 0.156695
0.923506 0.60174 0.155932
0.94995 0.606394 0.15494
0.964569 0.606775 0.154772
0.976608 0.605646 0.156115
0.978912 0.604837 0.157259
0.159503 0.585321 0.294209
0.161669 0.584039 0.293736
0.16849 0.581659 0.293004
0.176196 0.579385 0.292424
0.191852 0.576486 0.292119
0.214939 0.572931 0.292042
0.242847 0.569177 0.291798
0.27071 0.567346 0.292271
0.294835 0.5682 0.293751
0.31873 0.570321 0.294896
0.343069 0.573449 0.294331
0.366888 0.577447 0.290105
0.38938 0.582574 0.280552
0.411322 0.588525 0.264973
0.435462 0.594324 0.245136
0.46392 0.598947 0.227649
0.496544 0.602121 0.214755
0.531334 0.603967 0.205585
0.567391 0.605447 0.199542
0.603906 0.606806 0.195178
0.641154 0.608698 0.190875
0.679179 0.610819 0.186206
0.717693 0.613245 0.181857
0.756039 0.615579 0.178058
0.792996 0.618036 0.174884
0.82797 0.6206 0.172473
0.860868 0.62359 0.170169
0.891905 0.627161 0.168292
0.920882 0.631189 0.16701
0.947585 0.635462 0.166064
0.963699 0.636164 0.165545
0.976165 0.635233 0.166751
0.978714 0.634394 0.168154
0.167788 0.616403 0.309392
0.169696 0.61532 0.30898
0.176608 0.613138 0.308339
0.184176 0.610742 0.307607
0.198016 0.608118 0.307286
0.220691 0.604471 0.307103
0.248676 0.60061 0.306783
0.276921 0.598383 0.307088
0.301808 0.599268 0.308827
0.325826 0.601175 0.310552
0.350301 0.60354 0.310689
0.374746 0.60705 0.308171
0.397742 0.611505 0.301472
0.419852 0.617014 0.289219
0.442267 0.623163 0.271412
0.467674 0.628717 0.251484
0.4972 0.632792 0.23534
0.53019 0.635325 0.223316
0.565057 0.637217 0.214832
0.601053 0.638697 0.208988
0.637568 0.639963 0.204639
0.675074 0.642145 0.200473
0.713069 0.644114 0.19585
0.751263 0.646403 0.191409
0.788403 0.648859 0.187488
0.823728 0.651286 0.184314
0.857252 0.654063 0.181994
0.888518 0.657023 0.179889
0.917769 0.66067 0.178515
0.9449 0.664637 0.177234
0.962875 0.66598 0.176745
0.975418 0.664958 0.177813
0.978225 0.664195 0.179202
0.17615 0.647883 0.325063
0.177783 0.647028 0.324727
0.184619 0.644648 0.323964
0.192172 0.642298 0.323217
0.204318 0.639704 0.322728
0.226413 0.636149 0.322515
0.25449 0.632074 0.322118
0.283192 0.629786 0.322469
0.308339 0.630274 0.324178
0.332448 0.631693 0.325856
0.357244 0.63389 0.326726
0.38201 0.636835 0.325643
0.405814 0.640757 0.321126
0.42829 0.645853 0.312093
0.450309 0.651621 0.297169
0.473304 0.657649 0.278187
0.499947 0.662791 0.258579
0.530419 0.666468 0.243732
0.563958 0.669062 0.232822
0.598871 0.670909 0.224659
0.635004 0.672389 0.218936
0.671946 0.673808 0.214435
0.709072 0.675746 0.210239
0.746593 0.677516 0.205509
0.783795 0.679698 0.201083
0.819501 0.682124 0.197055
0.853483 0.684993 0.193957
0.885252 0.6878 0.191577
0.914809 0.69099 0.189654
0.942199 0.694316 0.188205
0.962081 0.696361 0.187335
0.974655 0.695293 0.18819
0.977707 0.694621 0.190036
0.184512 0.679225 0.34081
0.185718 0.678309 0.340414
0.192889 0.67599 0.339696
0.200275 0.67364 0.33901
0.210056 0.671305 0.33843
0.231769 0.66775 0.33817
0.260044 0.663905 0.338003
0.288853 0.661097 0.338094
0.314458 0.660945 0.339513
0.338674 0.662196 0.34136
0.363622 0.664118 0.342702
0.388907 0.666712 0.342458
0.413474 0.67039 0.339788
0.436606 0.6748 0.333288
0.458686 0.68014 0.321843
0.480934 0.686229 0.305165
0.504921 0.692073 0.285389
0.532464 0.696773 0.266972
0.563729 0.700145 0.252842
0.597452 0.702586 0.242588
0.632471 0.704326 0.234638
0.668864 0.705653 0.228901
0.705653 0.707118 0.224262
0.742733 0.708934 0.219944
0.779812 0.711101 0.215335
0.815274 0.713207 0.210788
0.849409 0.71574 0.206867
0.881361 0.718471 0.203738
0.911559 0.721462 0.20148
0.939467 0.724712 0.199435
0.961501 0.727062 0.198169
0.973892 0.726177 0.198718
0.977172 0.725643 0.200565
0.192691 0.71014 0.356832
0.193591 0.709392 0.356512
0.200717 0.707103 0.355718
0.208255 0.704936 0.355077
0.217014 0.702693 0.354345
0.237293 0.699367 0.35404
0.264759 0.695583 0.353964
0.294072 0.692348 0.353933
0.320256 0.691691 0.355138
0.344594 0.69276 0.357061
0.369741 0.694347 0.358663
0.39559 0.696895 0.359396
0.420813 0.70016 0.358053
0.444739 0.704189 0.353643
0.467185 0.708949 0.34493
0.489235 0.714641 0.331075
0.511589 0.720592 0.312856
0.536507 0.726085 0.292912
0.565087 0.730571 0.27599
0.596826 0.73373 0.262486
0.630747 0.735988 0.252796
0.666194 0.737591 0.244923
0.70251 0.738933 0.239231
0.739284 0.740398 0.234455
0.776257 0.74255 0.230106
0.811719 0.744823 0.225391
0.845441 0.746883 0.220722
0.877638 0.749416 0.216663
0.908003 0.752026 0.213611
0.936324 0.755077 0.211368
0.960647 0.757931 0.209537
0.972992 0.757107 0.209461
0.976608 0.756542 0.211353
0.200931 0.739986 0.372946
0.201266 0.739391 0.372641
0.208072 0.73727 0.371878
0.215824 0.735241 0.371283
0.22443 0.733074 0.370596
0.242741 0.73022 0.370275
0.269108 0.726406 0.369894
0.298939 0.722957 0.369726
0.325658 0.721965 0.370932
0.350454 0.722927 0.372961
0.375708 0.724636 0.374914
0.401907 0.726741 0.376104
0.427695 0.72961 0.375753
0.452155 0.733272 0.373068
0.475441 0.737575 0.366659
0.497581 0.742809 0.355825
0.519539 0.748669 0.339925
0.542596 0.754757 0.320714
0.56849 0.760037 0.301198
0.597696 0.764019 0.285039
0.629999 0.766873 0.272435
0.664439 0.768978 0.263203
0.699947 0.770626 0.255665
0.736263 0.772107 0.249989
0.772763 0.773571 0.245121
0.808103 0.775479 0.240513
0.841901 0.777783 0.235691
0.874006 0.77995 0.230854
0.904601 0.782406 0.22678
0.933211 0.785351 0.223819
0.95964 0.788403 0.221454
0.972015 0.787594 0.220844
0.976104 0.787015 0.222705
0.208377 0.768658 0.388952
0.208255 0.768215 0.388724
0.215061 0.766339 0.388037
0.222812 0.76434 0.387381
0.231434 0.762371 0.386801
0.247303 0.759777 0.38645
0.273167 0.756161 0.386023
0.302983 0.752743 0.385794
0.330983 0.751385 0.386725
0.356085 0.752178 0.388769
0.381384 0.753643 0.390829
0.407904 0.755749 0.39266
0.434089 0.758358 0.39321
0.45922 0.761517 0.391592
0.48304 0.765423 0.387152
0.50573 0.770138 0.378805
0.527855 0.775876 0.366064
0.549889 0.781903 0.34847
0.57351 0.787717 0.328725
0.600397 0.79266 0.309758
0.630472 0.796353 0.29453
0.663447 0.799023 0.282567
0.698375 0.801144 0.273991
0.734051 0.802655 0.266636
0.76997 0.804074 0.260731
0.804974 0.805432 0.25597
0.838575 0.807324 0.251316
0.87071 0.809583 0.246342
0.901305 0.811719 0.241413
0.930037 0.81442 0.237339
0.956741 0.817197 0.234028
0.971099 0.817075 0.232853
0.975494 0.816526 0.235233
0.215595 0.796399 0.404822
0.215503 0.796017 0.404593
0.221775 0.794308 0.403983
0.229755 0.792386 0.403403
0.2383 0.790417 0.402853
0.25153 0.78822 0.402533
0.276967 0.784863 0.402335
0.306981 0.781292 0.401877
0.336156 0.779767 0.402701
0.361532 0.780438 0.404807
0.386954 0.781765 0.406958
0.413565 0.783795 0.409049
0.440253 0.786007 0.409979
0.465721 0.788937 0.409415
0.490425 0.792615 0.406485
0.513878 0.797086 0.400519
0.536065 0.802121 0.390188
0.557763 0.807889 0.375372
0.580209 0.813977 0.356603
