assets/luts/Neon 770.CUBE
#Created by: Adobe Photoshop Export Color Lookup Plugin
TITLE "warm"
#LUT size
LUT_3D_SIZE 5
#data domain
#LUT data points
DOMAIN_MIN 0.000000 0.000000 0.000000
DOMAIN_MAX 0.903226 0.903226 0.903226
0.000000 0.000000 0.000000
0.087769 0.001801 0.001923
0.379700 0.006134 0.006134
0.676086 0.010345 0.010345
0.899170 0.013489 0.013489
0.013306 0.117371 0.005066
0.098236 0.120331 0.008575
0.393890 0.121521 0.019409
0.708008 0.113281 0.041809
0.966125 0.092041 0.080200
0.066711 0.364868 0.000031
0.130615 0.377197 0.010498
0.406189 0.388123 0.024048
0.703430 0.390869 0.033569
0.930878 0.390778 0.042328
0.144867 0.634216 0.000031
0.185760 0.659241 0.005219
0.432343 0.682770 0.029968
0.720490 0.690002 0.040436
0.942963 0.692780 0.047333
0.210510 0.860321 0.000031
0.240021 0.892151 0.000031
0.461761 0.926849 0.032410
0.740417 0.938354 0.046051
0.959015 0.942963 0.053375
0.016266 0.000031 0.133270
0.097107 0.002167 0.152313
0.384216 0.008606 0.158142
0.680054 0.013306 0.161163
0.903168 0.016754 0.162476
0.029785 0.114563 0.152588
0.109039 0.119934 0.158875
0.399323 0.123505 0.171387
0.713348 0.115479 0.193085
0.972137 0.094116 0.230255
0.078217 0.365814 0.141113
0.140259 0.378662 0.153961
0.411713 0.391449 0.168701
0.708557 0.394684 0.176819
0.936005 0.394897 0.183777
0.147278 0.645599 0.109924
0.195862 0.664215 0.128632
0.440399 0.688721 0.153564
0.728149 0.696411 0.162445
0.950714 0.699646 0.166992
0.209991 0.882324 0.061096
0.252563 0.903534 0.082153
0.474609 0.937775 0.116028
0.752991 0.949890 0.127014
0.971954 0.955109 0.130554
0.060638 0.000031 0.260193
0.122833 0.000031 0.341858
0.394409 0.008759 0.377563
0.686493 0.014893 0.383087
0.908417 0.018677 0.386108
0.081085 0.096252 0.359070
0.140503 0.110138 0.373535
0.412537 0.121429 0.394531
0.724060 0.114014 0.419891
0.982452 0.092407 0.459534
0.111267 0.355133 0.356201
0.164276 0.371887 0.372925
0.422058 0.390442 0.393921
0.715240 0.395050 0.404724
0.941528 0.395538 0.413361
0.166351 0.638550 0.343842
0.212036 0.658417 0.363770
0.447998 0.686462 0.392853
0.732513 0.695404 0.404358
0.953796 0.698792 0.411041
0.219818 0.874054 0.326752
0.261414 0.895660 0.348480
0.477783 0.932190 0.385559
0.753357 0.945099 0.399994
0.970886 0.950348 0.407013
0.107849 0.000031 0.397461
0.160858 0.000031 0.504059
0.412933 0.005737 0.609375
0.697601 0.014984 0.618317
0.917114 0.019745 0.622650
0.144562 0.072021 0.582092
0.192657 0.090668 0.601776
0.439575 0.112396 0.634979
0.748108 0.105103 0.668152
0.991150 0.093475 0.696198
0.160767 0.338165 0.578430
0.206390 0.358032 0.598389
0.441681 0.386169 0.628937
0.728027 0.393707 0.643097
0.951965 0.395111 0.653076
0.202515 0.626953 0.573303
0.245026 0.648163 0.594666
0.465607 0.682831 0.630402
0.743774 0.694397 0.644928
0.962799 0.698730 0.652924
0.248016 0.865082 0.563721
0.287384 0.887634 0.586304
0.493622 0.928528 0.627930
0.763489 0.943817 0.645020
0.979004 0.949921 0.653442
0.147430 0.000031 0.514557
0.196838 0.000031 0.631012
0.434753 0.000519 0.802795
0.710632 0.013550 0.815613
0.927094 0.019562 0.821350
0.204987 0.047089 0.776001
0.248016 0.067841 0.798309
0.475311 0.097595 0.842438
0.781799 0.089264 0.886169
1.000000 0.094086 0.893982
0.208130 0.321259 0.764893
0.249512 0.342957 0.786804
0.465790 0.379272 0.825592
0.743622 0.390350 0.843536
0.964661 0.392975 0.854950
0.241516 0.613800 0.762604
0.281158 0.636261 0.785187
0.487244 0.677094 0.827148
0.757660 0.692017 0.845154
0.973816 0.697540 0.854492
0.280304 0.854675 0.756836
0.318024 0.877930 0.780151
0.513489 0.923401 0.826324
0.776520 0.941650 0.846558
0.989166 0.948883 0.856201
