assets/luts/Neon 770.CUBE
#Created by: Adobe Photoshop Export Color Lookup Plugin
TITLE "warm"
#LUT size
LUT_3D_SIZE 8
#data domain
#LUT data points
DOMAIN_MIN 0.000000 0.000000 0.000000
DOMAIN_MAX 0.903226 0.903226 0.903226
0.000000 0.000000 0.000000
0.000000 0.000000 0.000000
0.126129 0.002594 0.002594
0.291199 0.004883 0.004883
0.470551 0.007446 0.007446
0.637512 0.009796 0.009796
0.784180 0.011902 0.011902
0.899170 0.013489 0.013489
0.002899 0.024902 0.002045
0.002899 0.024902 0.002045
0.130127 0.026611 0.006256
0.300934 0.024841 0.014648
0.486328 0.023193 0.023193
0.653351 0.025543 0.025543
0.799957 0.027618 0.027618
0.914948 0.029236 0.029236
0.017792 0.150238 0.005127
0.017792 0.150238 0.005127
0.138702 0.154938 0.010590
0.304108 0.156494 0.015900
0.487701 0.155975 0.023438
0.661926 0.153229 0.033508
0.819275 0.147858 0.046417
0.946320 0.141113 0.060181
0.046143 0.290283 0.002106
0.046143 0.290283 0.002106
0.153534 0.300842 0.013153
0.312683 0.305420 0.019348
0.492065 0.307373 0.024933
0.661499 0.307800 0.031006
0.811584 0.307312 0.037231
0.930481 0.306183 0.043060
0.089386 0.442749 0.000031
0.089386 0.442749 0.000031
0.176575 0.463043 0.013458
0.326752 0.471588 0.022888
0.502136 0.475525 0.028961
0.668793 0.477539 0.034119
0.816437 0.478577 0.038910
0.933136 0.478851 0.043030
0.134277 0.597992 0.000031
0.134277 0.597992 0.000031
0.205383 0.626892 0.011658
0.345306 0.639862 0.025208
0.515594 0.646027 0.032806
0.679504 0.649384 0.038239
0.825470 0.651367 0.042786
0.940826 0.652466 0.046417
0.174683 0.737305 0.000031
0.174683 0.737305 0.000031
0.234100 0.772644 0.008728
0.365173 0.789429 0.026031
0.530151 0.797974 0.035645
0.691284 0.802582 0.041809
0.835602 0.805389 0.046539
0.949768 0.807037 0.050049
0.210510 0.860321 0.000031
0.210510 0.860321 0.000031
0.261597 0.900543 0.005341
0.384888 0.920685 0.025879
0.544739 0.931458 0.037506
0.703094 0.937317 0.044647
0.845795 0.940826 0.049713
0.959015 0.942963 0.053375
0.005463 0.000183 0.067505
0.005463 0.000183 0.067505
0.129486 0.003723 0.070709
0.293579 0.006561 0.072906
0.472870 0.009338 0.074432
0.640015 0.011932 0.074890
0.786896 0.014374 0.074554
0.902130 0.016235 0.074005
0.008636 0.024841 0.070129
0.008636 0.024841 0.070129
0.134583 0.027100 0.074982
0.303864 0.026215 0.082794
0.488739 0.025116 0.089935
0.655823 0.027740 0.090393
0.802734 0.030121 0.090088
0.917938 0.032043 0.089539
0.022858 0.151062 0.070496
0.022858 0.151062 0.070496
0.142548 0.156342 0.076355
0.307068 0.158325 0.081421
0.490570 0.158020 0.088043
0.665131 0.155457 0.096344
0.822540 0.150543 0.106506
0.949890 0.144043 0.118073
0.052429 0.291901 0.059998
0.052429 0.291901 0.059998
0.158264 0.303101 0.071655
0.316437 0.308228 0.077545
0.495789 0.310486 0.081665
0.665192 0.311249 0.085846
0.815735 0.311066 0.089325
0.934937 0.310303 0.092316
0.092773 0.449890 0.035797
0.092773 0.449890 0.035797
0.183044 0.467804 0.053741
0.332703 0.476654 0.062927
0.508087 0.480957 0.067078
0.674896 0.483368 0.069641
0.823059 0.484680 0.071655
0.940002 0.485504 0.072540
0.139160 0.611084 0.000031
0.139160 0.611084 0.000031
0.215302 0.635773 0.020538
0.355103 0.648773 0.034180
0.525208 0.655029 0.041901
0.689026 0.658447 0.047394
0.834839 0.660461 0.051910
0.950195 0.661560 0.055573
0.179291 0.750549 0.000031
0.179291 0.750549 0.000031
0.244232 0.781403 0.017548
0.374878 0.798370 0.035004
0.539703 0.807007 0.044708
0.700684 0.811676 0.050934
0.845001 0.814484 0.055695
0.959137 0.816162 0.059235
0.214935 0.873657 0.000031
0.214935 0.873657 0.000031
0.271332 0.909485 0.014313
0.394531 0.929657 0.034882
0.554199 0.940521 0.046600
0.712555 0.946350 0.053711
0.855133 0.949921 0.058838
0.968384 0.952087 0.062531
0.021210 0.000031 0.152557
0.021210 0.000031 0.152557
0.136414 0.003052 0.182190
0.297455 0.007141 0.185883
0.475677 0.010284 0.188538
0.642242 0.012970 0.190369
0.788727 0.015289 0.191620
0.903717 0.017059 0.192505
0.025879 0.019409 0.179199
0.025879 0.019409 0.179199
0.142578 0.025635 0.187927
0.309479 0.025574 0.197754
0.491516 0.026062 0.204193
0.658081 0.028748 0.206055
0.804535 0.031036 0.207275
0.919556 0.032837 0.208191
0.039520 0.145813 0.179993
0.039520 0.145813 0.179993
0.149689 0.155121 0.190094
0.311340 0.158386 0.196594
0.493774 0.158356 0.204315
0.667664 0.155884 0.213928
0.824554 0.150940 0.225739
0.952271 0.143829 0.239471
0.064575 0.287872 0.175262
0.064575 0.287872 0.175262
0.163635 0.302002 0.189606
0.319672 0.307892 0.197113
0.497864 0.310516 0.202606
0.666901 0.311249 0.208069
0.817047 0.310944 0.213654
0.935791 0.309998 0.218597
0.099609 0.445984 0.164856
0.099609 0.445984 0.164856
0.186493 0.465424 0.184418
0.334290 0.474945 0.194641
0.508606 0.479431 0.200500
0.674896 0.481750 0.205139
0.822479 0.483002 0.209167
0.939148 0.483490 0.212402
0.138733 0.607208 0.148956
0.138733 0.607208 0.148956
0.215576 0.630859 0.172821
0.353851 0.644592 0.186890
0.523193 0.651337 0.194275
0.686768 0.654907 0.199188
0.832642 0.657135 0.202698
0.947906 0.658417 0.205292
0.175934 0.751740 0.129517
0.175934 0.751740 0.129517
0.245544 0.778564 0.156281
0.375183 0.795959 0.174011
0.539337 0.804993 0.183258
0.700226 0.809906 0.188660
0.844421 0.812927 0.192261
0.958679 0.814789 0.194855
0.209381 0.880188 0.106842
0.209381 0.880188 0.106842
0.274567 0.908875 0.135620
0.396912 0.929443 0.156219
0.556122 0.940643 0.167572
0.714264 0.946777 0.173767
0.856842 0.950562 0.177521
0.970093 0.952972 0.179871
0.046906 0.000031 0.222473
0.046906 0.000031 0.222473
0.149200 0.000214 0.303009
0.304199 0.006805 0.309418
0.480225 0.010864 0.313171
0.645874 0.013885 0.315735
0.791840 0.016327 0.317657
0.906586 0.018158 0.318878
0.058075 0.007294 0.296356
0.058075 0.007294 0.296356
0.158661 0.020477 0.312103
0.319763 0.022766 0.324799
0.496063 0.026611 0.328857
0.661682 0.029663 0.331451
0.807678 0.032074 0.333374
0.922394 0.033936 0.334595
0.066986 0.136261 0.296631
0.066986 0.136261 0.296631
0.163239 0.151520 0.312653
0.319366 0.157043 0.321960
0.499573 0.158020 0.330780
0.672668 0.155731 0.341187
0.829498 0.150604 0.354126
0.957153 0.143463 0.368408
0.085632 0.280975 0.294861
0.085632 0.280975 0.294861
0.175690 0.298981 0.313141
0.326630 0.307068 0.322845
0.502869 0.310425 0.329620
0.670990 0.311493 0.335815
0.820557 0.311340 0.341949
0.939026 0.310486 0.347412
0.114838 0.441193 0.289124
0.114838 0.441193 0.289124
0.196869 0.462646 0.310913
0.340454 0.474060 0.323059
0.512848 0.479279 0.330078
0.678284 0.481903 0.335388
0.825378 0.483276 0.339935
0.941742 0.483795 0.343811
0.149780 0.603333 0.279633
0.149780 0.603333 0.279633
0.223999 0.628143 0.304565
0.359009 0.643219 0.320160
0.526733 0.650604 0.328613
0.689423 0.654541 0.334137
0.834778 0.656860 0.338440
0.949768 0.658203 0.341705
0.183716 0.748047 0.268127
0.183716 0.748047 0.268127
0.251801 0.775543 0.295715
0.379181 0.793915 0.314362
0.541779 0.803497 0.324677
0.701874 0.808685 0.330963
0.845581 0.811798 0.335358
0.959534 0.813660 0.338593
0.214600 0.875885 0.255829
0.214600 0.875885 0.255829
0.278778 0.904999 0.285034
0.399384 0.926300 0.306610
0.557251 0.938019 0.318787
0.714600 0.944366 0.325989
0.856720 0.948242 0.330780
0.969635 0.950623 0.334015
0.074554 0.000031 0.300873
0.074554 0.000031 0.300873
0.164703 0.000031 0.415253
0.314606 0.005219 0.443359
0.487183 0.010681 0.448669
0.651276 0.014343 0.452026
0.796417 0.017090 0.454407
0.910675 0.019104 0.456085
0.095337 0.000031 0.387604
0.095337 0.000031 0.387604
0.184692 0.010376 0.448608
0.330536 0.020905 0.459015
0.502991 0.026459 0.464417
0.667084 0.030090 0.467743
0.812225 0.032867 0.470154
0.926483 0.034851 0.471802
0.100616 0.124054 0.423950
0.100616 0.124054 0.423950
0.184814 0.144409 0.445343
0.331696 0.153992 0.458160
0.508789 0.156189 0.468872
0.680969 0.154114 0.480621
0.837280 0.149139 0.494354
0.965302 0.141571 0.509827
0.114349 0.271088 0.423096
0.114349 0.271088 0.423096
0.194855 0.293213 0.445587
0.337921 0.304657 0.458557
0.510742 0.309448 0.466858
0.677246 0.311218 0.473938
0.826019 0.311340 0.480530
0.944305 0.310486 0.486511
0.137726 0.433746 0.420288
0.137726 0.433746 0.420288
0.213501 0.457886 0.444641
0.350830 0.471924 0.459595
0.520050 0.478516 0.468109
0.683929 0.481720 0.474182
0.830322 0.483368 0.479370
0.946198 0.484070 0.483490
0.167877 0.597626 0.414398
0.167877 0.597626 0.414398
0.238403 0.624023 0.440918
0.368530 0.641174 0.458649
0.533356 0.649780 0.468445
0.694672 0.654327 0.474762
0.839264 0.656891 0.479614
0.953827 0.658386 0.483185
0.198364 0.743408 0.406677
0.198364 0.743408 0.406677
0.264313 0.771790 0.435150
0.387817 0.791809 0.455536
0.547974 0.802490 0.467102
0.706573 0.808197 0.474060
0.849579 0.811615 0.479004
0.963104 0.813629 0.482635
0.226929 0.871674 0.398163
0.226929 0.871674 0.398163
0.289581 0.901489 0.428101
0.407135 0.924042 0.450928
0.562775 0.936707 0.464233
0.718781 0.943604 0.472137
0.860199 0.947723 0.477417
0.972748 0.950226 0.481079
0.101593 0.000031 0.378876
0.101593 0.000031 0.378876
0.183899 0.000031 0.514984
0.328461 0.002045 0.574310
0.496216 0.009583 0.581696
0.658112 0.014191 0.586121
0.802155 0.017426 0.589081
0.915741 0.019684 0.591095
0.123932 0.000031 0.461365
0.123932 0.000031 0.461365
0.207825 0.003235 0.575562
0.344391 0.017761 0.589996
0.512085 0.025360 0.597443
0.673950 0.029968 0.601868
0.817963 0.033173 0.604828
0.931610 0.035431 0.606812
0.135742 0.110901 0.550629
0.135742 0.110901 0.550629
0.211212 0.135010 0.575836
0.349152 0.148346 0.592957
0.521576 0.152435 0.605804
0.691925 0.151093 0.618958
0.848083 0.145905 0.634155
0.977173 0.137390 0.651733
0.145233 0.260223 0.549164
0.145233 0.260223 0.549164
0.218109 0.285553 0.574860
0.352905 0.300537 0.591553
0.521149 0.307343 0.601868
0.685577 0.309967 0.609894
0.833466 0.310394 0.617279
0.950989 0.309875 0.623535
0.164490 0.424652 0.547821
0.164490 0.424652 0.547821
0.234406 0.451355 0.574707
0.364777 0.468384 0.592651
0.529694 0.476776 0.603058
0.691498 0.480896 0.610138
0.836700 0.483002 0.615814
0.952057 0.483917 0.620361
0.190491 0.590271 0.544220
0.190491 0.590271 0.544220
0.256805 0.618439 0.572510
0.381470 0.637970 0.592651
0.542389 0.648254 0.604156
0.701752 0.653534 0.611359
0.845215 0.656616 0.616730
0.959229 0.658325 0.620697
0.217468 0.737366 0.538879
0.217468 0.737366 0.538879
0.280823 0.766876 0.568512
0.399841 0.788788 0.590851
0.556396 0.800964 0.603943
0.713348 0.807434 0.611816
0.855255 0.811249 0.617279
0.968231 0.813507 0.621185
0.243561 0.866486 0.532745
0.243561 0.866486 0.532745
0.304321 0.897064 0.563385
0.418335 0.921204 0.587860
0.570892 0.935120 0.602509
0.725189 0.942719 0.611176
0.865631 0.947296 0.617004
0.977570 0.950012 0.621033
0.125732 0.000031 0.450653
0.125732 0.000031 0.450653
0.203400 0.000031 0.599121
0.341827 0.000031 0.686401
0.506256 0.007843 0.701324
0.665710 0.013458 0.706757
0.808441 0.017212 0.710327
0.921326 0.019806 0.712738
0.148712 0.000031 0.531525
0.148712 0.000031 0.531525
0.228821 0.000031 0.673187
0.359467 0.013855 0.707428
0.522156 0.023560 0.717041
0.681519 0.029205 0.722504
0.824249 0.032990 0.726074
0.937134 0.035553 0.728455
0.169312 0.097931 0.666138
0.169312 0.097931 0.666138
0.238922 0.124451 0.694183
0.368256 0.141510 0.714722
0.536591 0.147278 0.730377
0.705170 0.146515 0.745239
0.861115 0.141052 0.762238
0.992035 0.131042 0.782715
0.174927 0.249542 0.663177
0.174927 0.249542 0.663177
0.242828 0.276978 0.691071
0.369629 0.295410 0.711212
0.533051 0.304199 0.723572
0.695099 0.307800 0.732727
0.841736 0.308777 0.740723
0.958618 0.308502 0.747467
0.190796 0.415588 0.662323
0.190796 0.415588 0.662323
0.256744 0.443939 0.690979
0.380219 0.463898 0.711914
0.540558 0.474274 0.724304
0.699982 0.479370 0.732391
0.844086 0.481964 0.738770
0.958588 0.483246 0.743591
0.213501 0.582581 0.660095
0.213501 0.582581 0.660095
0.276917 0.612030 0.689758
0.395813 0.633972 0.712280
0.552704 0.645966 0.725586
0.709808 0.652283 0.733856
0.852081 0.655823 0.739807
0.965393 0.657837 0.744141
0.237915 0.730743 0.656342
0.237915 0.730743 0.656342
0.298981 0.761169 0.686890
0.413330 0.785126 0.711304
0.566376 0.798828 0.725952
0.721069 0.806183 0.734741
0.861786 0.810516 0.740814
0.974060 0.813049 0.745056
0.261871 0.860657 0.651672
0.261871 0.860657 0.651672
0.320862 0.891998 0.683075
0.430939 0.917816 0.709198
0.580200 0.933105 0.725281
0.732635 0.941528 0.734802
0.871887 0.946594 0.741211
0.983246 0.949554 0.745544
0.147430 0.000031 0.514557
0.147430 0.000031 0.514557
0.222107 0.000031 0.671387
0.353699 0.000031 0.777313
0.516815 0.005615 0.807861
0.673676 0.012299 0.814392
0.815063 0.016693 0.818634
0.927094 0.019562 0.821350
0.170471 0.000031 0.595184
0.170471 0.000031 0.595184
0.247162 0.000031 0.746643
0.374908 0.009491 0.811829
0.532654 0.021362 0.823578
0.689484 0.028046 0.830139
0.830841 0.032410 0.834320
0.942963 0.035339 0.837097
0.201050 0.085205 0.770905
0.201050 0.085205 0.770905
0.265961 0.113861 0.800659
0.389038 0.133453 0.824554
0.552795 0.141083 0.842621
0.719543 0.140869 0.859406
0.876282 0.134521 0.879150
1.000000 0.129028 0.895508
0.202515 0.239410 0.765350
0.202515 0.239410 0.765350
0.266357 0.268616 0.794983
0.386810 0.289734 0.817871
0.545593 0.300537 0.832367
0.705200 0.305176 0.842651
0.850616 0.306610 0.851440
0.966675 0.306671 0.858490
0.216034 0.406708 0.764587
0.216034 0.406708 0.764587
0.278625 0.436462 0.794617
0.396088 0.458984 0.818085
0.552032 0.471283 0.832397
0.709045 0.477417 0.841583
0.851807 0.480591 0.848572
0.965607 0.482117 0.853790
0.236145 0.574829 0.763153
0.236145 0.574829 0.763153
0.296844 0.605438 0.793915
0.410767 0.629547 0.818634
0.563538 0.643250 0.833649
0.718384 0.650543 0.842987
0.859253 0.654694 0.849487
0.971832 0.656982 0.854187
0.258270 0.723938 0.760437
0.258270 0.723938 0.760437
0.317139 0.755341 0.791931
0.427490 0.780975 0.818054
0.576752 0.796295 0.834320
0.729218 0.804626 0.844086
0.868652 0.809540 0.850769
0.980194 0.812347 0.855316
0.280304 0.854675 0.756836
0.280304 0.854675 0.756836
0.337585 0.886719 0.788971
0.444275 0.913971 0.816589
0.590271 0.930695 0.834106
0.740631 0.939972 0.844543
0.878540 0.945587 0.851501
0.989166 0.948883 0.856201
