assets/luts/Neon 770.CUBE
#Created by: Adobe Photoshop Export Color Lookup Plugin
TITLE "warm"
#LUT size
LUT_3D_SIZE 32
#data domain
DOMAIN_MIN 0.0 0.0 0.0
DOMAIN_MAX 1.0 1.0 1.0
#LUT data points
0.000000 0.000000 0.000000
0.000000 0.000000 0.000000
0.000000 0.000000 0.000000
0.000000 0.000000 0.000000
0.000000 0.000000 0.000000
0.013702 0.000366 0.000610
0.049591 0.001404 0.001404
0.087769 0.001801 0.001923
0.126129 0.002594 0.002594
0.166168 0.003052 0.003052
0.206451 0.003784 0.003784
0.248444 0.004272 0.004272
0.291199 0.004883 0.004883
0.334808 0.005524 0.005524
0.379700 0.006134 0.006134
0.425446 0.006744 0.006744
0.470551 0.007446 0.007446
0.514282 0.008057 0.008057
0.556641 0.008636 0.008636
0.597748 0.009247 0.009247
0.637512 0.009796 0.009796
0.676086 0.010345 0.010345
0.713287 0.010864 0.010864
0.749298 0.011414 0.011414
0.784180 0.011902 0.011902
0.817688 0.012360 0.012360
0.850098 0.012787 0.012787
0.881256 0.013245 0.013245
0.899170 0.013489 0.013489
0.899170 0.013489 0.013489
0.899170 0.013489 0.013489
0.899170 0.013489 0.013489
0.000000 0.000000 0.000000
0.000000 0.000000 0.000000
0.000000 0.000000 0.000000
0.000000 0.000000 0.000000
0.000000 0.000000 0.000000
0.013702 0.000366 0.000610
0.049591 0.001404 0.001404
0.087769 0.001801 0.001923
0.126129 0.002594 0.002594
0.166168 0.003052 0.003052
0.206451 0.003784 0.003784
0.248444 0.004272 0.004272
0.291199 0.004883 0.004883
0.334808 0.005524 0.005524
0.379700 0.006134 0.006134
0.425446 0.006744 0.006744
0.470551 0.007446 0.007446
0.514282 0.008057 0.008057
0.556641 0.008636 0.008636
0.597748 0.009247 0.009247
0.637512 0.009796 0.009796
0.676086 0.010345 0.010345
0.713287 0.010864 0.010864
0.749298 0.011414 0.011414
0.784180 0.011902 0.011902
0.817688 0.012360 0.012360
0.850098 0.012787 0.012787
0.881256 0.013245 0.013245
0.899170 0.013489 0.013489
0.899170 0.013489 0.013489
0.899170 0.013489 0.013489
0.899170 0.013489 0.013489
0.000000 0.000000 0.000000
0.000000 0.000000 0.000000
0.000000 0.000000 0.000000
0.000000 0.000000 0.000000
0.000000 0.000000 0.000000
0.013702 0.000366 0.000610
0.049591 0.001404 0.001404
0.087769 0.001801 0.001923
0.126129 0.002594 0.002594
0.166168 0.003052 0.003052
0.206451 0.003784 0.003784
0.248444 0.004272 0.004272
0.291199 0.004883 0.004883
0.334808 0.005524 0.005524
0.379700 0.006134 0.006134
0.425446 0.006744 0.006744
0.470551 0.007446 0.007446
0.514282 0.008057 0.008057
0.556641 0.008636 0.008636
0.597748 0.009247 0.009247
0.637512 0.009796 0.009796
0.676086 0.010345 0.010345
0.713287 0.010864 0.010864
0.749298 0.011414 0.011414
0.784180 0.011902 0.011902
0.817688 0.012360 0.012360
0.850098 0.012787 0.012787
0.881256 0.013245 0.013245
0.899170 0.013489 0.013489
0.899170 0.013489 0.013489
0.899170 0.013489 0.013489
0.899170 0.013489 0.013489
0.000000 0.000000 0.000000
0.000000 0.000000 0.000000
0.000000 0.000000 0.000000
0.000000 0.000000 0.000000
0.000000 0.000000 0.000000
0.013702 0.000366 0.000610
0.049591 0.001404 0.001404
0.087769 0.001801 0.001923
0.126129 0.002594 0.002594
0.166168 0.003052 0.003052
0.206451 0.003784 0.003784
0.248444 0.004272 0.004272
0.291199 0.004883 0.004883
0.334808 0.005524 0.005524
0.379700 0.006134 0.006134
0.425446 0.006744 0.006744
0.470551 0.007446 0.007446
0.514282 0.008057 0.008057
0.556641 0.008636 0.008636
0.597748 0.009247 0.009247
0.637512 0.009796 0.009796
0.676086 0.010345 0.010345
0.713287 0.010864 0.010864
0.749298 0.011414 0.011414
0.784180 0.011902 0.011902
0.817688 0.012360 0.012360
0.850098 0.012787 0.012787
0.881256 0.013245 0.013245
0.899170 0.013489 0.013489
0.899170 0.013489 0.013489
0.899170 0.013489 0.013489
0.899170 0.013489 0.013489
0.002899 0.024902 0.002045
0.002899 0.024902 0.002045
0.002899 0.024902 0.002045
0.002899 0.024902 0.002045
0.002899 0.024902 0.002045
0.016785 0.025177 0.002594
0.053741 0.025543 0.004211
0.091095 0.026245 0.005310
0.130127 0.026611 0.006256
0.170959 0.026428 0.007965
0.213348 0.025818 0.010132
0.256317 0.025574 0.011993
0.300934 0.024841 0.014648
0.347626 0.023407 0.018158
0.395294 0.022064 0.021637
0.441193 0.022522 0.022522
0.486328 0.023193 0.023193
0.530060 0.023804 0.023804
0.572479 0.024414 0.024414
0.613556 0.024994 0.024994
0.653351 0.025543 0.025543
0.691895 0.026093 0.026093
0.729126 0.026611 0.026611
0.765106 0.027130 0.027130
0.799957 0.027618 0.027618
0.833496 0.028107 0.028107
0.865936 0.028564 0.028564
0.897034 0.028992 0.028992
0.914948 0.029236 0.029236
0.914948 0.029236 0.029236
0.914948 0.029236 0.029236
0.914948 0.029236 0.029236
0.007385 0.053772 0.003906
0.007385 0.053772 0.003906
0.007385 0.053772 0.003906
0.007385 0.053772 0.003906
0.007385 0.053772 0.003906
0.021240 0.054077 0.004425
0.055237 0.055969 0.005829
0.094055 0.055908 0.007111
0.132843 0.056305 0.008362
0.173370 0.056366 0.009796
0.215515 0.055878 0.011841
0.258026 0.055908 0.013550
0.302856 0.055054 0.016266
0.349030 0.053986 0.019348
0.396912 0.052460 0.023132
0.445801 0.050873 0.027069
0.495178 0.048584 0.031860
0.542603 0.046570 0.036346
0.590332 0.043518 0.042175
0.632202 0.043518 0.043518
0.671936 0.044098 0.044098
0.710510 0.044678 0.044678
0.747803 0.045166 0.045166
0.783722 0.045685 0.045685
0.818573 0.046204 0.046204
0.852112 0.046692 0.046692
0.884521 0.047119 0.047119
0.915680 0.047546 0.047546
0.933594 0.047821 0.047821
0.933594 0.047821 0.047821
0.933594 0.047821 0.047821
0.933594 0.047821 0.047821
0.008942 0.085541 0.004608
0.008942 0.085541 0.004608
0.008942 0.085541 0.004608
0.008942 0.085541 0.004608
0.008942 0.085541 0.004608
0.023499 0.085480 0.005188
0.058868 0.086670 0.006683
0.095642 0.087616 0.007874
0.134186 0.088257 0.008881
0.174286 0.088440 0.010254
0.216278 0.088165 0.011932
0.258331 0.088470 0.013336
0.302338 0.088165 0.015350
0.348022 0.087433 0.017883
0.394257 0.087006 0.020325
0.442871 0.085663 0.023804
0.490631 0.084442 0.027191
0.537994 0.082520 0.031464
0.584656 0.080170 0.036316
0.630219 0.077637 0.041412
0.675903 0.074097 0.047852
0.719452 0.071198 0.053467
0.762573 0.067627 0.059875
0.803131 0.064941 0.064941
0.837952 0.065430 0.065430
0.871490 0.065948 0.065948
0.903900 0.066376 0.066376
0.935059 0.066803 0.066803
0.952942 0.067078 0.067078
0.952942 0.067078 0.067078
0.952942 0.067078 0.067078
0.952942 0.067078 0.067078
0.013306 0.117371 0.005066
0.013306 0.117371 0.005066
0.013306 0.117371 0.005066
0.013306 0.117371 0.005066
0.013306 0.117371 0.005066
0.027161 0.117676 0.005493
0.061310 0.119415 0.007294
0.098236 0.120331 0.008575
0.136261 0.121124 0.009796
0.176361 0.121399 0.011108
0.217255 0.121735 0.012390
0.259644 0.121857 0.013855
0.302673 0.122131 0.015320
0.347778 0.121796 0.017334
0.393890 0.121521 0.019409
0.441162 0.121033 0.021851
0.488434 0.120178 0.024628
0.534241 0.119354 0.027405
0.578949 0.118286 0.030396
0.623230 0.116699 0.034180
0.666290 0.114929 0.038025
0.708008 0.113281 0.041809
0.749298 0.111023 0.046417
0.789612 0.108551 0.051300
0.829285 0.105682 0.056671
0.869141 0.101746 0.063416
0.907623 0.097961 0.069946
0.944916 0.094147 0.076569
0.966125 0.092041 0.080200
0.966125 0.092041 0.080200
0.966125 0.092041 0.080200
0.966125 0.092041 0.080200
0.017792 0.150238 0.005127
0.017792 0.150238 0.005127
0.017792 0.150238 0.005127
0.017792 0.150238 0.005127
0.017792 0.150238 0.005127
0.030548 0.151062 0.005920
0.066010 0.152252 0.007446
0.101562 0.153687 0.009277
0.138702 0.154938 0.010590
0.178436 0.155396 0.011871
0.218994 0.155884 0.013062
0.260834 0.156311 0.014404
0.304108 0.156494 0.015900
0.348541 0.156616 0.017517
0.394440 0.156403 0.019379
0.441193 0.156250 0.021301
0.487701 0.155975 0.023438
0.532776 0.155579 0.025696
0.577026 0.154907 0.028198
0.620148 0.154053 0.030884
0.661926 0.153229 0.033508
0.703003 0.152008 0.036591
0.742737 0.150787 0.039612
0.781372 0.149475 0.042847
0.819275 0.147858 0.046417
0.855682 0.146271 0.049805
0.891632 0.144257 0.053802
0.926147 0.142395 0.057648
0.946320 0.141113 0.060181
0.946320 0.141113 0.060181
0.946320 0.141113 0.060181
0.946320 0.141113 0.060181
0.022186 0.184448 0.005341
0.022186 0.184448 0.005341
0.022186 0.184448 0.005341
0.022186 0.184448 0.005341
0.022186 0.184448 0.005341
0.035950 0.184814 0.005798
0.070068 0.186523 0.007843
0.104980 0.188293 0.009827
0.141937 0.189575 0.011383
0.181122 0.190247 0.012726
0.221405 0.190979 0.014038
0.262909 0.191528 0.015289
0.305695 0.192017 0.016602
0.350037 0.192139 0.018158
0.395264 0.192383 0.019684
0.441895 0.192322 0.021484
0.488037 0.192291 0.023315
0.532837 0.192047 0.025269
0.576477 0.191803 0.027252
0.619171 0.191223 0.029449
0.660522 0.190704 0.031708
0.700745 0.190063 0.034027
0.739716 0.189362 0.036346
0.777832 0.188385 0.039001
0.814636 0.187500 0.041534
0.850311 0.186523 0.044189
0.884949 0.185425 0.046936
0.918457 0.184204 0.049744
0.937622 0.183563 0.051300
0.937622 0.183563 0.051300
0.937622 0.183563 0.051300
0.937622 0.183563 0.051300
0.028870 0.219238 0.004791
0.028870 0.219238 0.004791
0.028870 0.219238 0.004791
0.028870 0.219238 0.004791
0.028870 0.219238 0.004791
0.043213 0.219360 0.005157
0.074799 0.222198 0.007935
0.109161 0.224213 0.010284
0.145416 0.225800 0.012115
0.183868 0.226837 0.013489
0.223755 0.227753 0.014862
0.265015 0.228424 0.016113
0.307739 0.228912 0.017487
0.351654 0.229309 0.018860
0.396790 0.229584 0.020355
0.442993 0.229828 0.021912
0.489014 0.229858 0.023651
0.533478 0.229828 0.025269
0.577118 0.229584 0.027222
0.619202 0.229431 0.028992
0.660156 0.229156 0.030914
0.700134 0.228729 0.032928
0.738708 0.228302 0.034943
0.776062 0.227814 0.036896
0.812500 0.227173 0.039062
0.847656 0.226562 0.041229
0.881714 0.225830 0.043396
0.914703 0.224976 0.045654
0.933441 0.224640 0.046844
0.933441 0.224640 0.046844
0.933441 0.224640 0.046844
0.933441 0.224640 0.046844
0.037720 0.254181 0.003418
0.037720 0.254181 0.003418
0.037720 0.254181 0.003418
0.037720 0.254181 0.003418
0.037720 0.254181 0.003418
0.050751 0.254822 0.004181
0.080750 0.258423 0.007751
0.113098 0.261292 0.010681
0.149139 0.263031 0.012695
0.187012 0.264313 0.014343
0.226746 0.265228 0.015717
0.267700 0.266052 0.017029
0.310120 0.266693 0.018372
0.353790 0.267242 0.019745
0.398682 0.267639 0.021179
0.444641 0.268005 0.022644
0.490417 0.268188 0.024231
0.534576 0.268402 0.025726
0.577942 0.268341 0.027466
0.619781 0.268311 0.029022
0.660553 0.268188 0.030731
0.700104 0.267975 0.032440
0.738495 0.267670 0.034241
0.775574 0.267426 0.035950
0.811615 0.267090 0.037750
0.846466 0.266602 0.039612
0.880249 0.266083 0.041504
0.912811 0.265594 0.043396
0.931427 0.265350 0.044434
0.931427 0.265350 0.044434
0.931427 0.265350 0.044434
0.931427 0.265350 0.044434
0.046143 0.290283 0.002106
0.046143 0.290283 0.002106
0.046143 0.290283 0.002106
0.046143 0.290283 0.002106
0.046143 0.290283 0.002106
0.059082 0.291016 0.002991
0.087097 0.295410 0.007416
0.118805 0.298584 0.010712
0.153534 0.300842 0.013153
0.190826 0.302399 0.014954
0.230072 0.303528 0.016541
0.270508 0.304657 0.017944
0.312683 0.305420 0.019348
0.356201 0.305969 0.020691
0.400757 0.306610 0.022064
0.446503 0.307068 0.023468
0.492065 0.307373 0.024933
0.536163 0.307617 0.026428
0.579132 0.307770 0.027924
0.620911 0.307831 0.029388
0.661499 0.307800 0.031006
0.700745 0.307831 0.032501
0.738892 0.307678 0.034088
0.775848 0.307495 0.035675
0.811584 0.307312 0.037231
0.846161 0.307068 0.038849
0.879669 0.306763 0.040497
0.911926 0.306396 0.042084
0.930481 0.306183 0.043060
0.930481 0.306183 0.043060
0.930481 0.306183 0.043060
0.930481 0.306183 0.043060
0.055511 0.327515 0.000641
0.055511 0.327515 0.000641
0.055511 0.327515 0.000641
0.055511 0.327515 0.000641
0.055511 0.327515 0.000641
0.066956 0.328857 0.002014
0.094177 0.333588 0.006836
0.124634 0.337311 0.010651
0.158417 0.339966 0.013458
0.195068 0.341797 0.015503
0.233826 0.343201 0.017303
0.273987 0.344391 0.018829
0.315826 0.345306 0.020294
0.358795 0.346191 0.021637
0.403259 0.346832 0.023041
0.448822 0.347443 0.024445
0.494141 0.347839 0.025848
0.538208 0.348083 0.027283
0.580933 0.348389 0.028656
0.622437 0.348602 0.030090
0.662811 0.348724 0.031525
0.701874 0.348846 0.032898
0.739868 0.348816 0.034363
0.776520 0.348785 0.035767
0.812225 0.348694 0.037231
0.846558 0.348602 0.038666
0.879883 0.348389 0.040131
0.911865 0.348236 0.041565
0.930328 0.348114 0.042419
0.930328 0.348114 0.042419
0.930328 0.348114 0.042419
0.930328 0.348114 0.042419
0.066711 0.364868 0.000031
0.066711 0.364868 0.000031
0.066711 0.364868 0.000031
0.066711 0.364868 0.000031
0.066711 0.364868 0.000031
0.076355 0.367310 0.000580
0.101807 0.372803 0.006073
0.130615 0.377197 0.010498
0.163788 0.380157 0.013672
0.199707 0.382324 0.016022
0.237701 0.384003 0.017944
0.277649 0.385315 0.019684
0.319122 0.386383 0.021210
0.361816 0.387390 0.022614
0.406189 0.388123 0.024048
0.451477 0.388824 0.025452
0.496613 0.389343 0.026855
0.540283 0.389801 0.028198
0.582855 0.390198 0.029572
0.624298 0.390472 0.030884
0.664398 0.390717 0.032227
0.703430 0.390869 0.033569
0.741272 0.390930 0.034912
0.777802 0.390991 0.036224
0.813263 0.391022 0.037567
0.847534 0.390991 0.038910
0.880615 0.390961 0.040222
0.912537 0.390869 0.041565
0.930878 0.390778 0.042328
0.930878 0.390778 0.042328
0.930878 0.390778 0.042328
0.930878 0.390778 0.042328
0.077301 0.403534 0.000031
0.077301 0.403534 0.000031
0.077301 0.403534 0.000031
0.077301 0.403534 0.000031
0.077301 0.403534 0.000031
0.085876 0.406616 0.000031
0.110168 0.412781 0.005127
0.137878 0.417694 0.010071
0.170013 0.421051 0.013641
0.204926 0.423676 0.016327
0.242218 0.425659 0.018585
0.281891 0.427094 0.020416
0.322815 0.428436 0.022064
0.365326 0.429504 0.023590
0.409149 0.430481 0.025055
0.454437 0.431183 0.026489
0.499176 0.431915 0.027863
0.542847 0.432373 0.029236
0.585266 0.432861 0.030548
0.626465 0.433289 0.031860
0.666473 0.433533 0.033112
0.705292 0.433868 0.034393
0.742920 0.434021 0.035645
0.779388 0.434113 0.036926
0.814728 0.434265 0.038147
0.848846 0.434326 0.039398
0.881775 0.434357 0.040619
0.913513 0.434387 0.041840
0.931824 0.434326 0.042542
0.931824 0.434326 0.042542
0.931824 0.434326 0.042542
0.931824 0.434326 0.042542
0.089386 0.442749 0.000031
0.089386 0.442749 0.000031
0.089386 0.442749 0.000031
0.089386 0.442749 0.000031
0.089386 0.442749 0.000031
0.096771 0.446411 0.000031
0.118134 0.454224 0.004364
0.145355 0.459290 0.009552
0.176575 0.463043 0.013458
0.210571 0.466064 0.016571
0.247314 0.468323 0.019043
0.286377 0.470001 0.021057
0.326752 0.471588 0.022888
0.368927 0.472809 0.024506
0.412567 0.473846 0.026062
0.457520 0.474731 0.027527
0.502136 0.475525 0.028961
0.545563 0.476135 0.030304
0.587769 0.476715 0.031586
0.628967 0.477112 0.032898
0.668793 0.477539 0.034119
0.707520 0.477844 0.035339
0.744965 0.478149 0.036530
0.781311 0.478363 0.037781
0.816437 0.478577 0.038910
0.850464 0.478638 0.040100
0.883301 0.478760 0.041229
0.914978 0.478821 0.042419
0.933136 0.478851 0.043030
0.933136 0.478851 0.043030
0.933136 0.478851 0.043030
0.933136 0.478851 0.043030
0.100891 0.483032 0.000031
0.100891 0.483032 0.000031
0.100891 0.483032 0.000031
0.100891 0.483032 0.000031
0.100891 0.483032 0.000031
0.108002 0.486877 0.000031
0.127380 0.495911 0.003143
0.153076 0.501648 0.008911
0.183472 0.505798 0.013245
0.216644 0.509186 0.016724
0.252869 0.511597 0.019348
0.291199 0.513611 0.021637
0.331268 0.515350 0.023621
0.373047 0.516754 0.025360
0.416382 0.517944 0.027008
0.460938 0.518982 0.028534
0.505310 0.519897 0.030029
0.548523 0.520599 0.031372
0.590637 0.521210 0.032684
0.631500 0.521759 0.033905
0.671265 0.522217 0.035156
0.709900 0.522614 0.036377
0.747345 0.522919 0.037567
0.783508 0.523224 0.038727
0.818512 0.523529 0.039825
0.852417 0.523712 0.040985
0.885162 0.523834 0.042053
0.916718 0.523956 0.043152
0.934845 0.524017 0.043762
0.934845 0.524017 0.043762
0.934845 0.524017 0.043762
0.934845 0.524017 0.043762
0.112793 0.522247 0.000031
0.112793 0.522247 0.000031
0.112793 0.522247 0.000031
0.112793 0.522247 0.000031
0.112793 0.522247 0.000031
0.118835 0.526611 0.000031
0.136597 0.536682 0.001892
0.161591 0.542725 0.007996
0.190552 0.547455 0.012817
0.223175 0.551056 0.016541
0.258606 0.553864 0.019562
0.296234 0.556213 0.022095
0.335815 0.558105 0.024231
0.377258 0.559723 0.026154
0.420197 0.561035 0.027863
0.464447 0.562225 0.029480
0.508698 0.563202 0.031006
0.551666 0.564056 0.032440
0.593597 0.564758 0.033752
0.634338 0.565399 0.035004
0.674011 0.565887 0.036255
0.712402 0.566376 0.037415
0.749664 0.566742 0.038544
0.785797 0.567108 0.039703
0.820770 0.567413 0.040802
0.854492 0.567688 0.041901
0.887146 0.567871 0.042938
0.918640 0.568085 0.044006
0.936707 0.568176 0.044617
0.936707 0.568176 0.044617
0.936707 0.568176 0.044617
0.936707 0.568176 0.044617
0.123444 0.560760 0.000031
0.123444 0.560760 0.000031
0.123444 0.560760 0.000031
0.123444 0.560760 0.000031
0.123444 0.560760 0.000031
0.129578 0.565063 0.000031
0.145844 0.576172 0.000549
0.169739 0.582703 0.007111
0.197845 0.587830 0.012329
0.229614 0.591797 0.016388
0.264160 0.594971 0.019745
0.301422 0.597473 0.022430
0.340515 0.599579 0.024750
0.381500 0.601349 0.026855
0.424164 0.602844 0.028687
0.468231 0.604095 0.030334
0.512115 0.605225 0.031952
0.554932 0.606110 0.033356
0.596710 0.606903 0.034729
0.637207 0.607666 0.036011
0.676758 0.608215 0.037262
0.715057 0.608795 0.038452
0.752228 0.609253 0.039612
0.788147 0.609650 0.040710
0.823059 0.609985 0.041779
0.856750 0.610291 0.042847
0.889313 0.610596 0.043915
0.920624 0.610840 0.044891
0.938721 0.610931 0.045502
0.938721 0.610931 0.045502
0.938721 0.610931 0.045502
0.938721 0.610931 0.045502
0.134277 0.597992 0.000031
0.134277 0.597992 0.000031
0.134277 0.597992 0.000031
0.134277 0.597992 0.000031
0.134277 0.597992 0.000031
0.140015 0.602509 0.000031
0.154755 0.614502 0.000031
0.177795 0.621552 0.006226
0.205383 0.626892 0.011658
0.236237 0.631226 0.016083
0.270081 0.634735 0.019684
0.306641 0.637482 0.022644
0.345306 0.639862 0.025208
0.385986 0.641724 0.027405
0.428162 0.643402 0.029358
0.472046 0.644775 0.031158
0.515594 0.646027 0.032806
0.558228 0.647034 0.034302
0.599823 0.647919 0.035706
0.640228 0.648712 0.037018
0.679504 0.649384 0.038239
0.717834 0.649902 0.039429
0.754822 0.650513 0.040619
0.790710 0.650940 0.041718
0.825470 0.651367 0.042786
0.859009 0.651733 0.043823
0.891510 0.652039 0.044830
0.922760 0.652313 0.045807
0.940826 0.652466 0.046417
0.940826 0.652466 0.046417
0.940826 0.652466 0.046417
0.940826 0.652466 0.046417
0.144867 0.634216 0.000031
0.144867 0.634216 0.000031
0.144867 0.634216 0.000031
0.144867 0.634216 0.000031
0.144867 0.634216 0.000031
0.150116 0.639008 0.000031
0.164490 0.651154 0.000031
0.185760 0.659241 0.005219
0.212341 0.665039 0.011078
0.242767 0.669556 0.015747
0.276062 0.673309 0.019592
0.311981 0.676392 0.022827
0.350128 0.678925 0.025543
0.390411 0.680969 0.027893
0.432343 0.682770 0.029968
0.475830 0.684326 0.031891
0.519318 0.685638 0.033630
0.561554 0.686768 0.035156
0.602875 0.687775 0.036621
0.643311 0.688568 0.037964
0.682434 0.689331 0.039246
0.720490 0.690002 0.040436
0.757507 0.690552 0.041595
0.793213 0.691040 0.042664
0.827911 0.691528 0.043762
0.861420 0.691925 0.044800
0.893799 0.692291 0.045807
0.925018 0.692596 0.046753
0.942963 0.692780 0.047333
0.942963 0.692780 0.047333
0.942963 0.692780 0.047333
0.942963 0.692780 0.047333
0.155121 0.669525 0.000031
0.155121 0.669525 0.000031
0.155121 0.669525 0.000031
0.155121 0.669525 0.000031
0.155121 0.669525 0.000031
0.160309 0.674316 0.000031
0.173767 0.686981 0.000031
0.193848 0.695831 0.004150
0.219666 0.701965 0.010345
0.249359 0.706818 0.015259
0.281952 0.710846 0.019409
0.317413 0.714111 0.022858
0.355225 0.716797 0.025726
0.394897 0.719177 0.028320
0.436554 0.721069 0.030518
0.479645 0.722748 0.032532
0.522797 0.724213 0.034332
0.564972 0.725433 0.035980
0.606171 0.726501 0.037476
0.646332 0.727417 0.038849
0.685394 0.728180 0.040131
0.723267 0.728943 0.041351
0.760162 0.729523 0.042511
0.795837 0.730072 0.043640
0.830414 0.730621 0.044708
0.863831 0.731049 0.045746
0.896118 0.731445 0.046722
0.927277 0.731812 0.047699
0.945190 0.732025 0.048279
0.945190 0.732025 0.048279
0.945190 0.732025 0.048279
0.945190 0.732025 0.048279
0.165314 0.703796 0.000031
0.165314 0.703796 0.000031
0.165314 0.703796 0.000031
0.165314 0.703796 0.000031
0.165314 0.703796 0.000031
0.170074 0.708801 0.000031
0.182922 0.721771 0.000031
0.201538 0.731598 0.003204
0.226929 0.737854 0.009552
0.256073 0.742950 0.014740
0.287994 0.747284 0.019165
0.323029 0.750732 0.022797
0.360229 0.753693 0.025909
0.399414 0.756226 0.028625
0.440704 0.758301 0.030975
0.483551 0.760132 0.033112
0.526520 0.761658 0.035004
0.568451 0.763000 0.036743
0.609406 0.764160 0.038269
0.649445 0.765137 0.039703
0.688354 0.765991 0.041016
0.726105 0.766785 0.042236
0.762909 0.767426 0.043427
0.798492 0.768036 0.044586
0.832977 0.768616 0.045654
0.866302 0.769043 0.046661
0.898529 0.769531 0.047668
0.929657 0.769897 0.048645
0.947479 0.770142 0.049194
0.947479 0.770142 0.049194
0.947479 0.770142 0.049194
0.947479 0.770142 0.049194
0.174683 0.737305 0.000031
0.174683 0.737305 0.000031
0.174683 0.737305 0.000031
0.174683 0.737305 0.000031
0.174683 0.737305 0.000031
0.179443 0.742340 0.000031
0.191986 0.755463 0.000031
0.209320 0.766083 0.002136
0.234100 0.772644 0.008728
0.262451 0.778107 0.014282
0.294098 0.782532 0.018829
0.328217 0.786377 0.022766
0.365173 0.789429 0.026031
0.404144 0.792023 0.028839
0.444977 0.794342 0.031403
0.487427 0.796326 0.033630
0.530151 0.797974 0.035645
0.571838 0.799408 0.037415
0.612640 0.800629 0.039001
0.652527 0.801697 0.040497
0.691284 0.802582 0.041809
0.729034 0.803406 0.043091
0.765594 0.804138 0.044281
0.801147 0.804779 0.045441
0.835602 0.805389 0.046539
0.868805 0.805908 0.047577
0.900940 0.806366 0.048553
0.931976 0.806824 0.049530
0.949768 0.807037 0.050049
0.949768 0.807037 0.050049
0.949768 0.807037 0.050049
0.949768 0.807037 0.050049
0.184143 0.769501 0.000031
0.184143 0.769501 0.000031
0.184143 0.769501 0.000031
0.184143 0.769501 0.000031
0.184143 0.769501 0.000031
0.188507 0.774689 0.000031
0.200592 0.788055 0.000031
0.216858 0.799438 0.001099
0.241241 0.806152 0.007874
0.268890 0.811920 0.013702
0.300110 0.816528 0.018463
0.333710 0.820587 0.022614
0.370117 0.823883 0.026062
0.408661 0.826721 0.029083
0.449188 0.829132 0.031738
0.491364 0.831238 0.034088
0.533813 0.832977 0.036163
0.575317 0.834534 0.038055
0.615967 0.835815 0.039703
0.655609 0.836945 0.041199
0.694214 0.837952 0.042603
0.731903 0.838806 0.043915
0.768402 0.839569 0.045135
0.803833 0.840271 0.046295
0.838165 0.840912 0.047394
0.871277 0.841461 0.048431
0.903351 0.841980 0.049438
0.934326 0.842468 0.050415
0.952118 0.842712 0.050964
0.952118 0.842712 0.050964
0.952118 0.842712 0.050964
0.952118 0.842712 0.050964
0.193237 0.800842 0.000031
0.193237 0.800842 0.000031
0.193237 0.800842 0.000031
0.193237 0.800842 0.000031
0.193237 0.800842 0.000031
0.197327 0.806244 0.000031
0.209167 0.819641 0.000031
0.224365 0.831818 0.000031
0.248199 0.838776 0.007050
0.275482 0.844666 0.013000
0.305878 0.849640 0.018066
0.339142 0.853851 0.022400
0.375122 0.857330 0.026031
0.413239 0.860321 0.029205
0.453400 0.862915 0.032013
0.495300 0.865173 0.034515
0.537476 0.867035 0.036682
0.578735 0.868622 0.038605
0.619202 0.870026 0.040314
0.658722 0.871185 0.041870
0.697205 0.872284 0.043335
0.734711 0.873199 0.044647
0.771118 0.874023 0.045898
0.806488 0.874725 0.047089
0.840668 0.875427 0.048187
0.873779 0.876038 0.049286
0.905762 0.876587 0.050262
0.936676 0.877045 0.051239
0.954376 0.877350 0.051788
0.954376 0.877350 0.051788
0.954376 0.877350 0.051788
0.954376 0.877350 0.051788
0.201996 0.831024 0.000031
0.201996 0.831024 0.000031
0.201996 0.831024 0.000031
0.201996 0.831024 0.000031
0.201996 0.831024 0.000031
0.206146 0.836334 0.000031
0.217468 0.850098 0.000031
0.232239 0.862488 0.000031
0.254883 0.870178 0.006226
0.281677 0.876251 0.012360
0.311737 0.881409 0.017639
0.344452 0.885834 0.022125
0.379944 0.889526 0.025970
0.417786 0.892670 0.029327
0.457611 0.895325 0.032196
0.499146 0.897766 0.034851
0.541046 0.899750 0.037109
0.582123 0.901459 0.039124
