assets/luts/premium.cube
TITLE "Generated by Resolve"
LUT_3D_SIZE 33
6.10361e-05 6.10361e-05 6.10361e-05
0.00798047 0 0
0.0608835 0 0
0.108873 0 0
0.155795 0 0
0.204013 0 0
0.256397 0 0
0.314366 0 0
0.378851 0 0
0.454322 0 0
0.543053 0 0
0.637613 0 0
0.741604 0 0
0.842893 0 0
0.938231 0 0
1 0 0
1 0 0
1 0 0
1 0 0
1 0 0
1 0 0
1 0 0
1 0 0
1 0 0
1 0 0
1 0 0
1 0 0
1 0.0111086 0.00660716
1 0.0338903 0.0299382
1 0.059144 0.0555276
1 0.0584878 0.0548714
1 0.0577859 0.0541543
1 0.0574044 0.0537881
0 0.0078584 0
0.000442512 0.00387579 0
0.0437781 0.00173953 0
0.0882124 0.00285344 0
0.135561 0.00241093 0
0.184344 0.00077821 0
0.237095 0 0
0.294865 0 0
0.360235 0 0
0.435004 0 0
0.525322 0 0
0.620295 0 0
0.724483 0 0
0.825879 0 0
0.922347 0 0
1 0 0
1 0 0
1 0 0
1 0 0
1 0 0
1 0 0
1 0 0
1 0 0
1 0 0
1 0 0
1 0 0
1 0 0
1 0.00296025 0.00166323
1 0.0255131 0.0250248
1 0.0535744 0.0536965
1 0.0534218 0.0537118
1 0.0532082 0.0536812
1 0.0534066 0.0540322
0 0.044892 0
0 0.04094 0
0.0356146 0.0359045 0
0.0741436 0.0328069 0
0.112474 0.0348363 0
0.161364 0.0362707 0
0.21532 0.0353857 0
0.273823 0.0324102 0
0.340154 0.0257115 0
0.415213 0.0162509 0
0.506477 0.00436408 0
0.604227 0 0
0.707973 0 0
0.809781 0 0
0.90602 0 0
1 0 0
1 0 0
1 0 0
1 0 0
1 0 0
1 0 0
1 0 0
1 0 0
1 0 0
1 0 0
1 0 0
1 0 0
1 0.0059205 0.00210575
1 0.0276646 0.0256046
1 0.0579843 0.0575723
1 0.058732 0.0584726
1 0.0594797 0.0593729
1 0.0605936 0.0606546
0 0.0807355 0
0 0.0774853 0
0.0280919 0.0731212 0
0.0690166 0.0667887 0
0.106935 0.0620127 0
0.146044 0.0611582 0
0.194034 0.0614633 0
0.25391 0.0590066 0
0.321065 0.0533761 0
0.397009 0.0450446 0
0.490196 0.0346838 0
0.590372 0.0225528 0
0.693324 0.0103151 0
0.794553 0 0
0.89102 0 0
0.987411 0 0
1 0 0
1 0 0
1 0 0
1 0 0
1 0 0
1 0 0
1 0 0
1 0 0
1 0 0
1 0 0
1 0 0
1 0.0132143 0.00607309
1 0.0339055 0.0294652
1 0.0658274 0.0643931
1 0.0675517 0.066331
1 0.0692454 0.0682383
1 0.0713512 0.0705577
0 0.129793 0
0 0.126192 0
0.0252079 0.121859 0
0.0679332 0.114183 0
0.108034 0.105394 0
0.147601 0.0966659 0
0.192096 0.0926528 0
0.24448 0.0905013 0
0.308629 0.0866712 0
0.385214 0.0792401 0
0.481849 0.0708171 0
0.58024 0.0589914 0
0.681575 0.0460059 0
0.781476 0.0325475 0
0.876631 0.020325 0
0.972137 0.00791943 0
1 0 0
1 0 0
1 0 0
1 0 0
1 0 0
1 0 0
1 0 0
1 0 0
1 0 0
1 0 0
1 0.0116121 0
1 0.0267643 0.0118105
1 0.046128 0.03505
1 0.0737621 0.0671702
1 0.0797284 0.0738842
1 0.0831006 0.0776074
1 0.0868849 0.0817273
0 0.167132 0
0 0.164233 0
0.0112612 0.16379 0
0.0575265 0.157321 0
0.0995956 0.148104 0
0.141161 0.137636 0
0.183413 0.12636 0
0.236225 0.121721 0
0.299931 0.119417 0
0.376577 0.11754 0
0.47303 0.111711 0
0.572549 0.100679 0
0.674693 0.0881361 0
0.776013 0.0749523 0
0.872709 0.0628367 0
0.969924 0.0506142 0
1 0.0382696 0
1 0.027039 0
1 0.0168917 0
1 0.00894179 0
1 0.00508125 0
1 0.00378424 0
1 0.00605783 0
1 0.0115969 0
1 0.0198825 0
1 0.0308232 0
1 0.0438239 0.011368
1 0.0585336 0.0316777
1 0.0773938 0.0557259
1 0.10457 0.0885939
1 0.113512 0.0989395
1 0.117205 0.102998
1 0.12137 0.107485
0 0.205753 0
0 0.202762 0
0 0.20293 0
0.0417487 0.198886 0
0.0850843 0.1906 0
0.130282 0.182589 0
0.176928 0.172671 0
0.225834 0.160327 0
0.28748 0.153765 0
0.361364 0.149416 0
0.453544 0.147372 0
0.55172 0.140826 0
0.654688 0.129061 0
0.757031 0.116655 0
0.854948 0.104799 0
0.952865 0.0926528 0
1 0.0802167 0
1 0.0686351 0
1 0.0581826 0
1 0.0496071 0
1 0.0446174 0
1 0.042771 0
1 0.0441901 0
1 0.0490425 0
1 0.0563821 0
1 0.0664073 0.0068513
1 0.0783246 0.0260166
1 0.0924849 0.0469368
1 0.110201 0.0711528
1 0.135943 0.10399
1 0.148211 0.118654
1 0.152834 0.12369
1 0.157733 0.129
0 0.250187 0
0 0.246967 0
0 0.249561 0
0.0252079 0.247837 0
0.0713207 0.241917 0
0.116762 0.233509 0
0.164508 0.222858 0
0.215015 0.21004 0
0.269825 0.194263 0
0.340536 0.184939 0
0.430594 0.179873 0
0.529152 0.175387 0
0.632029 0.171099 0
0.735225 0.162051 0
0.834348 0.150973 0
0.933303 0.139071 0
1 0.127016 0
1 0.115602 0
1 0.105196 0
1 0.0967117 0
1 0.09131 0
1 0.089189 0
1 0.0901808 0
1 0.0944228 0
1 0.101244 0.00515755
1 0.11046 0.0229648
1 0.121569 0.0421607
1 0.134646 0.0630503
1 0.151064 0.0870832
1 0.174823 0.119081
1 0.189639 0.137713
1 0.194812 0.143359
1 0.200168 0.149187
0 0.320714 0
0 0.318379 0
0 0.322087 0
0.0143893 0.320424 0
0.0621653 0.315755 0
0.109819 0.30605 0
0.158984 0.294072 0
0.211139 0.279423 0
0.266545 0.260807 0
0.326757 0.238514 0
0.40853 0.224521 0
0.507805 0.217151 0
0.609934 0.210834 0
0.712947 0.207034 0
0.812787 0.202884 0
0.911986 0.192508 0
1 0.180545 0
1 0.169436 0
1 0.158587 0
1 0.150027 0
1 0.144579 0
1 0.141939 0
1 0.142382 0
1 0.146151 0.00239567
1 0.152041 0.0176699
1 0.160174 0.0349432
1 0.170092 0.0538186
1 0.181979 0.0741894
1 0.197559 0.0984817
1 0.217075 0.126802
1 0.232273 0.147158
1 0.238239 0.15378
1 0.244266 0.160433
0 0.36553 0
0 0.363348 0
0 0.375082 0
0 0.377417 0
0.0376593 0.374487 0
0.0849775 0.365881 0
0.134112 0.353643 0
0.186297 0.339422 0
0.243549 0.322057 0
0.307347 0.30132 0
0.378622 0.276204 0
0.471733 0.259953 0
0.576242 0.253483 0
0.681712 0.248981 0
0.784695 0.247944 0
0.88806 0.248234 0
0.991241 0.243488 0
1 0.233646 0
1 0.224018 0
1 0.215457 0
1 0.209751 0
1 0.206912 0
1 0.20708 0.00596628
1 0.210224 0.0189212
1 0.215915 0.0343481
1 0.224109 0.0523537
1 0.233982 0.0720531
1 0.245365 0.0927901
1 0.25919 0.116014
1 0.277546 0.144137
1 0.293629 0.166842
1 0.298848 0.172686
1 0.304082 0.178515
0 0.420554 0
0 0.418952 0
0 0.430686 0
0 0.435431 0
0.00509651 0.433371 0
0.0520943 0.428321 0
0.100877 0.417563 0
0.153689 0.404364 0
0.212894 0.387869 0
0.278508 0.368246 0
0.352468 0.345647 0
0.436042 0.31754 0
0.530053 0.299809 0
0.638209 0.295598 0
0.743435 0.294041 0
0.848737 0.294087 0
0.955032 0.295659 0
1 0.296834 0
1 0.290242 0
1 0.282261 0
1 0.276448 0
1 0.273594 0.00366217
1 0.273671 0.0131228
1 0.276463 0.0254673
1 0.281605 0.0407111
1 0.288808 0.0580453
1 0.297581 0.0766766
1 0.307591 0.0966812
1 0.31986 0.118944
1 0.336324 0.145846
1 0.352621 0.170413
1 0.357488 0.175982
1 0.36228 0.181399
0 0.478904 0
0 0.478523 0
0 0.490425 0
0 0.498146 0
0 0.498451 0
0.0144045 0.496117 0
0.0642252 0.489967 0
0.11751 0.479347 0
0.177676 0.46598 0
0.245396 0.44889 0
0.32163 0.428046 0
0.409201 0.402121 0
0.495201 0.37438 0
0.583886 0.350423 0
0.691508 0.349126 0
0.79881 0.348669 0
0.906752 0.34934 0
1 0.351492 0
1 0.354665 0
1 0.356695 0
1 0.352911 0.00328069
1 0.350027 0.00834669
1 0.349905 0.0171359
1 0.352026 0.0286564
1 0.356283 0.0428168
1 0.362158 0.058793
1 0.369039 0.0760815
1 0.377081 0.0943465
1 0.387213 0.115068
1 0.401312 0.140124
1 0.417197 0.165942
1 0.421912 0.17142
1 0.426642 0.176974
0 0.553704 0
0 0.555444 0
0 0.565545 0
0 0.572885 0
0 0.573693 0
0 0.572412 0
0.0312047 0.56997 0
0.0850996 0.561181 0
0.145327 0.548623 0
0.213733 0.532921 0
0.291264 0.513222 0
0.380468 0.487999 0
0.468742 0.461097 0
0.554971 0.43238 0
0.638193 0.406744 0
0.74522 0.404837 0
0.855222 0.405325 0
0.962585 0.406882 0
1 0.409339 0
1 0.412879 0
1 0.420203 0
1 0.422858 0.00514229
1 0.421836 0.012665
1 0.422782 0.0222629
1 0.425361 0.0343328
1 0.42948 0.048249
1 0.434928 0.0635996
1 0.442847 0.0819409
1 0.453468 0.103593
1 0.466041 0.127184
1 0.480293 0.152041
1 0.485695 0.158312
1 0.491157 0.164599
0 0.613489 0
0 0.615381 0
0 0.628336 0
0 0.641474 0
0 0.645045 0
0 0.64445 0
0 0.642954 0
0.0500038 0.637751 0
0.109468 0.626276 0
0.1776 0.611551 0
0.255192 0.592996 0
0.34551 0.569604 0
0.436088 0.544457 0
0.525689 0.517739 0
0.609277 0.490578 0
0.690562 0.463218 0
0.798291 0.460304 0
0.908568 0.462593 0
1 0.465446 0
1 0.46862 0
1 0.474601 0
1 0.48365 0
1 0.493294 0.00328069
1 0.496773 0.0191501
1 0.499763 0.0314183
1 0.504692 0.0463264
1 0.511101 0.062974
1 0.518654 0.0811475
1 0.527413 0.100435
1 0.538247 0.122332
1 0.553201 0.149386
1 0.558404 0.155352
1 0.563577 0.161273
0 0.676829 0
0 0.680064 0
0 0.691814 0
0 0.705913 0
0 0.710872 0
0 0.711894 0
0 0.711894 0
0.0186465 0.710719 0
0.0783398 0.702419 0
0.14609 0.690059 0
0.224125 0.673609 0
0.315465 0.651759 0
0.407141 0.628 0
0.498512 0.602487 0
0.584573 0.576196 0
0.666758 0.548196 0
0.745968 0.517433 0
0.849424 0.512535 0
0.95584 0.515541 0
1 0.518593 0
1 0.523766 0
1 0.532341 0
1 0.542824 0
1 0.556573 0
1 0.568597 0.0255436
1 0.574502 0.0420539
1 0.580652 0.0581979
1 0.587716 0.0754711
1 0.595468 0.0935988
1 0.605844 0.115114
1 0.620325 0.142641
1 0.625437 0.148455
1 0.630503 0.154238
0 0.741772 0
0 0.745983 0
0 0.756161 0
0 0.770993 0
0 0.77702 0
0 0.77937 0
0 0.780438 0
0 0.780743 0
0.0487678 0.777111 0
0.115785 0.766674 0
0.193103 0.752102 0
0.284153 0.732341 0
0.376913 0.709819 0
0.469444 0.685283 0
0.556756 0.659358 0
0.640604 0.631861 0
0.722835 0.602441 0
0.798306 0.569696 0
0.894774 0.562509 0
0.994873 0.567437 0
1 0.573419 0
1 0.582666 0
1 0.592905 0
1 0.605722 0
1 0.621088 0
1 0.638865 0.0282902
1 0.649302 0.0551461
1 0.655512 0.0711833
1 0.663264 0.0892348
1 0.673686 0.110994
1 0.686778 0.137072
1 0.692439 0.144625
1 0.697093 0.14995
0 0.807034 0
0 0.81236 0
0 0.820783 0
0 0.833036 0
0 0.839124 0
0 0.842741 0
0 0.845335 0
0 0.84654 0
0.0167391 0.845731 0
0.0825055 0.837888 0
0.15845 0.824979 0
0.247654 0.807065 0
0.341436 0.786068 0
0.434897 0.763516 0
0.524605 0.740124 0
0.611444 0.715282 0
0.697429 0.688197 0
0.779202 0.6598 0
0.85153 0.628473 0
0.937072 0.618296 0
1 0.625788 0
1 0.635187 0
1 0.6448 0
1 0.656199 0
1 0.669688 0
1 0.685115 0
1 0.702571 0.0155489
1 0.721416 0.0622721
1 0.730785 0.0838636
1 0.7402 0.104311
1 0.751659 0.128298
1 0.757626 0.137514
1 0.761898 0.142458
0 0.871595 0
0 0.876921 0
0 0.884565 0
0 0.898116 0
0 0.905013 0
0 0.908309 0
0 0.91014 0
0 0.910567 0
0 0.909041 0
0.0495918 0.903593 0
0.122759 0.891279 0
0.20943 0.874968 0
0.30338 0.855726 0
0.397421 0.835172 0
0.488411 0.81387 0
0.576913 0.79173 0
0.665751 0.767559 0
0.751492 0.742031 0
0.830823 0.71574 0
0.8981 0.686976 0
0.97084 0.674983 0
1 0.68661 0
1 0.697017 0
1 0.708675 0
1 0.721798 0
1 0.736416 0
1 0.752605 0
1 0.770306 0.0108034
1 0.789471 0.0612802
1 0.8065 0.100633
1 0.817838 0.124895
1 0.824063 0.135698
1 0.827497 0.139727
0 0.933043 0
0 0.938384 0
0 0.944869 0
0 0.957488 0
0 0.964019 0
0 0.967132 0
0 0.968719 0
0 0.969467 0
0 0.968597 0
0.0206455 0.965576 0
0.0930648 0.95639 0
0.1776 0.942061 0
0.271534 0.924483 0
0.365301 0.905745 0
0.45655 0.88632 0
0.545693 0.865782 0
0.635447 0.843183 0
0.722698 0.819242 0
0.804456 0.794827 0
0.877775 0.770336 0
0.937148 0.744091 0
1 0.731594 0
1 0.743664 0
1 0.755688 0
1 0.76846 0
1 0.78204 0
1 0.796689 0
1 0.812299 0
1 0.830289 0.0012665
1 0.850324 0.0552529
1 0.872694 0.108919
1 0.882536 0.129381
1 0.885344 0.133028
0 0.991104 0
0 0.996078 0
0 1 0
0 1 0
0 1 0
0 1 0
0 1 0
0 1 0
0 1 0
0 1 0
0.0718242 1 0
0.15346 1 0
0.246311 0.989441 0
0.338888 0.971862 0
0.429282 0.953536 0
0.518044 0.934249 0
0.60795 0.912871 0
0.695979 0.890471 0
0.779232 0.867552 0
0.854871 0.844907 0
0.920073 0.823148 0
0.973266 0.797757 0
1 0.786084 0
1 0.79852 0
1 0.811582 0
1 0.82446 0
1 0.837751 0
1 0.852232 0
1 0.86807 0
1 0.885512 0
1 0.90518 0.051957
1 0.918349 0.0850843
1 0.920592 0.0887007
0 1 0
0 1 0
0 1 0
0 1 0
0 1 0
0 1 0
0 1 0
0 1 0
0 1 0
0 1 0
0.0601511 1 0
0.140795 1 0
0.231922 1 0
0.323232 1 0
0.413001 1 0
0.501564 1 0
0.591928 0.982666 0
0.680919 0.962493 0
0.765332 0.941238 0
0.842023 0.919478 0
0.90866 0.898436 0
0.966796 0.876585 0
1 0.854765 0
1 0.840665 0
1 0.851255 0
1 0.863752 0
1 0.875944 0
1 0.88838 0
1 0.9019 0
1 0.916899 0
1 0.933761 0
1 0.946548 0.0349126
1 0.947768 0.0374456
0 1 0
0 1 0
0 1 0
0 1 0
0 1 0
0 1 0
0 1 0
0 1 0
0 1 0
0 1 0
0.0539406 1 0
0.133608 1 0
0.222019 1 0
0.310842 1 0
0.39881 1 0
0.485481 1 0
0.574228 1 0
0.662501 1 0
0.746944 1 0
0.824689 0.981582 0
0.892958 0.962295 0
0.953277 0.942779 0
1 0.924743 0
1 0.906126 0
1 0.89015 0
1 0.89781 0
1 0.910048 0
1 0.921401 0
1 0.933242 0
1 0.946014 0
1 0.96051 0
1 0.973114 0
1 0.973587 0
0 1 0
0 1 0
0 1 0
0 1 0
0 1 0
0 1 0
0 1 0
0 1 0
0 1 0
0 1 0
0.0549477 1 0
0.132326 1 0
0.21976 1 0
0.306035 1 0
0.39173 1 0
0.476173 1 0
0.562982 1 0
0.649439 1 0
0.732586 1 0
0.80972 1 0
0.877913 1 0
0.93843 0.994904 0
0.98938 0.978714 0
1 0.963607 0
1 0.947936 0
1 0.932296 0
1 0.937148 0
1 0.949142 0
1 0.960082 0
1 0.970916 0
1 0.982956 0
1 0.994629 0
1 0.994461 0
0 1 0
0 1 0
0 1 0
0 1 0
0 1 0
0 1 0
0 1 0
0 1 0
0 1 0
0.00378424 1 0
0.0644999 1 0
0.138064 1 0
0.223774 1 0
0.307286 1 0
0.389914 1 0
0.471672 1 0
0.556115 1 0
0.640742 1 0
0.722713 1 0
0.7991 1 0
0.867247 1 0
0.927611 1 0
0.979889 1 0
1 1 0
1 0.998581 0
1 0.984802 0
1 0.97026 0
1 0.971679 0
1 0.982315 0
1 0.991806 0
1 1 0
1 1 0
1 1 0
0 1 0
0 1 0
0 1 0
0 1 0
0 1 0
0 1 0
0 1 0
0 1 0
0 1 0
0.0250401 1 0
0.0823072 1 0
0.153094 1 0
0.236271 1 0
0.319036 1 0
0.399115 1 0
0.478416 1 0
0.560632 1 0
0.643458 1 0
0.723796 1 0
0.798749 1 0
0.865812 1 0
0.924559 1 0
0.976669 1 0
1 1 0
1 1 0
1 1 0
1 1 0
1 1 0
1 1 0
1 1 0
1 1 0
1 1 0
1 1 0
0 1 0
0 1 0
0 1 0
0 1 0
0 1 0
0 1 0
0 1 0
0 1 0
0.00541695 1 0
0.0467231 1 0
0.100267 1 0
0.166857 1 0
0.245686 1 0
0.326604 1 0
0.403952 1 0
0.479973 1 0
0.559411 1 0
0.639643 1 0
0.717845 1 0
0.791043 1 0
0.856748 1 0
0.913893 1 0
0.966567 1 0
1 1 0
1 1 0
1 1 0
1 1 0
1 1 0
1 1 0
1 1 0
1 1 0
1 1 0
1 1 0
0 1 0
0 1 0
0 1 0
0 1 0
0 1 0
0 1 0
0 1 0
0.0055848 1 0
0.0328832 1 0
0.0710918 1 0
0.121492 1 0
0.184588 1 0
0.25977 1 0
0.338094 1 0
0.414862 1 0
0.487602 1 0
0.563912 1 0
0.641215 1 0
0.716884 1 0
0.788037 1 0
0.85214 1 0
0.90811 1 0
0.959808 1 0
1 1 0
1 1 0
1 1 0
1 1 0
1 1 0
1 1 0
1 1 0
1 1 0
1 1 0
1 1 0
0.0183108 1 0
0.0158083 1 0
0.0131685 1 0.00109865
0.0113222 1 0.00347906
0.0121157 1 0.00556954
0.0151827 1 0.00636301
0.0233768 1 0.00630198
0.0381628 1 0.0049897
0.0623636 1 0.00227359
