assets/luts/premium.cube
TITLE "Generated by Resolve"
LUT_3D_SIZE 9
6.10361e-05 6.10361e-05 6.10361e-05
0.155795 0 0
0.378851 0 0
0.741604 0 0
1 0 0
1 0 0
1 0 0
1 0.0338903 0.0299382
1 0.0574044 0.0537881
0 0.129793 0
0.108034 0.105394 0
0.308629 0.0866712 0
0.681575 0.0460059 0
1 0 0
1 0 0
1 0 0
1 0.046128 0.03505
1 0.0868849 0.0817273
0 0.320714 0
0.0621653 0.315755 0
0.266545 0.260807 0
0.609934 0.210834 0
1 0.180545 0
1 0.144579 0
1 0.152041 0.0176699
1 0.197559 0.0984817
1 0.244266 0.160433
0 0.553704 0
0 0.573693 0
0.145327 0.548623 0
0.468742 0.461097 0
0.855222 0.405325 0
1 0.420203 0
1 0.425361 0.0343328
1 0.453468 0.103593
1 0.491157 0.164599
0 0.807034 0
0 0.839124 0
0.0167391 0.845731 0
0.341436 0.786068 0
0.697429 0.688197 0
1 0.625788 0
1 0.669688 0
1 0.730785 0.0838636
1 0.761898 0.142458
0 1 0
0 1 0
0 1 0
0.231922 1 0
0.591928 0.982666 0
0.90866 0.898436 0
1 0.851255 0
1 0.9019 0
1 0.947768 0.0374456
0 1 0
0 1 0
0 1 0
0.236271 1 0
0.560632 1 0
0.865812 1 0
1 1 0
1 1 0
1 1 0
0.0662547 1 0.0477913
0.0644694 1 0.0624247
0.104372 1 0.0548104
0.301518 1 0.0152438
0.58645 1 0
0.855039 1 0
1 1 0
1 1 0
1 1 0
0.199329 1 0.187701
0.180606 1 0.187655
0.203723 1 0.177203
0.371344 1 0.135821
0.627268 1 0.0764935
0.864988 1 0
1 1 0
1 1 0
1 1 0
0 0 0.150668
0.153277 0 0.146853
0.387808 0 0.121584
0.75671 0 0.0641642
1 0 0.0114137
1 0 0
1 0 0
1 0.0397345 0.0448157
1 0.060914 0.0620432
0 0.122438 0.11606
0.10631 0.102342 0.0950637
0.331472 0.0825818 0.0750591
0.689326 0.0414588 0.0327459
1 0 0
1 0 0
1 0 0
1 0.0539712 0.0488136
1 0.0933089 0.0890059
0 0.318959 0.0407111
0.0509499 0.315572 0.0255894
0.268193 0.261936 0
0.617761 0.218982 0.0322118
1 0.18085 0.0131991
1 0.147799 0
1 0.15845 0.0341344
1 0.206851 0.107866
1 0.252461 0.164355
0 0.556573 0
0 0.576654 0
0.146609 0.557671 0
0.47541 0.467674 0
0.866835 0.413138 0
1 0.427237 0.000549325
1 0.429358 0.0357671
1 0.460655 0.104112
1 0.498131 0.162142
0 0.817151 0
0 0.850141 0
0.0211643 0.856397 0
0.346075 0.796963 0
0.704906 0.695735 0
1 0.632853 0
1 0.677409 0
1 0.736522 0.0766461
1 0.767254 0.133791
0 1 0
0 1 0
0 1 0
0.238178 1 0
0.597604 0.991913 0
0.913054 0.902815 0
1 0.854765 0
1 0.904616 0
1 0.949813 0.0262455
0 1 0
0 1 0
0 1 0
0.240223 1 0
0.562112 1 0
0.865522 1 0
1 1 0
1 1 0
1 1 0
0.0750896 1 0.0408789
0.0734874 1 0.0555886
0.111269 1 0.0478523
0.301946 1 0.00476081
0.584726 1 0
0.85124 1 0
1 1 0
1 1 0
1 1 0
0.200534 1 0.170443
0.180545 1 0.169055
0.201923 1 0.157931
0.366354 1 0.115282
0.620569 1 0.0540017
0.858946 1 0
1 1 0
1 1 0
1 1 0
0 0 0.39408
0.1467 0 0.385138
0.370764 0 0.357702
0.744823 0 0.29688
1 0 0.211536
1 0 0.144945
1 0 0.139239
1 0.0574044 0.167269
1 0.0820172 0.179355
0 0.103807 0.357244
0.0888838 0.0817884 0.345769
0.332952 0.0549325 0.317617
0.696162 0.00607309 0.245304
1 0 0.170367
1 0 0.1243
1 0.00216678 0.127916
1 0.0731212 0.16997
1 0.115846 0.203342
0 0.303471 0.291676
0.0356909 0.298589 0.28632
0.275044 0.268345 0.256001
0.645197 0.220951 0.21059
1 0.172732 0.161883
1 0.150576 0.140459
1 0.170367 0.161837
1 0.22504 0.21857
1 0.272297 0.266819
0 0.549111 0.112779
0 0.568292 0.123568
0.140795 0.565759 0.113497
0.489097 0.480415 0.0459754
0.89482 0.439185 0.074815
1 0.436622 0.113893
1 0.439109 0.136324
1 0.474098 0.194247
1 0.512566 0.245365
0 0.818662 0
0 0.850309 0
0.0230869 0.857877 0
0.350042 0.809674 0
0.71487 0.705119 0
1 0.648905 0
1 0.698009 0.0409247
1 0.746044 0.144991
1 0.776394 0.196338
0 1 0
0 1 0
0 1 0
0.248737 1 0
0.602029 0.999313 0
0.916121 0.905699 0
1 0.860883 0
1 0.912184 0
1 0.959457 0.0938277
0 1 0
0 1 0
0.00914015 1 0
0.247883 1 0
0.565728 1 0
0.86273 1 0
1 1 0
1 0.996933 0
1 1 0
0.0933547 1 0.106737
0.0883345 1 0.115908
0.121965 1 0.105058
0.306157 1 0.059617
0.588052 1 0
0.848569 1 0
1 1 0
1 1 0
1 1 0
0.207538 1 0.212497
0.186023 1 0.207782
0.20473 1 0.193805
0.364477 1 0.147799
0.615595 1 0.0829328
0.854139 1 0.00195315
0.998901 1 0
1 1 0
1 1 0
0 0 0.783169
0.119127 0 0.772808
0.343725 0 0.756039
0.70425 0 0.685496
1 0 0.593668
1 0 0.505745
1 0 0.466835
1 0.0504005 0.469062
1 0.0826276 0.475532
0 0.0751965 0.747494
0.0674296 0.0576791 0.738903
0.294331 0.0295872 0.711681
0.660502 0 0.641184
1 0 0.555459
1 0 0.480156
1 0 0.452842
1 0.0725109 0.474144
1 0.121782 0.49984
0 0.261524 0.6766
0.0119478 0.254398 0.678309
0.242802 0.233616 0.670848
0.629389 0.177508 0.607492
1 0.132876 0.527398
1 0.122545 0.476448
1 0.158267 0.475517
1 0.229786 0.51574
1 0.27982 0.553002
0 0.520729 0.505486
0 0.537316 0.521904
0.119814 0.540719 0.525154
0.503044 0.494453 0.479301
0.919631 0.450492 0.4383
1 0.426551 0.415366
1 0.436728 0.427405
1 0.478935 0.471916
1 0.519417 0.513497
0 0.803037 0.333745
0 0.831739 0.357061
0.0234531 0.841077 0.360143
0.34934 0.815473 0.322087
0.72137 0.710918 0.215503
1 0.676066 0.251926
1 0.720043 0.350271
1 0.747829 0.394949
1 0.776593 0.435233
0 1 0.23743
0 1 0.259602
0 1 0.262882
0.257221 1 0.232288
0.601389 0.998459 0.148516
0.910765 0.900069 0.0332952
1 0.865232 0.0585336
1 0.923995 0.243503
1 0.968765 0.343557
0 1 0.265156
0 1 0.28127
0.0418708 1 0.278721
0.261357 1 0.240757
0.571176 1 0.170855
0.851423 1 0.05066
1 1 0
1 0.984405 0
1 1 0.129519
0.114122 1 0.357763
0.105226 1 0.359823
0.134005 1 0.344518
0.310719 1 0.295705
0.586023 1 0.228702
0.840757 1 0.132952
1 1 0.0385595
1 1 0
1 1 0
0.210437 1 0.426154
0.187625 1 0.417166
0.203403 1 0.398795
0.35761 1 0.347662
0.603616 1 0.276707
0.842725 1 0.199619
0.982589 1 0.125994
1 1 0.0592355
1 1 0
0 0 1
0.0903182 0 1
0.297169 0 1
0.642649 0 1
1 0 0.999237
1 0 0.917449
1 0 0.858793
1 0.0306096 0.837507
1 0.0654307 0.837339
0 0.0474098 1
0.0442359 0.032517 1
0.250416 0.00775158 1
0.601968 0 1
0.996017 0 0.973358
1 0 0.897856
1 0 0.851011
1 0.0578012 0.849332
1 0.107515 0.86511
0 0.224247 1
0.0149081 0.216953 1
0.210285 0.200565 1
0.569955 0.152972 1
0.985809 0.107576 0.961898
1 0.0990005 0.898375
1 0.139315 0.871504
1 0.216831 0.887037
1 0.267445 0.911635
0 0.475715 0.918334
0 0.491249 0.93959
0.119234 0.496422 0.951476
0.472709 0.462791 0.929381
0.902373 0.412421 0.876783
1 0.395743 0.815
1 0.415915 0.802884
1 0.465751 0.828336
1 0.506859 0.858045
0 0.778683 0.761852
0 0.804868 0.788006
0.0192569 0.814649 0.797971
0.337423 0.787366 0.771466
0.734203 0.725933 0.711559
1 0.698405 0.688106
1 0.704189 0.695552
1 0.731884 0.72517
1 0.759091 0.753491
0 1 0.633158
0 1 0.658137
0.0126497 1 0.669429
0.271427 1 0.646296
0.605661 0.993881 0.584207
0.904295 0.893935 0.458976
1 0.886244 0.517525
1 0.939422 0.620966
1 0.950393 0.640833
0.0165255 1 0.642176
0.026215 1 0.660182
0.0763561 1 0.659464
0.272755 1 0.618158
0.568353 1 0.550713
0.841596 1 0.447883
1 1 0.328908
1 0.972686 0.348745
1 1 0.49604
0.126421 1 0.694347
0.115389 1 0.695644
0.141817 1 0.682261
0.310262 1 0.633143
0.574151 1 0.560937
0.830869 1 0.480995
0.978927 1 0.388373
1 1 0.292729
1 1 0.233371
0.207828 1 0.732998
0.18378 1 0.723247
0.196872 1 0.703853
0.345678 1 0.650843
0.585687 1 0.576547
0.827146 1 0.507164
0.960098 1 0.434928
1 1 0.369207
1 1 0.300938
0 0 1
0.0640269 0 1
0.248844 0 1
0.577691 0 1
0.947982 0 1
1 0 1
1 0 1
1 0.0157778 1
1 0.0490425 1
0 0.0309911 1
0.0320134 0.0200504 1
0.211414 0.00190738 1
0.544518 0 1
0.925429 0 1
1 0 1
1 0 1
1 0.0488136 1
1 0.0998703 1
0 0.192706 1
0.0282444 0.188876 1
0.187869 0.178882 1
0.522988 0.142992 1
0.920714 0.105241 1
1 0.0881514 1
1 0.125444 1
1 0.205432 1
1 0.256031 1
0 0.441413 1
0 0.457633 1
0.136553 0.468437 1
0.449378 0.440772 1
0.844114 0.400748 1
1 0.374166 1
1 0.398047 1
1 0.450446 1
1 0.492454 1
0 0.733501 1
0 0.756985 1
0.0523232 0.768475 1
0.342641 0.7476 1
0.714229 0.706203 1
1 0.66833 1
1 0.676219 1
1 0.704173 1
1 0.729564 1
0 1 0.989822
0 1 1
0.0110781 1 1
0.258595 1 1
0.587961 0.968917 0.955779
0.917113 0.910399 0.898787
1 0.902815 0.895003
1 0.91046 0.90428
1 0.919036 0.914015
0.0109407 1 0.96878
0.0179751 1 0.986343
0.0687114 1 0.988037
0.267475 1 0.952865
0.558236 1 0.893156
0.839185 1 0.823255
0.992737 0.983429 0.710063
1 0.980819 0.766033
1 1 0.844678
0.134371 1 1
0.121309 1 1
0.148425 1 0.996048
0.31426 1 0.951324
0.56173 1 0.876661
0.816663 1 0.804746
0.961563 1 0.730266
1 1 0.635599
1 1 0.631907
0.218891 1 1
0.193164 1 1
0.198169 1 0.997284
0.338308 1 0.943023
0.573053 1 0.869352
0.808179 1 0.798627
0.942946 1 0.743877
1 1 0.680232
1 1 0.616068
0 0 1
0.0609751 0 1
0.22356 0 1
0.536446 0 1
0.894072 0 1
1 0 1
1 0 1
1 0.0159152 1
1 0.0497749 1
0 0.0369879 1
0.0411536 0.0309148 1
0.194461 0.0183719 1
0.508202 0 1
0.875074 0 1
1 0 1
1 0 1
1 0.0539406 1
1 0.108217 1
0.0234989 0.180529 1
0.0500649 0.182284 1
0.186999 0.179309 1
0.499992 0.15021 1
0.87921 0.117037 1
1 0.107897 1
1 0.14052 1
1 0.207553 1
1 0.259693 1
0.0193484 0.431647 1
0.0394903 0.4486 1
0.152773 0.459327 1
0.444831 0.437888 1
0.813458 0.400656 1
1 0.379416 1
1 0.398489 1
1 0.447715 1
1 0.490974 1
0 0.713924 1
0 0.735058 1
0.0884108 0.750607 1
0.360189 0.737087 1
0.704677 0.698466 1
1 0.665705 1
1 0.667765 1
1 0.696193 1
1 0.722011 1
0 0.977295 1
0 0.999939 1
0.0367742 1 1
0.272068 0.991012 1
0.594965 0.947768 1
0.908019 0.902113 1
1 0.882521 1
1 0.889906 1
1 0.897429 1
0.0178378 1 1
0.016083 1 1
0.0640269 1 1
0.26099 1 1
0.549676 1 1
0.830396 1 1
1 1 0.994034
1 1 0.996094
1 0.998306 0.994034
0.133516 1 1
0.116136 1 1
0.139864 1 1
0.30341 1 1
0.559915 1 1
0.813031 1 0.996216
0.963638 1 0.952712
1 1 0.86508
1 1 0.902052
0.215534 1 1
0.189853 1 1
0.201404 1 1
0.346761 1 1
0.583688 1 1
0.808621 1 0.97171
0.941405 1 0.930251
0.991379 1 0.881636
1 1 0.824109
0.0495308 0.0399176 1
0.0839857 0.0349737 1
0.218967 0.0304112 1
0.513191 0.00477607 1
0.857969 0 1
1 0 1
1 0.00619516 1
1 0.0651713 1
1 0.0899214 1
0.044419 0.0659037 1
0.0662242 0.058793 1
0.194217 0.0503853 1
0.490349 0.021912 1
0.845457 0 1
1 0 1
1 0.0318914 1
1 0.100923 1
1 0.143908 1
0.0717632 0.192081 1
0.0843671 0.193835 1
0.199786 0.194095 1
0.494224 0.171801 1
0.859724 0.148104 1
1 0.144228 1
1 0.180362 1
1 0.240864 1
1 0.282719 1
0.066743 0.437201 1
0.081117 0.454398 1
0.178973 0.465797 1
0.451698 0.446799 1
0.802945 0.415473 1
1 0.39852 1
1 0.421286 1
1 0.465309 1
1 0.500725 1
0.0378729 0.719631 1
0.0496834 0.73994 1
0.133272 0.755474 1
0.378256 0.737575 1
0.705119 0.700679 1
1 0.67245 1
1 0.677378 1
1 0.701076 1
1 0.721538 1
0.0052491 0.971267 1
0.0135805 0.993301 1
0.0796826 1 1
0.301701 0.984283 1
0.608682 0.941955 1
0.902037 0.897948 1
1 0.881865 1
1 0.885237 1
1 0.891844 1
0.0659342 1 1
0.0613413 1 1
0.103029 1 1
0.290043 1 1
0.566049 1 1
0.835492 1 1
1 0.999298 1
1 0.987945 1
1 0.985031 1
0.145922 1 1
0.126726 1 1
0.148226 1 1
0.309071 1 1
0.561456 1 1
0.810132 1 1
0.960983 1 1
1 1 1
1 1 1
0.222126 1 1
0.195804 1 1
0.206653 1 1
0.350683 1 1
0.585245 1 1
0.818769 1 1
0.958907 1 1
1 1 0.992554
1 1 0.957839
0.0518044 0.0428321 1
0.0835431 0.0394903 1
0.214313 0.0371252 1
0.504372 0.013901 1
0.845747 0 1
1 0 1
1 0.0240635 1
1 0.0875105 1
1 0.117662 1
0.0530098 0.0703746 1
0.0721294 0.065507 1
0.195117 0.0603799 1
0.486213 0.0358282 1
0.836988 0.01178 1
1 0.0126192 1
1 0.0570993 1
1 0.130785 1
1 0.178729 1
0.0862745 0.196704 1
0.0990921 0.201541 1
0.210605 0.205661 1
0.498909 0.187808 1
0.857527 0.166964 1
1 0.165927 1
1 0.204883 1
1 0.268345 1
1 0.314061 1
0.0871748 0.443015 1
0.102541 0.462119 1
0.196994 0.47538 1
0.462058 0.458106 1
0.804288 0.429328 1
1 0.415457 1
1 0.440513 1
1 0.48661 1
1 0.524361 1
0.0660105 0.724636 1
0.0781567 0.745754 1
0.158602 0.762417 1
0.393149 0.742931 1
0.712016 0.708705 1
1 0.682612 1
1 0.688777 1
1 0.713603 1
1 0.734401 1
0.0411383 0.972183 1
0.0485847 0.993591 1
0.109804 1 1
0.32398 0.98294 1
0.622248 0.942229 1
0.901595 0.898741 1
1 0.884337 1
1 0.888853 1
1 0.893812 1
0.108141 1 1
0.102007 1 1
0.140108 1 1
0.319997 1 1
0.586465 1 1
0.845487 1 1
0.996841 0.994644 1
1 0.986175 1
1 0.981765 1
0.193332 1 1
0.173281 1 1
0.192523 1 1
0.348669 1 1
0.592477 1 1
0.831968 1 1
0.973297 1 1
1 1 1
1 1 1
0.240223 1 1
0.213031 1 1
0.22266 1 1
0.366155 1 1
0.599405 1 1
0.833188 1 1
0.97232 1 1
1 1 1
1 1 1
