assets/luts/premium.cube
TITLE "Generated by Resolve"
LUT_3D_SIZE 5
6.10361e-05 6.10361e-05 6.10361e-05
0.378851 0 0
1 0 0
1 0 0
1 0.0574044 0.0537881
0 0.320714 0
0.266545 0.260807 0
1 0.180545 0
1 0.152041 0.0176699
1 0.244266 0.160433
0 0.807034 0
0.0167391 0.845731 0
0.697429 0.688197 0
1 0.669688 0
1 0.761898 0.142458
0 1 0
0 1 0
0.560632 1 0
1 1 0
1 1 0
0.199329 1 0.187701
0.203723 1 0.177203
0.627268 1 0.0764935
1 1 0
1 1 0
0 0 0.39408
0.370764 0 0.357702
1 0 0.211536
1 0 0.139239
1 0.0820172 0.179355
0 0.303471 0.291676
0.275044 0.268345 0.256001
1 0.172732 0.161883
1 0.170367 0.161837
1 0.272297 0.266819
0 0.818662 0
0.0230869 0.857877 0
0.71487 0.705119 0
1 0.698009 0.0409247
1 0.776394 0.196338
0 1 0
0.00914015 1 0
0.565728 1 0
1 1 0
1 1 0
0.207538 1 0.212497
0.20473 1 0.193805
0.615595 1 0.0829328
0.998901 1 0
1 1 0
0 0 1
0.297169 0 1
1 0 0.999237
1 0 0.858793
1 0.0654307 0.837339
0 0.224247 1
0.210285 0.200565 1
0.985809 0.107576 0.961898
1 0.139315 0.871504
1 0.267445 0.911635
0 0.778683 0.761852
0.0192569 0.814649 0.797971
0.734203 0.725933 0.711559
1 0.704189 0.695552
1 0.759091 0.753491
0.0165255 1 0.642176
0.0763561 1 0.659464
0.568353 1 0.550713
1 1 0.328908
1 1 0.49604
0.207828 1 0.732998
0.196872 1 0.703853
0.585687 1 0.576547
0.960098 1 0.434928
1 1 0.300938
0 0 1
0.22356 0 1
0.894072 0 1
1 0 1
1 0.0497749 1
0.0234989 0.180529 1
0.186999 0.179309 1
0.87921 0.117037 1
1 0.14052 1
1 0.259693 1
0 0.713924 1
0.0884108 0.750607 1
0.704677 0.698466 1
1 0.667765 1
1 0.722011 1
0.0178378 1 1
0.0640269 1 1
0.549676 1 1
1 1 0.994034
1 0.998306 0.994034
0.215534 1 1
0.201404 1 1
0.583688 1 1
0.941405 1 0.930251
1 1 0.824109
0.0518044 0.0428321 1
0.214313 0.0371252 1
0.845747 0 1
1 0.0240635 1
1 0.117662 1
0.0862745 0.196704 1
0.210605 0.205661 1
0.857527 0.166964 1
1 0.204883 1
1 0.314061 1
0.0660105 0.724636 1
0.158602 0.762417 1
0.712016 0.708705 1
1 0.688777 1
1 0.734401 1
0.108141 1 1
0.140108 1 1
0.586465 1 1
0.996841 0.994644 1
1 0.981765 1
0.240223 1 1
0.22266 1 1
0.599405 1 1
0.97232 1 1
1 1 1
