assets/luts/realism.3dl
#Created by: Adobe Photoshop Export Color Lookup Plugin
#Description: lut.psd
0 33 66 99 132 165 198 231 264 297 330 363 396 429 462 495 528 561 594 627 660 693 726 759 792 825 858 891 924 957 990 1023
0 0 0
0 0 256
0 0 470
0 0 667
0 0 849
0 0 1020
0 0 1183
0 0 1340
0 0 1497
0 0 1653
0 0 1809
0 0 1966
0 0 2121
0 0 2271
0 0 2414
0 0 2551
0 0 2686
0 0 2821
0 0 2959
0 0 3099
0 0 3240
0 0 3378
0 0 3512
0 0 3641
0 0 3763
0 0 3876
0 0 3980
0 0 4074
0 0 4095
0 0 4095
0 0 4095
0 0 4095
0 254 0
0 254 254
0 254 470
0 254 666
0 254 848
0 254 1020
0 254 1182
0 254 1340
0 254 1496
0 254 1652
0 254 1809
0 254 1966
0 254 2121
0 254 2271
0 254 2414
0 254 2551
0 254 2686
0 254 2821
0 254 2959
0 254 3099
0 254 3240
0 254 3378
0 254 3512
0 254 3641
0 254 3763
0 254 3876
0 254 3980
0 254 4074
0 254 4095
0 254 4095
0 254 4095
0 254 4095
0 469 0
0 469 253
0 469 469
0 469 665
0 469 848
0 469 1019
0 469 1182
0 469 1340
0 469 1496
0 469 1652
0 469 1809
0 469 1966
0 469 2121
0 469 2271
0 469 2413
0 469 2551
0 469 2686
0 469 2821
0 469 2959
0 469 3099
0 469 3240
0 469 3378
0 469 3512
0 469 3641
0 469 3763
0 469 3876
0 469 3980
0 469 4074
0 469 4095
0 469 4095
0 469 4095
0 469 4095
0 664 0
0 664 250
0 664 467
0 664 664
0 664 847
0 664 1018
0 664 1181
0 664 1339
0 664 1496
0 664 1652
0 664 1808
0 664 1965
0 664 2121
0 664 2271
0 664 2413
0 664 2551
0 664 2686
0 664 2821
0 664 2959
0 664 3099
0 664 3240
0 664 3378
0 664 3512
0 664 3640
0 664 3762
0 664 3876
0 664 3980
0 664 4074
0 664 4095
0 664 4095
0 664 4095
0 664 4095
0 846 0
0 846 246
0 846 465
0 846 663
0 846 846
0 846 1017
0 846 1181
0 846 1339
0 846 1495
0 846 1651
0 846 1808
0 846 1965
0 846 2120
0 846 2271
0 846 2413
0 846 2550
0 846 2686
0 846 2821
0 846 2959
0 846 3099
0 846 3239
0 846 3377
0 846 3512
0 846 3640
0 846 3762
0 846 3876
0 846 3980
0 846 4074
0 846 4095
0 846 4095
0 846 4095
0 846 4095
0 1016 0
0 1016 241
0 1016 462
0 1016 661
0 1016 844
0 1016 1016
0 1016 1180
0 1016 1338
0 1016 1494
0 1016 1651
0 1016 1807
0 1016 1965
0 1016 2120
0 1016 2270
0 1016 2413
0 1016 2550
0 1016 2685
0 1016 2821
0 1016 2959
0 1016 3099
0 1016 3239
0 1016 3377
0 1016 3512
0 1016 3640
0 1016 3762
0 1016 3875
0 1016 3980
0 1016 4074
0 1016 4095
0 1016 4095
0 1016 4095
0 1016 4095
0 1179 0
0 1179 235
0 1179 459
0 1179 659
0 1179 843
0 1179 1015
0 1179 1179
0 1179 1337
0 1179 1494
0 1179 1650
0 1179 1807
0 1179 1964
0 1179 2120
0 1179 2270
0 1179 2412
0 1179 2550
0 1179 2685
0 1179 2820
0 1179 2958
0 1179 3098
0 1179 3239
0 1179 3377
0 1179 3511
0 1179 3640
0 1179 3762
0 1179 3875
0 1179 3979
0 1179 4073
0 1179 4095
0 1179 4095
0 1179 4095
0 1179 4095
0 1336 0
0 1336 229
0 1336 455
0 1336 656
0 1336 841
0 1336 1014
0 1336 1178
0 1336 1336
0 1336 1493
0 1336 1649
0 1336 1806
0 1336 1964
0 1336 2119
0 1336 2269
0 1336 2412
0 1336 2550
0 1336 2685
0 1336 2820
0 1336 2958
0 1336 3098
0 1336 3238
0 1336 3377
0 1336 3511
0 1336 3639
0 1336 3761
0 1336 3875
0 1336 3979
0 1336 4073
0 1336 4095
0 1336 4095
0 1336 4095
0 1336 4095
0 1492 0
0 1492 221
0 1492 450
0 1492 653
0 1492 839
0 1492 1012
0 1492 1176
0 1492 1335
0 1492 1492
0 1492 1648
0 1492 1805
0 1492 1963
0 1492 2118
0 1492 2269
0 1492 2412
0 1492 2549
0 1492 2684
0 1492 2820
0 1492 2957
0 1492 3098
0 1492 3238
0 1492 3376
0 1492 3511
0 1492 3639
0 1492 3761
0 1492 3875
0 1492 3979
0 1492 4073
0 1492 4095
0 1492 4095
0 1492 4095
0 1492 4095
0 1647 0
0 1647 212
0 1647 445
0 1647 650
0 1647 836
0 1647 1010
0 1647 1174
0 1647 1334
0 1647 1491
0 1647 1647
0 1647 1805
0 1647 1962
0 1647 2118
0 1647 2268
0 1647 2411
0 1647 2549
0 1647 2684
0 1647 2819
0 1647 2957
0 1647 3097
0 1647 3238
0 1647 3376
0 1647 3510
0 1647 3639
0 1647 3761
0 1647 3874
0 1647 3978
0 1647 4072
0 1647 4095
0 1647 4095
0 1647 4095
0 1647 4095
0 1804 0
0 1804 200
0 1804 439
0 1804 646
0 1804 833
0 1804 1008
0 1804 1173
0 1804 1332
0 1804 1489
0 1804 1646
0 1804 1804
0 1804 1961
0 1804 2117
0 1804 2268
0 1804 2411
0 1804 2548
0 1804 2684
0 1804 2819
0 1804 2956
0 1804 3097
0 1804 3237
0 1804 3375
0 1804 3510
0 1804 3638
0 1804 3760
0 1804 3874
0 1804 3978
0 1804 4072
0 1804 4095
0 1804 4095
0 1804 4095
0 1804 4095
0 1960 0
0 1960 187
0 1960 432
0 1960 641
0 1960 830
0 1960 1005
0 1960 1170
0 1960 1330
0 1960 1488
0 1960 1645
0 1960 1802
0 1960 1960
0 1960 2116
0 1960 2267
0 1960 2410
0 1960 2548
0 1960 2683
0 1960 2818
0 1960 2956
0 1960 3096
0 1960 3236
0 1960 3375
0 1960 3509
0 1960 3638
0 1960 3759
0 1960 3873
0 1960 3977
0 1960 4071
0 1960 4095
0 1960 4095
0 1960 4095
0 1960 4095
0 2115 0
0 2115 171
0 2115 424
0 2115 636
0 2115 826
0 2115 1002
0 2115 1168
0 2115 1328
0 2115 1486
0 2115 1643
0 2115 1801
0 2115 1959
0 2115 2115
0 2115 2266
0 2115 2409
0 2115 2547
0 2115 2682
0 2115 2817
0 2115 2955
0 2115 3095
0 2115 3236
0 2115 3374
0 2115 3508
0 2115 3637
0 2115 3759
0 2115 3872
0 2115 3977
0 2115 4071
0 2115 4095
0 2115 4095
0 2115 4095
0 2115 4095
0 2265 0
0 2265 153
0 2265 415
0 2265 630
0 2265 821
0 2265 998
0 2265 1165
0 2265 1326
0 2265 1484
0 2265 1641
0 2265 1799
0 2265 1958
0 2265 2114
0 2265 2265
0 2265 2408
0 2265 2546
0 2265 2682
0 2265 2817
0 2265 2954
0 2265 3095
0 2265 3235
0 2265 3373
0 2265 3508
0 2265 3636
0 2265 3758
0 2265 3872
0 2265 3976
0 2265 4070
0 2265 4095
0 2265 4095
0 2265 4095
0 2265 4095
0 2407 0
0 2407 133
0 2407 404
0 2407 623
0 2407 817
0 2407 995
0 2407 1162
0 2407 1323
0 2407 1482
0 2407 1639
0 2407 1798
0 2407 1956
0 2407 2113
0 2407 2264
0 2407 2407
0 2407 2545
0 2407 2681
0 2407 2816
0 2407 2954
0 2407 3094
0 2407 3234
0 2407 3372
0 2407 3507
0 2407 3635
0 2407 3757
0 2407 3871
0 2407 3975
0 2407 4069
0 2407 4095
0 2407 4095
0 2407 4095
0 2407 4095
0 2544 0
0 2544 112
0 2544 392
0 2544 616
0 2544 811
0 2544 991
0 2544 1159
0 2544 1320
0 2544 1479
0 2544 1637
0 2544 1796
0 2544 1955
0 2544 2111
0 2544 2263
0 2544 2406
0 2544 2544
0 2544 2680
0 2544 2815
0 2544 2953
0 2544 3093
0 2544 3233
0 2544 3372
0 2544 3506
0 2544 3634
0 2544 3756
0 2544 3870
0 2544 3974
0 2544 4068
0 2544 4095
0 2544 4095
0 2544 4095
0 2544 4095
0 2679 0
0 2679 90
0 2679 380
0 2679 608
0 2679 806
0 2679 986
0 2679 1155
0 2679 1317
0 2679 1477
0 2679 1635
0 2679 1794
0 2679 1953
0 2679 2110
0 2679 2262
0 2679 2405
0 2679 2543
0 2679 2679
0 2679 2814
0 2679 2952
0 2679 3092
0 2679 3232
0 2679 3370
0 2679 3505
0 2679 3634
0 2679 3756
0 2679 3869
0 2679 3973
0 2679 4068
0 2679 4095
0 2679 4095
0 2679 4095
0 2679 4095
0 2813 0
0 2813 68
0 2813 367
0 2813 600
0 2813 800
0 2813 982
0 2813 1152
0 2813 1314
0 2813 1474
0 2813 1633
0 2813 1792
0 2813 1951
0 2813 2108
0 2813 2261
0 2813 2404
0 2813 2542
0 2813 2678
0 2813 2813
0 2813 2951
0 2813 3091
0 2813 3231
0 2813 3369
0 2813 3504
0 2813 3632
0 2813 3754
0 2813 3868
0 2813 3972
0 2813 4067
0 2813 4095
0 2813 4095
0 2813 4095
0 2813 4095
0 2950 0
0 2950 44
0 2950 353
0 2950 592
0 2950 794
0 2950 977
0 2950 1148
0 2950 1311
0 2950 1472
0 2950 1631
0 2950 1790
0 2950 1950
0 2950 2107
0 2950 2259
0 2950 2403
0 2950 2541
0 2950 2677
0 2950 2812
0 2950 2950
0 2950 3090
0 2950 3230
0 2950 3368
0 2950 3503
0 2950 3632
0 2950 3754
0 2950 3867
0 2950 3972
0 2950 4066
0 2950 4095
0 2950 4095
0 2950 4095
0 2950 4095
0 3089 0
0 3089 21
0 3089 339
0 3089 583
0 3089 788
0 3089 973
0 3089 1144
0 3089 1308
0 3089 1469
0 3089 1628
0 3089 1788
0 3089 1948
0 3089 2106
0 3089 2258
0 3089 2402
0 3089 2540
0 3089 2676
0 3089 2811
0 3089 2949
0 3089 3089
0 3089 3229
0 3089 3367
0 3089 3502
0 3089 3631
0 3089 3753
0 3089 3866
0 3089 3971
0 3089 4065
0 3089 4095
0 3089 4095
0 3089 4095
0 3089 4095
0 3228 0
0 3228 0
0 3228 325
0 3228 575
0 3228 783
0 3228 968
0 3228 1141
0 3228 1305
0 3228 1466
0 3228 1626
0 3228 1786
0 3228 1946
0 3228 2104
0 3228 2257
0 3228 2401
0 3228 2539
0 3228 2675
0 3228 2810
0 3228 2948
0 3228 3088
0 3228 3228
0 3228 3367
0 3228 3501
0 3228 3630
0 3228 3752
0 3228 3866
0 3228 3970
0 3228 4064
0 3228 4095
0 3228 4095
0 3228 4095
0 3228 4095
0 3366 0
0 3366 0
0 3366 310
0 3366 566
0 3366 777
0 3366 964
0 3366 1137
0 3366 1302
0 3366 1464
0 3366 1624
0 3366 1784
0 3366 1945
0 3366 2103
0 3366 2255
0 3366 2400
0 3366 2538
0 3366 2674
0 3366 2809
0 3366 2947
0 3366 3087
0 3366 3227
0 3366 3366
0 3366 3500
0 3366 3629
0 3366 3751
0 3366 3865
0 3366 3969
0 3366 4063
0 3366 4095
0 3366 4095
0 3366 4095
0 3366 4095
0 3499 0
0 3499 0
0 3499 294
0 3499 557
0 3499 771
0 3499 960
0 3499 1134
0 3499 1299
0 3499 1461
0 3499 1622
0 3499 1782
0 3499 1943
0 3499 2101
0 3499 2254
0 3499 2399
0 3499 2537
0 3499 2673
0 3499 2808
0 3499 2946
0 3499 3086
0 3499 3226
0 3499 3365
0 3499 3499
0 3499 3628
0 3499 3750
0 3499 3864
0 3499 3968
0 3499 4062
0 3499 4095
0 3499 4095
0 3499 4095
0 3499 4095
0 3627 0
0 3627 0
0 3627 279
0 3627 549
0 3627 765
0 3627 955
0 3627 1130
0 3627 1296
0 3627 1459
0 3627 1620
0 3627 1780
0 3627 1941
0 3627 2100
0 3627 2253
0 3627 2398
0 3627 2536
0 3627 2672
0 3627 2807
0 3627 2945
0 3627 3085
0 3627 3225
0 3627 3364
0 3627 3498
0 3627 3627
0 3627 3749
0 3627 3863
0 3627 3967
0 3627 4062
0 3627 4095
0 3627 4095
0 3627 4095
0 3627 4095
0 3748 0
0 3748 0
0 3748 263
0 3748 541
0 3748 759
0 3748 951
0 3748 1127
0 3748 1294
0 3748 1456
0 3748 1618
0 3748 1779
0 3748 1940
0 3748 2098
0 3748 2252
0 3748 2397
0 3748 2535
0 3748 2671
0 3748 2806
0 3748 2944
0 3748 3084
0 3748 3225
0 3748 3363
0 3748 3497
0 3748 3626
0 3748 3748
0 3748 3862
0 3748 3966
0 3748 4061
0 3748 4095
0 3748 4095
0 3748 4095
0 3748 4095
0 3861 0
0 3861 0
0 3861 247
0 3861 533
0 3861 754
0 3861 947
0 3861 1124
0 3861 1291
0 3861 1454
0 3861 1615
0 3861 1777
0 3861 1938
0 3861 2097
0 3861 2251
0 3861 2396
0 3861 2534
0 3861 2670
0 3861 2806
0 3861 2943
0 3861 3083
0 3861 3224
0 3861 3362
0 3861 3496
0 3861 3625
0 3861 3747
0 3861 3861
0 3861 3966
0 3861 4060
0 3861 4095
0 3861 4095
0 3861 4095
0 3861 4095
0 3965 0
0 3965 0
0 3965 232
0 3965 525
0 3965 749
0 3965 943
0 3965 1121
0 3965 1288
0 3965 1452
0 3965 1614
0 3965 1775
0 3965 1937
0 3965 2096
0 3965 2250
0 3965 2395
0 3965 2534
0 3965 2669
0 3965 2805
0 3965 2942
0 3965 3082
0 3965 3223
0 3965 3361
0 3965 3496
0 3965 3624
0 3965 3747
0 3965 3861
0 3965 3965
0 3965 4059
0 3965 4095
0 3965 4095
0 3965 4095
0 3965 4095
0 4059 0
0 4059 0
0 4059 217
0 4059 518
0 4059 744
0 4059 939
0 4059 1118
0 4059 1286
0 4059 1450
0 4059 1612
0 4059 1774
0 4059 1936
0 4059 2095
0 4059 2249
0 4059 2394
0 4059 2533
0 4059 2669
0 4059 2804
0 4059 2942
0 4059 3082
0 4059 3222
0 4059 3360
0 4059 3495
0 4059 3624
0 4059 3746
0 4059 3860
0 4059 3964
0 4059 4059
0 4059 4095
0 4059 4095
0 4059 4095
0 4059 4095
0 4095 0
0 4095 0
0 4095 210
0 4095 515
