assets/luts/Warm_Runner.CUBE
#Generated by: Picture Instruments - Image2LUT
TITLE "Warm_BladeRunnerLUT_Look"
LUT_3D_SIZE 5
DOMAIN_MIN 0.000000 0.000000 0.000000
DOMAIN_MAX 0.903226 0.903226 0.903226
0.0000 0.0000 0.0000
0.1961 0.0000 0.0000
0.4471 0.0000 0.0000
0.6941 0.0000 0.0000
0.9412 0.0000 0.0000
0.0824 0.2627 0.0824
0.2000 0.2039 0.0000
0.4471 0.2000 0.0000
0.6941 0.2000 0.0000
0.9412 0.2000 0.0000
0.0078 0.4627 0.0078
0.2157 0.4471 0.0000
0.4431 0.4471 0.0000
0.6941 0.4471 0.0000
0.9412 0.4471 0.0000
0.0000 0.6941 0.0000
0.2000 0.6941 0.0000
0.4471 0.6941 0.0000
0.6941 0.6941 0.0000
0.9412 0.6941 0.0000
0.0000 0.9412 0.0000
0.2000 0.9412 0.0000
0.4471 0.9412 0.0000
0.6941 0.9412 0.0000
0.9412 0.9412 0.0000
0.0000 0.0000 0.0000
0.1725 0.0039 0.1216
0.4471 0.0000 0.2000
0.6941 0.0000 0.2000
0.9412 0.0000 0.2000
0.0667 0.2157 0.1020
0.1961 0.2000 0.1176
0.4863 0.1569 0.1569
0.7020 0.1961 0.1961
0.9412 0.2000 0.2000
0.0039 0.4471 0.2000
0.2353 0.3804 0.1647
0.4667 0.4627 0.1608
0.7059 0.4471 0.1922
0.9412 0.4471 0.2000
0.0000 0.6941 0.2000
0.2078 0.6667 0.1961
0.4314 0.6510 0.1922
0.6941 0.6902 0.1961
0.9412 0.6941 0.2000
0.0000 0.9412 0.2000
0.2000 0.9412 0.2000
0.4471 0.9412 0.2000
0.6941 0.9412 0.2000
0.9412 0.9412 0.2000
0.0000 0.0000 0.3804
0.1922 0.0000 0.3882
0.4314 0.0000 0.4118
0.6941 0.0000 0.4471
0.9412 0.0000 0.4471
0.0000 0.1961 0.3882
0.2000 0.1843 0.2000
0.4118 0.1922 0.3333
0.7020 0.1922 0.4431
0.9412 0.2000 0.4471
0.0000 0.4353 0.4118
0.2314 0.3294 0.2157
0.3843 0.3333 0.2549
0.7373 0.4039 0.4039
0.9490 0.4392 0.4392
0.0000 0.6941 0.4471
0.2118 0.6510 0.4078
0.3804 0.4588 0.2510
0.7098 0.6980 0.3882
0.9490 0.6941 0.4392
0.0000 0.9412 0.4471
0.2000 0.9412 0.4471
0.4471 0.9020 0.4275
0.6784 0.8941 0.4235
0.9373 0.9373 0.4392
0.0000 0.0000 0.6941
0.2000 0.0000 0.6941
0.4471 0.0000 0.6941
0.6941 0.0000 0.6941
0.9412 0.0000 0.6941
0.0000 0.2000 0.6941
0.2039 0.1961 0.6549
0.4275 0.1922 0.6353
0.6706 0.2000 0.6549
0.9412 0.2000 0.6941
0.0000 0.4471 0.6941
0.2157 0.4275 0.6471
0.4196 0.3451 0.4510
0.6627 0.4196 0.6000
0.9451 0.4392 0.6941
0.0000 0.6941 0.6941
0.2196 0.6667 0.6588
0.4980 0.5490 0.5137
0.6784 0.6196 0.5804
0.9765 0.6549 0.6549
0.0000 0.9412 0.6941
0.2000 0.9412 0.6941
0.4706 0.9098 0.6784
0.7020 0.8039 0.6196
0.9569 0.9490 0.6549
0.0000 0.0000 0.9412
0.2000 0.0000 0.9412
0.4471 0.0000 0.9412
0.6941 0.0000 0.9412
0.9412 0.0000 0.9412
0.0000 0.2000 0.9412
0.2000 0.2000 0.9412
0.4471 0.2000 0.9412
0.6941 0.2000 0.9412
0.9412 0.2000 0.9412
0.0000 0.4471 0.9412
0.2000 0.4471 0.9412
0.4549 0.4431 0.9059
0.6863 0.4431 0.8980
0.9255 0.4510 0.9176
0.0000 0.6941 0.9412
0.2000 0.6941 0.9412
0.4706 0.6863 0.9098
0.7294 0.6745 0.8078
0.9294 0.6902 0.9020
0.0000 0.9412 0.9412
0.2000 0.9412 0.9412
0.4667 0.9255 0.9216
0.8118 0.8824 0.8706
0.9725 0.9333 0.9216
